; GCode generated by CraftWare

G28 X0 Y0
G28 Z0

M190 S70 ;set bed temp (wait)
M109 S220 ;set head temp (wait)

; ------------------------------------
; Raft Layer #0
; ------------------------------------
G21 ; mm
G90 ; abs
G92 E0 ; reset extr
M106 S0
;segType:Raft
G0 F4800 E-1.0000
G0 F300 Z0.300
G0 X0.000 Y0.000 F10800
G0 F4800 E0.0000
G1 X115.123 Y106.094 E7.8105 F600
G1 X115.123 Y94.141 E8.4069
G1 X118.797 Y93.672 E8.5916
G1 X118.797 Y106.445 E9.2289
G1 X122.470 Y107.500 E9.4196
G1 X122.470 Y92.734 E10.1562
G1 X126.143 Y90.039 E10.3835
G1 X126.143 Y110.078 E11.3833
G1 X129.817 Y110.430 E11.5674
G1 X129.817 Y100.820 E12.0468
G1 X129.817 Y99.297 E12.1228
G1 X129.817 Y89.688 E12.6022
G1 X133.490 Y90.039 E12.7863
G1 X133.490 Y110.195 E13.7919
G1 X137.163 Y107.734 E14.0125
G1 X137.163 Y92.500 E14.7725
G1 X140.836 Y93.672 E14.9649
G1 X140.836 Y106.445 E15.6022
G1 X144.510 Y106.328 E15.7855
G1 X144.510 Y93.906 E16.4053



; ------------------------------------
; Raft Layer #1
; ------------------------------------
G21 ; mm
G90 ; abs
G92 E0 ; reset extr
M106 S0
;segType:Raft
G0 F4800 E-1.0000
G0 F300 Z0.600
G0 X144.923 Y94.311 F10800
G0 F4800 E0.0000
G1 X114.832 Y94.311 E1.5012 F3600
G1 X113.609 Y95.484 E1.5858
G1 X146.146 Y95.484 E3.2091
G1 X146.636 Y96.657 E3.2725
G1 X113.120 Y96.657 E4.9446
G1 X113.120 Y97.830 E5.0032
G1 X146.636 Y97.830 E6.6753
G1 X146.636 Y99.003 E6.7338
G1 X113.120 Y99.003 E8.4059
G1 X113.120 Y100.176 E8.4645
G1 X129.266 Y100.176 E9.2700
G1 X130.489 Y100.176 E9.3310
G1 X146.636 Y100.176 E10.1366
G1 X146.636 Y101.349 E10.1951
G1 X113.120 Y101.349 E11.8672
G1 X113.120 Y102.522 E11.9258
G1 X146.636 Y102.522 E13.5979
G1 X146.636 Y103.695 E13.6564
G1 X113.120 Y103.695 E15.3285
G1 X113.854 Y104.868 E15.3976
G1 X145.902 Y104.868 E16.9964
G1 X144.679 Y106.041 E17.0810
G1 X115.077 Y106.041 E18.5578
G0 F4800 E17.5578
G0 X122.171 Y107.214 F10800
G0 F4800 E18.5578
G1 X137.584 Y107.214 E19.3268 F3600
G1 X136.361 Y108.387 E19.4113
G1 X123.395 Y108.387 E20.0582
G1 X124.863 Y109.560 E20.1519
G1 X134.771 Y109.560 E20.6463
G0 F4800 E19.6463
G0 X137.829 Y93.138 F10800
G0 F4800 E20.6463
G1 X121.927 Y93.138 E21.4396 F3600
G1 X123.150 Y91.964 E21.5242
G1 X136.605 Y91.964 E22.1955
G1 X135.260 Y90.791 E22.2845
G1 X124.496 Y90.791 E22.8215



; ------------------------------------
; Raft Layer #2
; ------------------------------------
G21 ; mm
G90 ; abs
G92 E0 ; reset extr
M106 S0
;segType:Raft
G0 F4800 E-1.0000
G0 F300 Z0.900
G0 X129.817 Y99.297 F10800
G0 F4800 E0.0000
G1 X129.817 Y89.688 E0.4794 F3600
G1 X130.184 Y89.688 E0.4977
G1 X130.184 Y99.531 E0.9888
G0 F4800 E-0.0112
G0 X146.346 Y104.570 F10800
G0 F4800 E0.9888
G1 X146.346 Y95.664 E1.4332 F3600
G1 X145.979 Y95.313 E1.4585
G1 X145.979 Y104.922 E1.9380
G1 X145.612 Y105.273 E1.9633
G1 X145.612 Y94.961 E2.4778
G1 X145.244 Y94.609 E2.5032
G1 X145.244 Y105.625 E3.0528
G1 X144.877 Y105.977 E3.0781
G1 X144.877 Y94.258 E3.6628
G1 X144.510 Y93.906 E3.6881
G1 X144.510 Y106.328 E4.3079
G1 X144.143 Y106.445 E4.3271
G1 X144.143 Y93.672 E4.9644
G1 X143.775 Y93.672 E4.9827
G1 X143.775 Y106.445 E5.6200
G1 X143.408 Y106.445 E5.6383
G1 X143.408 Y93.672 E6.2756
G1 X143.041 Y93.672 E6.2939
G1 X143.041 Y106.445 E6.9312
G1 X142.673 Y106.445 E6.9495
G1 X142.673 Y93.672 E7.5868
G1 X142.306 Y93.672 E7.6051
G1 X142.306 Y106.445 E8.2424
G1 X141.939 Y106.445 E8.2607
G1 X141.939 Y93.672 E8.8980
G1 X141.571 Y93.672 E8.9163
G1 X141.571 Y106.445 E9.5535
G1 X141.204 Y106.445 E9.5719
G1 X141.204 Y93.672 E10.2091
G1 X140.837 Y93.672 E10.2275
G1 X140.837 Y106.445 E10.8647
G1 X140.469 Y106.445 E10.8831
G1 X140.469 Y93.672 E11.5203
G1 X140.102 Y93.672 E11.5387
G1 X140.102 Y106.445 E12.1759
G1 X139.735 Y106.445 E12.1943
G1 X139.735 Y93.672 E12.8315
G1 X139.367 Y93.672 E12.8499
G1 X139.367 Y106.445 E13.4871
G1 X139.000 Y106.445 E13.5054
G1 X139.000 Y93.672 E14.1427
G1 X138.633 Y93.672 E14.1610
G1 X138.633 Y106.445 E14.7983
G1 X138.265 Y106.680 E14.8200
G1 X138.265 Y93.555 E15.4749
G1 X137.898 Y93.203 E15.5002
G1 X137.898 Y107.031 E16.1901
G1 X137.531 Y107.383 E16.2155
G1 X137.531 Y92.852 E16.9404
G1 X137.163 Y92.500 E16.9658
G1 X137.163 Y107.734 E17.7259
G1 X136.796 Y108.086 E17.7512
G1 X136.796 Y92.148 E18.5464
G1 X136.429 Y91.797 E18.5717
G1 X136.429 Y108.438 E19.4019
G1 X136.061 Y108.789 E19.4273
G1 X136.061 Y91.445 E20.2926
G1 X135.694 Y91.094 E20.3179
G1 X135.694 Y109.141 E21.2183
G1 X135.327 Y109.375 E21.2400
G1 X135.327 Y90.859 E22.1638
G1 X134.959 Y90.625 E22.1855
G1 X134.959 Y109.609 E23.1327
G1 X134.592 Y109.727 E23.1519
G1 X134.592 Y90.391 E24.1166
G1 X134.225 Y90.273 E24.1358
G1 X134.225 Y109.961 E25.1180
G1 X133.857 Y110.078 E25.1373
G1 X133.857 Y90.156 E26.1312
G1 X133.490 Y90.039 E26.1504
G1 X133.490 Y110.195 E27.1560
G1 X133.123 Y110.313 E27.1752
G1 X133.123 Y89.922 E28.1925
G1 X132.755 Y89.805 E28.2118
G1 X132.755 Y110.430 E29.2408
G1 X132.388 Y110.430 E29.2591
G1 X132.388 Y89.805 E30.2881
G1 X132.021 Y89.688 E30.3073
G1 X132.021 Y110.430 E31.3421
G1 X131.653 Y110.430 E31.3605
G1 X131.653 Y89.688 E32.3953
G1 X131.286 Y89.688 E32.4136
G1 X131.286 Y110.430 E33.4485
G1 X130.919 Y110.430 E33.4668
G1 X130.919 Y89.688 E34.5016
G1 X130.551 Y89.688 E34.5199
G1 X130.551 Y110.430 E35.5548
G1 X130.184 Y110.430 E35.5731
G1 X130.184 Y100.703 E36.0584
G1 X129.817 Y100.820 E36.0776
G1 X129.817 Y110.430 E36.5570
G1 X129.449 Y110.430 E36.5753
G1 X129.449 Y100.352 E37.0781
G1 X129.449 Y99.883 E37.1015
G1 X129.449 Y89.688 E37.6102
G1 X129.082 Y89.688 E37.6285
G1 X129.082 Y110.430 E38.6633
G1 X128.715 Y110.430 E38.6816
G1 X128.715 Y89.688 E39.7165
G1 X128.347 Y89.688 E39.7348
G1 X128.347 Y110.430 E40.7696
G1 X127.980 Y110.430 E40.7880
G1 X127.980 Y89.688 E41.8228
G1 X127.613 Y89.805 E41.8420
G1 X127.613 Y110.430 E42.8710
G1 X127.245 Y110.430 E42.8893
G1 X127.245 Y89.805 E43.9183
G1 X126.878 Y89.922 E43.9376
G1 X126.878 Y110.313 E44.9549
G1 X126.511 Y110.313 E44.9732
G1 X126.511 Y89.922 E45.9905
G1 X126.143 Y90.039 E46.0097
G1 X126.143 Y110.078 E47.0095
G1 X125.776 Y110.078 E47.0278
G1 X125.776 Y90.156 E48.0217
G1 X125.409 Y90.391 E48.0434
G1 X125.409 Y109.844 E49.0140
G1 X125.041 Y109.727 E49.0332
G1 X125.041 Y90.508 E49.9920
G1 X124.674 Y90.742 E50.0138
G1 X124.674 Y109.492 E50.9492
G1 X124.307 Y109.258 E50.9709
G1 X124.307 Y90.977 E51.8830
G1 X123.939 Y91.328 E51.9084
G1 X123.939 Y108.906 E52.7853
G1 X123.572 Y108.555 E52.8107
G1 X123.572 Y91.680 E53.6526
G1 X123.205 Y92.031 E53.6780
G1 X123.205 Y108.203 E54.4848
G1 X122.837 Y107.852 E54.5102
G1 X122.837 Y92.383 E55.2819
G1 X122.470 Y92.734 E55.3073
G1 X122.470 Y107.500 E56.0439
G1 X122.103 Y107.148 E56.0693
G1 X122.103 Y93.086 E56.7709
G1 X121.735 Y93.438 E56.7962
G1 X121.735 Y106.797 E57.4627
G1 X121.368 Y106.445 E57.4881
G1 X121.368 Y93.672 E58.1254
G1 X121.001 Y93.672 E58.1437
G1 X121.001 Y106.445 E58.7810
G1 X120.633 Y106.445 E58.7993
G1 X120.633 Y93.672 E59.4366
G1 X120.266 Y93.672 E59.4549
G1 X120.266 Y106.445 E60.0922
G1 X119.899 Y106.445 E60.1105
G1 X119.899 Y93.672 E60.7478
G1 X119.531 Y93.672 E60.7661
G1 X119.531 Y106.445 E61.4034
G1 X119.164 Y106.445 E61.4217
G1 X119.164 Y93.672 E62.0589
G1 X118.797 Y93.672 E62.0773
G1 X118.797 Y106.445 E62.7145
G1 X118.429 Y106.445 E62.7329
G1 X118.429 Y93.672 E63.3701
G1 X118.062 Y93.672 E63.3885
G1 X118.062 Y106.445 E64.0257
G1 X117.695 Y106.445 E64.0441
G1 X117.695 Y93.672 E64.6813
G1 X117.327 Y93.672 E64.6996
G1 X117.327 Y106.445 E65.3369
G1 X116.960 Y106.445 E65.3552
G1 X116.960 Y93.672 E65.9925
G1 X116.593 Y93.672 E66.0108
G1 X116.593 Y106.445 E66.6481
G1 X116.225 Y106.445 E66.6664
G1 X116.225 Y93.672 E67.3037
G1 X115.858 Y93.672 E67.3220
G1 X115.858 Y106.445 E67.9593
G1 X115.491 Y106.445 E67.9776
G1 X115.491 Y93.789 E68.6090
G1 X115.123 Y94.141 E68.6344
G1 X115.123 Y106.094 E69.2308
G1 X114.756 Y105.742 E69.2561
G1 X114.756 Y94.492 E69.8174
G1 X114.389 Y94.844 E69.8428
G1 X114.389 Y105.391 E70.3689
G1 X114.021 Y105.039 E70.3943
G1 X114.021 Y95.195 E70.8854
G1 X113.654 Y95.547 E70.9108
G1 X113.654 Y104.688 E71.3668
G1 X113.287 Y104.336 E71.3922
G1 X113.287 Y95.898 E71.8131



; ------------------------------------
; Raft Layer #3
; ------------------------------------
G21 ; mm
G90 ; abs
G92 E0 ; reset extr
M106 S0
;segType:Raft
G0 F4800 E-1.0000
G0 F300 Z1.200
G0 X113.120 Y98.768 F10800
G0 F4800 E0.0000
G1 X146.636 Y98.768 E1.6721 F3600
G1 X146.636 Y98.416 E1.6897
G1 X113.120 Y98.416 E3.3618
G1 X113.120 Y98.064 E3.3794
G1 X146.636 Y98.064 E5.0515
G1 X146.636 Y97.712 E5.0690
G1 X113.120 Y97.712 E6.7412
G1 X113.120 Y97.360 E6.7587
G1 X146.636 Y97.360 E8.4308
G1 X146.636 Y97.009 E8.4484
G1 X113.120 Y97.009 E10.1205
G1 X113.120 Y96.657 E10.1381
G1 X146.636 Y96.657 E11.8102
G1 X146.636 Y96.305 E11.8278
G1 X113.120 Y96.305 E13.4999
G1 X113.120 Y95.953 E13.5174
G1 X146.636 Y95.953 E15.1896
G1 X146.269 Y95.601 E15.2149
G1 X113.487 Y95.601 E16.8504
G1 X113.854 Y95.249 E16.8758
G1 X145.902 Y95.249 E18.4747
G1 X145.535 Y94.897 E18.5001
G1 X114.221 Y94.897 E20.0623
G1 X114.588 Y94.545 E20.0877
G1 X145.168 Y94.545 E21.6134
G1 X144.801 Y94.193 E21.6387
G1 X114.954 Y94.193 E23.1278
G1 X115.321 Y93.841 E23.1531
G1 X144.434 Y93.841 E24.6056
G0 F4800 E23.6056
G0 X146.636 Y100.528 F10800
G0 F4800 E24.6056
G1 X130.245 Y100.528 E25.4233 F3600
G1 X130.489 Y100.176 E25.4447
G1 X146.636 Y100.176 E26.2503
G1 X146.636 Y99.824 E26.2678
G1 X130.367 Y99.824 E27.0795
G1 X130.122 Y99.472 E27.1008
G1 X146.636 Y99.472 E27.9247
G1 X146.636 Y99.120 E27.9423
G1 X113.120 Y99.120 E29.6144
G1 X113.120 Y99.472 E29.6319
G1 X129.511 Y99.472 E30.4497
G1 X129.388 Y99.824 E30.4683
G1 X113.120 Y99.824 E31.2799
G1 X113.120 Y100.176 E31.2975
G1 X129.266 Y100.176 E32.1030
G1 X129.511 Y100.528 E32.1244
G1 X113.120 Y100.528 E32.9422
G1 X113.120 Y100.880 E32.9597
G1 X146.636 Y100.880 E34.6318
G1 X146.636 Y101.232 E34.6494
G1 X113.120 Y101.232 E36.3215
G1 X113.120 Y101.583 E36.3391
G1 X146.636 Y101.583 E38.0112
G1 X146.636 Y101.935 E38.0288
G1 X113.120 Y101.935 E39.7009
G1 X113.120 Y102.287 E39.7184
G1 X146.636 Y102.287 E41.3906
G1 X146.636 Y102.639 E41.4081
G1 X113.120 Y102.639 E43.0802
G1 X113.120 Y102.991 E43.0978
G1 X146.636 Y102.991 E44.7699
G1 X146.636 Y103.343 E44.7875
G1 X113.120 Y103.343 E46.4596
G1 X113.120 Y103.695 E46.4772
G1 X146.636 Y103.695 E48.1493
G1 X146.636 Y104.047 E48.1668
G1 X113.120 Y104.047 E49.8390
G1 X113.364 Y104.399 E49.8603
G1 X146.391 Y104.399 E51.5081
G1 X146.024 Y104.751 E51.5334
G1 X113.731 Y104.751 E53.1445
G1 X114.098 Y105.103 E53.1699
G1 X145.657 Y105.103 E54.7444
G1 X145.290 Y105.454 E54.7697
G1 X114.465 Y105.454 E56.3076
G1 X114.832 Y105.806 E56.3330
G1 X144.923 Y105.806 E57.8342
G1 X144.556 Y106.158 E57.8596
G1 X115.199 Y106.158 E59.3242
G0 F4800 E58.3242
G0 X121.438 Y106.510 F10800
G0 F4800 E59.3242
G1 X138.318 Y106.510 E60.1664 F3600
G1 X137.951 Y106.862 E60.1917
G1 X121.804 Y106.862 E60.9973
G1 X122.171 Y107.214 E61.0227
G1 X137.584 Y107.214 E61.7916
G1 X137.217 Y107.566 E61.8170
G1 X122.538 Y107.566 E62.5493
G1 X122.905 Y107.918 E62.5746
G1 X136.850 Y107.918 E63.2703
G1 X136.483 Y108.270 E63.2957
G1 X123.272 Y108.270 E63.9548
G1 X123.639 Y108.622 E63.9802
G1 X136.116 Y108.622 E64.6026
G1 X135.749 Y108.974 E64.6280
G1 X124.006 Y108.974 E65.2138
G1 X124.496 Y109.326 E65.2439
G1 X135.138 Y109.326 E65.7748
G1 X134.526 Y109.677 E65.8100
G1 X125.107 Y109.677 E66.2799
G1 X126.086 Y110.029 E66.3318
G1 X133.670 Y110.029 E66.7102
G0 F4800 E65.7102
G0 X133.425 Y89.970 F10800
G0 F4800 E66.7102
G1 X126.330 Y89.970 E67.0641 F3600
G1 X125.352 Y90.322 E67.1160
G1 X134.404 Y90.322 E67.5676
G1 X135.015 Y90.674 E67.6028
G1 X124.740 Y90.674 E68.1154
G1 X124.129 Y91.026 E68.1506
G1 X135.627 Y91.026 E68.7243
G1 X135.994 Y91.378 E68.7497
G1 X123.762 Y91.378 E69.3599
G1 X123.395 Y91.730 E69.3853
G1 X136.361 Y91.730 E70.0322
G1 X136.728 Y92.082 E70.0575
G1 X123.028 Y92.082 E70.7410
G1 X122.661 Y92.434 E70.7664
G1 X137.095 Y92.434 E71.4865
G1 X137.462 Y92.786 E71.5119
G1 X122.294 Y92.786 E72.2686
G1 X121.927 Y93.137 E72.2940
G1 X137.829 Y93.137 E73.0873
G1 X138.196 Y93.489 E73.1127
G1 X121.560 Y93.489 E73.9426



; ------------------------------------
; Raft Layer #4
; ------------------------------------
G21 ; mm
G90 ; abs
G92 E0 ; reset extr
M106 S255
;segType:Raft
G0 F4800 E-1.0000
G0 F300 Z1.500
G0 X113.287 Y95.898 F10800
G0 F4800 E0.0000
G1 X113.287 Y104.336 E0.4209 F3600
G1 X113.654 Y104.688 E0.4463
G1 X113.654 Y95.547 E0.9023
G1 X114.021 Y95.195 E0.9277
G1 X114.021 Y105.039 E1.4188
G1 X114.389 Y105.391 E1.4442
G1 X114.389 Y94.844 E1.9704
G1 X114.756 Y94.492 E1.9957
G1 X114.756 Y105.742 E2.5570
G1 X115.123 Y106.094 E2.5824
G1 X115.123 Y94.141 E3.1787
G1 X115.491 Y93.789 E3.2041
G1 X115.491 Y106.445 E3.8355
G1 X115.858 Y106.445 E3.8538
G1 X115.858 Y93.672 E4.4911
G1 X116.225 Y93.672 E4.5094
G1 X116.225 Y106.445 E5.1467
G1 X116.593 Y106.445 E5.1650
G1 X116.593 Y93.672 E5.8023
G1 X116.960 Y93.672 E5.8206
G1 X116.960 Y106.445 E6.4579
G1 X117.327 Y106.445 E6.4762
G1 X117.327 Y93.672 E7.1135
G1 X117.695 Y93.672 E7.1318
G1 X117.695 Y106.445 E7.7691
G1 X118.062 Y106.445 E7.7874
G1 X118.062 Y93.672 E8.4247
G1 X118.429 Y93.672 E8.4430
G1 X118.429 Y106.445 E9.0803
G1 X118.797 Y106.445 E9.0986
G1 X118.797 Y93.672 E9.7359
G1 X119.164 Y93.672 E9.7542
G1 X119.164 Y106.445 E10.3915
G1 X119.531 Y106.445 E10.4098
G1 X119.531 Y93.672 E11.0471
G1 X119.899 Y93.672 E11.0654
G1 X119.899 Y106.445 E11.7027
G1 X120.266 Y106.445 E11.7210
G1 X120.266 Y93.672 E12.3582
G1 X120.633 Y93.672 E12.3766
G1 X120.633 Y106.445 E13.0138
G1 X121.001 Y106.445 E13.0322
G1 X121.001 Y93.672 E13.6694
G1 X121.368 Y93.672 E13.6878
G1 X121.368 Y106.445 E14.3250
G1 X121.735 Y106.797 E14.3504
G1 X121.735 Y93.438 E15.0169
G1 X122.103 Y93.086 E15.0423
G1 X122.103 Y107.148 E15.7439
G1 X122.470 Y107.500 E15.7692
G1 X122.470 Y92.734 E16.5059
G1 X122.837 Y92.383 E16.5312
G1 X122.837 Y107.852 E17.3030
G1 X123.205 Y108.203 E17.3284
G1 X123.205 Y92.031 E18.1352
G1 X123.572 Y91.680 E18.1605
G1 X123.572 Y108.555 E19.0024
G1 X123.939 Y108.906 E19.0278
G1 X123.939 Y91.328 E19.9048
G1 X124.307 Y90.977 E19.9301
G1 X124.307 Y109.258 E20.8422
G1 X124.674 Y109.492 E20.8639
G1 X124.674 Y90.742 E21.7994
G1 X125.041 Y90.508 E21.8211
G1 X125.041 Y109.727 E22.7799
G1 X125.409 Y109.844 E22.7992
G1 X125.409 Y90.391 E23.7697
G1 X125.776 Y90.156 E23.7914
G1 X125.776 Y110.078 E24.7853
G1 X126.143 Y110.078 E24.8037
G1 X126.143 Y90.039 E25.8034
G1 X126.511 Y89.922 E25.8227
G1 X126.511 Y110.313 E26.8400
G1 X126.878 Y110.313 E26.8583
G1 X126.878 Y89.922 E27.8756
G1 X127.245 Y89.805 E27.8948
G1 X127.245 Y110.430 E28.9238
G1 X127.613 Y110.430 E28.9421
G1 X127.613 Y89.805 E29.9711
G1 X127.980 Y89.688 E29.9903
G1 X127.980 Y110.430 E31.0252
G1 X128.347 Y110.430 E31.0435
G1 X128.347 Y89.688 E32.0783
G1 X128.715 Y89.688 E32.0967
G1 X128.715 Y110.430 E33.1315
G1 X129.082 Y110.430 E33.1498
G1 X129.082 Y89.688 E34.1846
G1 X129.449 Y89.688 E34.2030
G1 X129.449 Y99.883 E34.7116
G1 X129.449 Y100.352 E34.7350
G1 X129.449 Y110.430 E35.2378
G1 X129.817 Y110.430 E35.2561
G1 X129.817 Y100.820 E35.7355
G1 X130.184 Y100.703 E35.7548
G1 X130.184 Y110.430 E36.2400
G1 X130.551 Y110.430 E36.2584
G1 X130.551 Y89.688 E37.2932
G1 X130.919 Y89.688 E37.3115
G1 X130.919 Y110.430 E38.3464
G1 X131.286 Y110.430 E38.3647
G1 X131.286 Y89.688 E39.3995
G1 X131.653 Y89.688 E39.4178
G1 X131.653 Y110.430 E40.4527
G1 X132.021 Y110.430 E40.4710
G1 X132.021 Y89.688 E41.5058
G1 X132.388 Y89.805 E41.5251
G1 X132.388 Y110.430 E42.5541
G1 X132.755 Y110.430 E42.5724
G1 X132.755 Y89.805 E43.6014
G1 X133.123 Y89.922 E43.6206
G1 X133.123 Y110.313 E44.6379
G1 X133.490 Y110.195 E44.6571
G1 X133.490 Y90.039 E45.6627
G1 X133.857 Y90.156 E45.6820
G1 X133.857 Y110.078 E46.6759
G1 X134.225 Y109.961 E46.6951
G1 X134.225 Y90.273 E47.6773
G1 X134.592 Y90.391 E47.6966
G1 X134.592 Y109.727 E48.6612
G1 X134.959 Y109.609 E48.6805
G1 X134.959 Y90.625 E49.6276
G1 X135.327 Y90.859 E49.6494
G1 X135.327 Y109.375 E50.5731
G1 X135.694 Y109.141 E50.5948
G1 X135.694 Y91.094 E51.4952
G1 X136.061 Y91.445 E51.5206
G1 X136.061 Y108.789 E52.3859
G1 X136.429 Y108.438 E52.4112
G1 X136.429 Y91.797 E53.2414
G1 X136.796 Y92.148 E53.2668
G1 X136.796 Y108.086 E54.0619
G1 X137.163 Y107.734 E54.0873
G1 X137.163 Y92.500 E54.8473
G1 X137.531 Y92.852 E54.8727
G1 X137.531 Y107.383 E55.5977
G1 X137.898 Y107.031 E55.6230
G1 X137.898 Y93.203 E56.3129
G1 X138.265 Y93.555 E56.3383
G1 X138.265 Y106.680 E56.9931
G1 X138.633 Y106.445 E57.0148
G1 X138.633 Y93.672 E57.6521
G1 X139.000 Y93.672 E57.6704
G1 X139.000 Y106.445 E58.3077
G1 X139.367 Y106.445 E58.3260
G1 X139.367 Y93.672 E58.9633
G1 X139.735 Y93.672 E58.9816
G1 X139.735 Y106.445 E59.6189
G1 X140.102 Y106.445 E59.6372
G1 X140.102 Y93.672 E60.2745
G1 X140.469 Y93.672 E60.2928
G1 X140.469 Y106.445 E60.9301
G1 X140.837 Y106.445 E60.9484
G1 X140.837 Y93.672 E61.5857
G1 X141.204 Y93.672 E61.6040
G1 X141.204 Y106.445 E62.2413
G1 X141.571 Y106.445 E62.2596
G1 X141.571 Y93.672 E62.8969
G1 X141.939 Y93.672 E62.9152
G1 X141.939 Y106.445 E63.5525
G1 X142.306 Y106.445 E63.5708
G1 X142.306 Y93.672 E64.2080
G1 X142.673 Y93.672 E64.2264
G1 X142.673 Y106.445 E64.8636
G1 X143.041 Y106.445 E64.8820
G1 X143.041 Y93.672 E65.5192
G1 X143.408 Y93.672 E65.5376
G1 X143.408 Y106.445 E66.1748
G1 X143.775 Y106.445 E66.1932
G1 X143.775 Y93.672 E66.8304
G1 X144.143 Y93.672 E66.8488
G1 X144.143 Y106.445 E67.4860
G1 X144.510 Y106.328 E67.5053
G1 X144.510 Y93.906 E68.1250
G1 X144.877 Y94.258 E68.1503
G1 X144.877 Y105.977 E68.7350
G1 X145.244 Y105.625 E68.7604
G1 X145.244 Y94.609 E69.3099
G1 X145.612 Y94.961 E69.3353
G1 X145.612 Y105.273 E69.8498
G1 X145.979 Y104.922 E69.8752
G1 X145.979 Y95.313 E70.3546
G1 X146.346 Y95.664 E70.3799
G1 X146.346 Y104.570 E70.8243
G0 F4800 E69.8243
G0 X130.184 Y99.531 F10800
G0 F4800 E70.8243
G1 X130.184 Y89.688 E71.3154 F3600
G1 X129.817 Y89.688 E71.3337
G1 X129.817 Y99.297 E71.8131


; ------------------------------------
; Layer #0
; ------------------------------------
G21 ; mm
G90 ; abs
G92 E0 ; reset extr
M106 S255
G0 F4800 E-1.0000
G0 F300 Z2.050
G0 X125.350 Y101.049 F10800
G0 X123.116 Y101.925
G0 F4800 E0.0000
;segType:Loop
G1 X117.900 Y101.925 E0.2602 F600
G1 X117.900 Y98.075 E0.4524
G1 X124.379 Y98.075 E0.7756
G1 X124.902 Y97.019 E0.8344
G1 X125.333 Y96.377 E0.8730
G1 X125.844 Y95.797 E0.9115
G1 X126.424 Y95.289 E0.9500
G1 X127.065 Y94.862 E0.9884
G1 X127.755 Y94.522 E1.0268
G1 X128.482 Y94.275 E1.0651
G1 X129.235 Y94.126 E1.1034
G1 X130.000 Y94.076 E1.1416
G1 X130.765 Y94.126 E1.1799
G1 X131.518 Y94.275 E1.2182
G1 X132.245 Y94.522 E1.2565
G1 X132.935 Y94.862 E1.2949
G1 X133.576 Y95.289 E1.3333
G1 X134.156 Y95.797 E1.3718
G1 X134.667 Y96.377 E1.4103
G1 X135.098 Y97.019 E1.4489
G1 X135.621 Y98.075 E1.5077
G1 X142.100 Y98.075 E1.8309
G1 X142.100 Y101.925 E2.0230
G1 X135.621 Y101.925 E2.3463
G1 X135.098 Y102.981 E2.4051
G1 X134.667 Y103.623 E2.4437
G1 X134.156 Y104.203 E2.4822
G1 X133.576 Y104.711 E2.5207
G1 X132.935 Y105.138 E2.5591
G1 X132.245 Y105.478 E2.5975
G1 X131.518 Y105.725 E2.6358
G1 X130.765 Y105.874 E2.6741
G1 X130.000 Y105.924 E2.7123
G1 X129.235 Y105.874 E2.7506
G1 X128.482 Y105.725 E2.7888
G1 X127.755 Y105.478 E2.8272
G1 X127.065 Y105.138 E2.8655
G1 X126.424 Y104.711 E2.9039
G1 X125.844 Y104.203 E2.9424
G1 X125.333 Y103.623 E2.9810
G1 X124.902 Y102.981 E3.0196
G1 X124.379 Y101.925 E3.0783
G1 X123.300 Y101.925 E3.1322
G0 X123.440 Y102.133 F10800
G0 X124.126 Y102.133
G0 X124.731 Y102.347
;segType:Perimeter
G1 X124.071 Y102.309 E3.1652 F359
G1 X117.500 Y102.309 E3.4930
G1 X117.500 Y97.692 E3.7234
G1 X124.126 Y97.692 E4.0540
G1 X124.552 Y96.833 E4.1018
G1 X125.011 Y96.149 E4.1429
G1 X125.555 Y95.530 E4.1840
G1 X126.174 Y94.989 E4.2250
G1 X126.858 Y94.532 E4.2660
G1 X127.596 Y94.169 E4.3071
G1 X128.375 Y93.906 E4.3481
G1 X129.180 Y93.746 E4.3890
G1 X130.000 Y93.692 E4.4300
G1 X130.820 Y93.746 E4.4710
G1 X131.625 Y93.906 E4.5120
G1 X132.404 Y94.169 E4.5530
G1 X133.142 Y94.532 E4.5940
G1 X133.826 Y94.989 E4.6351
G1 X134.445 Y95.530 E4.6761
G1 X134.989 Y96.149 E4.7172
G1 X135.448 Y96.833 E4.7583
G1 X135.874 Y97.692 E4.8061
G1 X142.500 Y97.692 E5.1367
G1 X142.500 Y102.309 E5.3670
G1 X135.874 Y102.309 E5.6976
G1 X135.448 Y103.167 E5.7454
G1 X134.989 Y103.851 E5.7865
G1 X134.445 Y104.470 E5.8276
G1 X133.826 Y105.011 E5.8687
G1 X133.142 Y105.468 E5.9097
G1 X132.404 Y105.831 E5.9507
G1 X131.625 Y106.094 E5.9917
G1 X130.820 Y106.254 E6.0327
G1 X130.000 Y106.308 E6.0737
G1 X129.180 Y106.254 E6.1147
G1 X128.375 Y106.094 E6.1557
G1 X127.596 Y105.831 E6.1967
G1 X126.858 Y105.468 E6.2377
G1 X126.174 Y105.011 E6.2787
G1 X125.555 Y104.470 E6.3198
G1 X125.011 Y103.851 E6.3608
G1 X124.552 Y103.167 E6.4019
G1 X124.150 Y102.356 E6.4471
G1 X123.831 Y101.801
G0 X126.467 Y103.902 F10800
G0 X128.167 Y105.252
;segType:Loop
G1 X127.659 Y105.063 E6.4742 F600
G1 X126.942 Y104.669 E6.5150
G1 X126.291 Y104.175 E6.5557
G1 X125.720 Y103.593 E6.5964
G1 X125.241 Y102.936 E6.6370
G1 X124.863 Y102.216 E6.6775
G1 X124.594 Y101.451 E6.7180
G1 X124.440 Y100.655 E6.7584
G1 X124.404 Y99.846 E6.7989
G1 X124.485 Y99.040 E6.8393
G1 X124.683 Y98.254 E6.8797
G1 X124.994 Y97.504 E6.9202
G1 X125.412 Y96.806 E6.9608
G1 X125.927 Y96.176 E7.0014
G1 X126.530 Y95.626 E7.0421
G1 X127.208 Y95.169 E7.0829
G1 X127.946 Y94.815 E7.1238
G1 X128.729 Y94.572 E7.1647
G1 X129.528 Y94.447 E7.2050
G1 X129.973 Y94.425 E7.2272
G1 X130.398 Y94.439 E7.2484
G1 X131.176 Y94.551 E7.2877
G1 X131.962 Y94.780 E7.3285
G1 X132.707 Y95.121 E7.3694
G1 X133.393 Y95.567 E7.4102
G1 X134.005 Y96.106 E7.4509
G1 X134.532 Y96.727 E7.4915
G1 X134.961 Y97.417 E7.5321
G1 X135.285 Y98.161 E7.5726
G1 X135.497 Y98.944 E7.6130
G1 X135.593 Y99.749 E7.6535
G1 X135.570 Y100.559 E7.6939
G1 X135.430 Y101.357 E7.7343
G1 X135.175 Y102.127 E7.7748
G1 X134.810 Y102.853 E7.8153
G1 X134.342 Y103.518 E7.8559
G1 X133.782 Y104.110 E7.8965
G1 X133.140 Y104.615 E7.9373
G1 X132.430 Y105.021 E7.9781
G1 X131.667 Y105.321 E8.0190
G1 X130.867 Y105.506 E8.0599
G1 X130.049 Y105.573 E8.1009
G1 X129.230 Y105.521 E8.1419
G1 X128.427 Y105.349 E8.1828
G1 X128.338 Y105.316 E8.1875
;segType:Perimeter
G0 X129.649 Y105.621 F10800
G1 X129.233 Y105.129 E8.2197 F359
G1 X128.544 Y104.981 E8.2549
G1 X127.832 Y104.716 E8.2928
G1 X127.167 Y104.351 E8.3306
G1 X126.562 Y103.892 E8.3685
G1 X126.031 Y103.351 E8.4063
G1 X125.585 Y102.739 E8.4441
G1 X125.233 Y102.068 E8.4819
G1 X124.983 Y101.355 E8.5196
G1 X124.839 Y100.612 E8.5574
G1 X124.804 Y99.856 E8.5951
G1 X124.881 Y99.103 E8.6329
G1 X125.066 Y98.370 E8.6706
G1 X125.356 Y97.671 E8.7084
G1 X125.744 Y97.021 E8.7461
G1 X126.224 Y96.434 E8.7839
G1 X126.784 Y95.923 E8.8218
G1 X127.413 Y95.499 E8.8596
G1 X128.098 Y95.171 E8.8975
G1 X128.824 Y94.945 E8.9354
G1 X129.570 Y94.829 E8.9731
G1 X129.976 Y94.809 E8.9934
G1 X130.361 Y94.821 E9.0126
G1 X131.088 Y94.926 E9.0492
G1 X131.817 Y95.138 E9.0871
G1 X132.507 Y95.454 E9.1250
G1 X133.144 Y95.868 E9.1629
G1 X133.713 Y96.369 E9.2007
G1 X134.203 Y96.947 E9.2385
G1 X134.603 Y97.590 E9.2763
G1 X134.905 Y98.284 E9.3141
G1 X135.103 Y99.014 E9.3518
G1 X135.192 Y99.766 E9.3896
G1 X135.171 Y100.522 E9.4273
G1 X135.040 Y101.267 E9.4650
G1 X134.802 Y101.985 E9.5028
G1 X134.462 Y102.661 E9.5406
G1 X134.027 Y103.281 E9.5783
G1 X133.505 Y103.831 E9.6162
G1 X132.909 Y104.300 E9.6540
G1 X132.250 Y104.678 E9.6919
G1 X131.543 Y104.955 E9.7298
G1 X130.803 Y105.127 E9.7677
G1 X130.046 Y105.189 E9.8056
G1 X129.342 Y105.144 E9.8408
G1 X128.798 Y105.504
G0 F4800 E8.8408
G0 X126.966 Y104.773 F10800
G0 X124.397 Y101.734
G0 F4800 E9.8408
;segType:HShell
G1 X124.461 Y101.672 E9.8452 F600
G1 X124.357 Y101.274
G1 X123.877 Y101.734 E9.8783
G1 X123.358 Y101.734
G1 X124.275 Y100.855 E9.9417
G1 X124.228 Y100.402
G1 X122.838 Y101.734 E10.0378
G1 X122.319 Y101.734
G1 X124.207 Y99.925 E10.1682
G1 X124.249 Y99.387
G1 X121.799 Y101.734 E10.3375
G1 X121.280 Y101.734
G1 X124.339 Y98.803 E10.5488
G1 X124.380 Y98.266
G1 X120.760 Y101.734 E10.7989
G1 X120.241 Y101.734
G1 X123.860 Y98.266 E11.0490
G1 X123.341 Y98.266
G1 X119.721 Y101.734 E11.2991
G1 X119.202 Y101.734
G1 X122.821 Y98.266 E11.5491
G1 X122.302 Y98.266
G1 X118.682 Y101.734 E11.7992
G1 X118.163 Y101.734
G1 X121.782 Y98.266 E12.0493
G1 X121.263 Y98.266
G1 X118.100 Y101.296 E12.2678
G1 X118.100 Y100.799
G1 X120.743 Y98.266 E12.4504
G1 X120.224 Y98.266
G1 X118.100 Y100.301 E12.5972
G1 X118.100 Y99.803
G1 X119.704 Y98.266 E12.7081
G1 X119.185 Y98.266
G1 X118.100 Y99.306 E12.7830
G1 X118.100 Y98.808
G1 X118.666 Y98.266 E12.8221
G0 X126.088 Y96.316 F10800
G0 X127.319 Y95.348
G0 X128.781 Y94.774
G0 X130.378 Y94.646
G0 X131.883 Y94.974
G0 X133.258 Y95.730
G0 X135.809 Y98.266
G1 X135.579 Y98.486 E12.8379 F600
G1 X135.686 Y98.881
G1 X136.328 Y98.266 E12.8823
G1 X136.848 Y98.266
G1 X135.743 Y99.324 E12.9585
G1 X135.792 Y99.775
G1 X137.367 Y98.266 E13.0674
G1 X137.886 Y98.266
G1 X135.778 Y100.286 E13.2130
G1 X135.725 Y100.835
G1 X138.406 Y98.266 E13.3983
G1 X138.925 Y98.266
G1 X135.612 Y101.441 E13.6272
G1 X135.825 Y101.734
G1 X139.445 Y98.266 E13.8773
G1 X139.964 Y98.266
G1 X136.345 Y101.734 E14.1274
G1 X136.864 Y101.734
G1 X140.484 Y98.266 E14.3774
G1 X141.003 Y98.266
G1 X137.384 Y101.734 E14.6275
G1 X137.903 Y101.734
G1 X141.523 Y98.266 E14.8776
G1 X141.900 Y98.403
G1 X138.423 Y101.734 E15.1178
G1 X138.942 Y101.734
G1 X141.900 Y98.900 E15.3222
G1 X141.900 Y99.398
G1 X139.462 Y101.734 E15.4906
G1 X139.981 Y101.734
G1 X141.900 Y99.896 E15.6232
G1 X141.900 Y100.393
G1 X140.501 Y101.734 E15.7199
G1 X141.020 Y101.734
G1 X141.900 Y100.891 E15.7807
G1 X141.900 Y101.389
G1 X141.540 Y101.734 E15.8055
; ------------------------------------
; Layer #1
; ------------------------------------
G21 ; mm
G90 ; abs
G92 E0 ; reset extr
M106 S255
G0 F4800 E-1.0000
G0 F300 Z2.100
G0 X135.388 Y101.967 F10800
G0 X133.850 Y104.250
G0 X130.842 Y105.659
G0 X127.548 Y105.174
G0 X125.084 Y102.968
G0 X124.718 Y102.261
G0 X123.116 Y101.925
G0 F4800 E0.0000
;segType:Loop
G1 X117.900 Y101.925 E0.2602 F3600
G1 X117.900 Y98.075 E0.4524
G1 X124.379 Y98.075 E0.7756
G1 X124.902 Y97.019 E0.8344
G1 X125.333 Y96.377 E0.8730
G1 X125.844 Y95.797 E0.9115
G1 X126.424 Y95.289 E0.9500
G1 X127.065 Y94.862 E0.9884
G1 X127.755 Y94.522 E1.0268
G1 X128.482 Y94.275 E1.0651
G1 X129.235 Y94.126 E1.1034
G1 X130.000 Y94.076 E1.1416
G1 X130.765 Y94.126 E1.1799
G1 X131.518 Y94.275 E1.2182
G1 X132.245 Y94.522 E1.2565
G1 X132.935 Y94.862 E1.2949
G1 X133.576 Y95.289 E1.3333
G1 X134.156 Y95.797 E1.3718
G1 X134.667 Y96.377 E1.4103
G1 X135.098 Y97.019 E1.4489
G1 X135.621 Y98.075 E1.5077
G1 X142.100 Y98.075 E1.8309
G1 X142.100 Y101.925 E2.0230
G1 X135.621 Y101.925 E2.3463
G1 X135.098 Y102.981 E2.4051
G1 X134.667 Y103.623 E2.4437
G1 X134.156 Y104.203 E2.4822
G1 X133.576 Y104.711 E2.5207
G1 X132.935 Y105.138 E2.5591
G1 X132.245 Y105.478 E2.5975
G1 X131.518 Y105.725 E2.6358
G1 X130.765 Y105.874 E2.6741
G1 X130.000 Y105.924 E2.7123
G1 X129.235 Y105.874 E2.7506
G1 X128.482 Y105.725 E2.7888
G1 X127.755 Y105.478 E2.8272
G1 X127.065 Y105.138 E2.8655
G1 X126.424 Y104.711 E2.9039
G1 X125.844 Y104.203 E2.9424
G1 X125.333 Y103.623 E2.9810
G1 X124.902 Y102.981 E3.0196
G1 X124.379 Y101.925 E3.0783
G1 X123.300 Y101.925 E3.1322
G0 X123.440 Y102.133 F10800
G0 X124.126 Y102.133
G0 X124.731 Y102.347
;segType:Perimeter
G1 X124.071 Y102.309 E3.1652 F2159
G1 X117.500 Y102.309 E3.4930
G1 X117.500 Y97.692 E3.7234
G1 X124.126 Y97.692 E4.0540
G1 X124.552 Y96.833 E4.1018
G1 X125.011 Y96.149 E4.1429
G1 X125.555 Y95.530 E4.1840
G1 X126.174 Y94.989 E4.2250
G1 X126.858 Y94.532 E4.2660
G1 X127.596 Y94.169 E4.3071
G1 X128.375 Y93.906 E4.3481
G1 X129.180 Y93.746 E4.3890
G1 X130.000 Y93.692 E4.4300
G1 X130.820 Y93.746 E4.4710
G1 X131.625 Y93.906 E4.5120
G1 X132.404 Y94.169 E4.5530
G1 X133.142 Y94.532 E4.5940
G1 X133.826 Y94.989 E4.6351
G1 X134.445 Y95.530 E4.6761
G1 X134.989 Y96.149 E4.7172
G1 X135.448 Y96.833 E4.7583
G1 X135.874 Y97.692 E4.8061
G1 X142.500 Y97.692 E5.1367
G1 X142.500 Y102.309 E5.3670
G1 X135.874 Y102.309 E5.6976
G1 X135.448 Y103.167 E5.7454
G1 X134.989 Y103.851 E5.7865
G1 X134.445 Y104.470 E5.8276
G1 X133.826 Y105.011 E5.8687
G1 X133.142 Y105.468 E5.9097
G1 X132.404 Y105.831 E5.9507
G1 X131.625 Y106.094 E5.9917
G1 X130.820 Y106.254 E6.0327
G1 X130.000 Y106.308 E6.0737
G1 X129.180 Y106.254 E6.1147
G1 X128.375 Y106.094 E6.1557
G1 X127.596 Y105.831 E6.1967
G1 X126.858 Y105.468 E6.2377
G1 X126.174 Y105.011 E6.2787
G1 X125.555 Y104.470 E6.3198
G1 X125.011 Y103.851 E6.3608
G1 X124.552 Y103.167 E6.4019
G1 X124.150 Y102.356 E6.4471
G1 X123.831 Y101.801
G0 X126.436 Y103.893 F10800
G0 X128.121 Y105.239
;segType:Loop
G1 X127.614 Y105.045 E6.4742 F3600
G1 X126.899 Y104.644 E6.5151
G1 X126.252 Y104.145 E6.5558
G1 X125.687 Y103.558 E6.5965
G1 X125.213 Y102.896 E6.6371
G1 X124.841 Y102.173 E6.6777
G1 X124.579 Y101.405 E6.7182
G1 X124.432 Y100.607 E6.7586
G1 X124.402 Y99.797 E6.7991
G1 X124.491 Y98.991 E6.8395
G1 X124.696 Y98.207 E6.8800
G1 X125.014 Y97.459 E6.9205
G1 X125.438 Y96.765 E6.9611
G1 X125.959 Y96.139 E7.0017
G1 X126.567 Y95.594 E7.0425
G1 X127.249 Y95.142 E7.0833
G1 X127.991 Y94.795 E7.1242
G1 X128.777 Y94.558 E7.1651
G1 X129.578 Y94.440 E7.2055
G1 X130.000 Y94.425 E7.2266
G1 X130.422 Y94.440 E7.2476
G1 X131.223 Y94.558 E7.2880
G1 X132.009 Y94.795 E7.3290
G1 X132.751 Y95.142 E7.3699
G1 X133.433 Y95.594 E7.4107
G1 X134.041 Y96.139 E7.4514
G1 X134.562 Y96.765 E7.4921
G1 X134.987 Y97.459 E7.5326
G1 X135.304 Y98.207 E7.5732
G1 X135.509 Y98.991 E7.6136
G1 X135.598 Y99.797 E7.6541
G1 X135.568 Y100.607 E7.6945
G1 X135.421 Y101.405 E7.7350
G1 X135.159 Y102.173 E7.7755
G1 X134.787 Y102.896 E7.8160
G1 X134.314 Y103.558 E7.8566
G1 X133.748 Y104.145 E7.8973
G1 X133.101 Y104.644 E7.9381
G1 X132.386 Y105.045 E7.9789
G1 X131.621 Y105.338 E8.0199
G1 X130.819 Y105.517 E8.0608
G1 X130.000 Y105.576 E8.1018
G1 X129.181 Y105.517 E8.1428
G1 X128.379 Y105.338 E8.1837
G1 X128.291 Y105.304 E8.1884
;segType:Perimeter
G0 X129.599 Y105.621 F10800
G1 X129.188 Y105.125 E8.2206 F2159
G1 X128.500 Y104.971 E8.2558
G1 X127.790 Y104.700 E8.2937
G1 X127.127 Y104.328 E8.3316
G1 X126.527 Y103.864 E8.3695
G1 X126.000 Y103.318 E8.4073
G1 X125.559 Y102.702 E8.4451
G1 X125.213 Y102.028 E8.4829
G1 X124.968 Y101.311 E8.5207
G1 X124.830 Y100.567 E8.5585
G1 X124.803 Y99.811 E8.5962
G1 X124.886 Y99.058 E8.6340
G1 X125.077 Y98.326 E8.6717
G1 X125.373 Y97.629 E8.7095
G1 X125.768 Y96.982 E8.7473
G1 X126.253 Y96.399 E8.7852
G1 X126.818 Y95.893 E8.8230
G1 X127.452 Y95.474 E8.8609
G1 X128.140 Y95.151 E8.8988
G1 X128.868 Y94.932 E8.9367
G1 X129.616 Y94.822 E8.9745
G1 X130.000 Y94.808 E8.9937
G1 X130.384 Y94.822 E9.0128
G1 X131.132 Y94.932 E9.0506
G1 X131.860 Y95.151 E9.0885
G1 X132.548 Y95.474 E9.1264
G1 X133.182 Y95.893 E9.1643
G1 X133.747 Y96.399 E9.2021
G1 X134.232 Y96.982 E9.2400
G1 X134.627 Y97.629 E9.2778
G1 X134.923 Y98.326 E9.3156
G1 X135.114 Y99.058 E9.3533
G1 X135.197 Y99.811 E9.3911
G1 X135.170 Y100.567 E9.4288
G1 X135.032 Y101.311 E9.4666
G1 X134.787 Y102.028 E9.5044
G1 X134.441 Y102.702 E9.5422
G1 X134.000 Y103.318 E9.5800
G1 X133.474 Y103.864 E9.6178
G1 X132.873 Y104.328 E9.6557
G1 X132.210 Y104.700 E9.6936
G1 X131.500 Y104.971 E9.7315
G1 X130.758 Y105.137 E9.7695
G1 X130.000 Y105.192 E9.8074
G1 X129.297 Y105.141 E9.8426
G1 X128.749 Y105.496
G0 F4800 E8.8426
G0 X126.914 Y104.614 F10800
G0 X125.633 Y102.947
G0 X124.353 Y101.280
G0 F4800 E9.8426
;segType:HShell
G1 X121.207 Y98.266 E10.0599 F3600
G1 X120.688 Y98.266
G1 X124.307 Y101.734 E10.3100
G1 X123.788 Y101.734
G1 X120.168 Y98.266 E10.5601
G1 X119.649 Y98.266
G1 X123.268 Y101.734 E10.8101
G1 X122.749 Y101.734
G1 X119.129 Y98.266 E11.0602
G1 X118.610 Y98.266
G1 X122.229 Y101.734 E11.3103
G1 X121.710 Y101.734
G1 X118.100 Y98.275 E11.5597
G1 X118.100 Y98.773
G1 X121.190 Y101.734 E11.7732
G1 X120.671 Y101.734
G1 X118.100 Y99.271 E11.9508
G1 X118.100 Y99.768
G1 X120.151 Y101.734 E12.0926
G1 X119.632 Y101.734
G1 X118.100 Y100.266 E12.1984
G1 X118.100 Y100.764
G1 X119.112 Y101.734 E12.2684
G1 X118.593 Y101.734
G1 X118.100 Y101.261 E12.3024
G0 X124.241 Y100.675 F10800
G1 X121.727 Y98.266 E12.4761 F3600
G1 X122.246 Y98.266
G1 X124.215 Y100.152 E12.6122
G1 X124.217 Y99.656
G1 X122.766 Y98.266 E12.7124
G1 X123.285 Y98.266
G1 X124.266 Y99.206 E12.7802
G1 X124.340 Y98.779
G1 X123.805 Y98.266 E12.8172
G1 X124.324 Y98.266
G1 X124.444 Y98.381 E12.8255
G0 X126.119 Y96.280 F10800
G0 X127.359 Y95.322
G0 X128.826 Y94.761
G0 X130.402 Y94.647
G0 X131.928 Y94.988
G0 X133.297 Y95.756
G0 X134.383 Y96.882
G0 X135.623 Y98.640
G1 X138.853 Y101.734 E13.0486 F3600
G1 X139.372 Y101.734
G1 X135.753 Y98.266 E13.2987
G1 X136.272 Y98.266
G1 X139.892 Y101.734 E13.5487
G1 X140.411 Y101.734
G1 X136.792 Y98.266 E13.7988
G1 X137.311 Y98.266
G1 X140.931 Y101.734 E14.0489
G1 X141.450 Y101.734
G1 X137.831 Y98.266 E14.2990
G1 X138.350 Y98.266
G1 X141.900 Y101.667 E14.5442
G1 X141.900 Y101.169
G1 X138.870 Y98.266 E14.7536
G1 X139.389 Y98.266
G1 X141.900 Y100.672 E14.9270
G1 X141.900 Y100.174
G1 X139.909 Y98.266 E15.0646
G1 X140.428 Y98.266
G1 X141.900 Y99.676 E15.1663
G1 X141.900 Y99.179
G1 X140.948 Y98.266 E15.2321
G1 X141.467 Y98.266
G1 X141.900 Y98.681 E15.2620
G0 X135.738 Y99.248 F10800
G1 X138.333 Y101.734 E15.4413 F3600
G1 X137.814 Y101.734
G1 X135.798 Y99.802 E15.5806
G1 X135.780 Y100.283
G1 X137.294 Y101.734 E15.6852
G1 X136.775 Y101.734
G1 X135.746 Y100.748 E15.7563
G1 X135.667 Y101.170
G1 X136.255 Y101.734 E15.7970
G1 X135.736 Y101.734
G1 X135.572 Y101.577 E15.8083
; ------------------------------------
; Layer #2
; ------------------------------------
G21 ; mm
G90 ; abs
G92 E0 ; reset extr
M106 S255
G0 F4800 E-1.0000
G0 F300 Z2.400
G0 X133.850 Y104.250 F10800
G0 X130.842 Y105.659
G0 X127.548 Y105.174
G0 X125.084 Y102.968
G0 X124.718 Y102.261
G0 X123.116 Y101.925
G0 F4800 E0.0000
;segType:Loop
G1 X117.900 Y101.925 E0.2602 F3600
G1 X117.900 Y98.075 E0.4524
G1 X124.379 Y98.075 E0.7756
G1 X124.902 Y97.019 E0.8344
G1 X125.333 Y96.377 E0.8730
G1 X125.844 Y95.797 E0.9115
G1 X126.424 Y95.289 E0.9500
G1 X127.065 Y94.862 E0.9884
G1 X127.755 Y94.522 E1.0268
G1 X128.482 Y94.275 E1.0651
G1 X129.235 Y94.126 E1.1034
G1 X130.000 Y94.076 E1.1416
G1 X130.765 Y94.126 E1.1799
G1 X131.518 Y94.275 E1.2182
G1 X132.245 Y94.522 E1.2565
G1 X132.935 Y94.862 E1.2949
G1 X133.576 Y95.289 E1.3333
G1 X134.156 Y95.797 E1.3718
G1 X134.667 Y96.377 E1.4103
G1 X135.098 Y97.019 E1.4489
G1 X135.621 Y98.075 E1.5077
G1 X142.100 Y98.075 E1.8309
G1 X142.100 Y101.925 E2.0230
G1 X135.621 Y101.925 E2.3463
G1 X135.098 Y102.981 E2.4051
G1 X134.667 Y103.623 E2.4437
G1 X134.156 Y104.203 E2.4822
G1 X133.576 Y104.711 E2.5207
G1 X132.935 Y105.138 E2.5591
G1 X132.245 Y105.478 E2.5975
G1 X131.518 Y105.725 E2.6358
G1 X130.765 Y105.874 E2.6741
G1 X130.000 Y105.924 E2.7123
G1 X129.235 Y105.874 E2.7506
G1 X128.482 Y105.725 E2.7888
G1 X127.755 Y105.478 E2.8272
G1 X127.065 Y105.138 E2.8655
G1 X126.424 Y104.711 E2.9039
G1 X125.844 Y104.203 E2.9424
G1 X125.333 Y103.623 E2.9810
G1 X124.902 Y102.981 E3.0196
G1 X124.379 Y101.925 E3.0783
G1 X123.300 Y101.925 E3.1322
G0 X123.440 Y102.133 F10800
G0 X124.126 Y102.133
G0 X124.731 Y102.347
;segType:Perimeter
G1 X124.071 Y102.309 E3.1652 F2159
G1 X117.500 Y102.309 E3.4930
G1 X117.500 Y97.692 E3.7234
G1 X124.126 Y97.692 E4.0540
G1 X124.552 Y96.833 E4.1018
G1 X125.011 Y96.149 E4.1429
G1 X125.555 Y95.530 E4.1840
G1 X126.174 Y94.989 E4.2250
G1 X126.858 Y94.532 E4.2660
G1 X127.596 Y94.169 E4.3071
G1 X128.375 Y93.906 E4.3481
G1 X129.180 Y93.746 E4.3890
G1 X130.000 Y93.692 E4.4300
G1 X130.820 Y93.746 E4.4710
G1 X131.625 Y93.906 E4.5120
G1 X132.404 Y94.169 E4.5530
G1 X133.142 Y94.532 E4.5940
G1 X133.826 Y94.989 E4.6351
G1 X134.445 Y95.530 E4.6761
G1 X134.989 Y96.149 E4.7172
G1 X135.448 Y96.833 E4.7583
G1 X135.874 Y97.692 E4.8061
G1 X142.500 Y97.692 E5.1367
G1 X142.500 Y102.309 E5.3670
G1 X135.874 Y102.309 E5.6976
G1 X135.448 Y103.167 E5.7454
G1 X134.989 Y103.851 E5.7865
G1 X134.445 Y104.470 E5.8276
G1 X133.826 Y105.011 E5.8687
G1 X133.142 Y105.468 E5.9097
G1 X132.404 Y105.831 E5.9507
G1 X131.625 Y106.094 E5.9917
G1 X130.820 Y106.254 E6.0327
G1 X130.000 Y106.308 E6.0737
G1 X129.180 Y106.254 E6.1147
G1 X128.375 Y106.094 E6.1557
G1 X127.596 Y105.831 E6.1967
G1 X126.858 Y105.468 E6.2377
G1 X126.174 Y105.011 E6.2787
G1 X125.555 Y104.470 E6.3198
G1 X125.011 Y103.851 E6.3608
G1 X124.552 Y103.167 E6.4019
G1 X124.150 Y102.356 E6.4471
G1 X123.831 Y101.801
G0 X126.436 Y103.893 F10800
G0 X128.121 Y105.239
;segType:Loop
G1 X127.614 Y105.045 E6.4742 F3600
G1 X126.899 Y104.644 E6.5151
G1 X126.252 Y104.145 E6.5558
G1 X125.687 Y103.558 E6.5965
G1 X125.213 Y102.896 E6.6371
G1 X124.841 Y102.173 E6.6777
G1 X124.579 Y101.405 E6.7182
G1 X124.432 Y100.607 E6.7586
G1 X124.402 Y99.797 E6.7991
G1 X124.491 Y98.991 E6.8395
G1 X124.696 Y98.207 E6.8800
G1 X125.014 Y97.459 E6.9205
G1 X125.438 Y96.765 E6.9611
G1 X125.959 Y96.139 E7.0017
G1 X126.567 Y95.594 E7.0425
G1 X127.249 Y95.142 E7.0833
G1 X127.991 Y94.795 E7.1242
G1 X128.777 Y94.558 E7.1651
G1 X129.578 Y94.440 E7.2055
G1 X130.000 Y94.425 E7.2266
G1 X130.422 Y94.440 E7.2476
G1 X131.223 Y94.558 E7.2880
G1 X132.009 Y94.795 E7.3290
G1 X132.751 Y95.142 E7.3699
G1 X133.433 Y95.594 E7.4107
G1 X134.041 Y96.139 E7.4514
G1 X134.562 Y96.765 E7.4921
G1 X134.987 Y97.459 E7.5326
G1 X135.304 Y98.207 E7.5732
G1 X135.509 Y98.991 E7.6136
G1 X135.598 Y99.797 E7.6541
G1 X135.568 Y100.607 E7.6945
G1 X135.421 Y101.405 E7.7350
G1 X135.159 Y102.173 E7.7755
G1 X134.787 Y102.896 E7.8160
G1 X134.314 Y103.558 E7.8566
G1 X133.748 Y104.145 E7.8973
G1 X133.101 Y104.644 E7.9381
G1 X132.386 Y105.045 E7.9789
G1 X131.621 Y105.338 E8.0199
G1 X130.819 Y105.517 E8.0608
G1 X130.000 Y105.576 E8.1018
G1 X129.181 Y105.517 E8.1428
G1 X128.379 Y105.338 E8.1837
G1 X128.291 Y105.304 E8.1884
;segType:Perimeter
G0 X129.599 Y105.621 F10800
G1 X129.188 Y105.125 E8.2206 F2159
G1 X128.500 Y104.971 E8.2558
G1 X127.790 Y104.700 E8.2937
G1 X127.127 Y104.328 E8.3316
G1 X126.527 Y103.864 E8.3695
G1 X126.000 Y103.318 E8.4073
G1 X125.559 Y102.702 E8.4451
G1 X125.213 Y102.028 E8.4829
G1 X124.968 Y101.311 E8.5207
G1 X124.830 Y100.567 E8.5585
G1 X124.803 Y99.811 E8.5962
G1 X124.886 Y99.058 E8.6340
G1 X125.077 Y98.326 E8.6717
G1 X125.373 Y97.629 E8.7095
G1 X125.768 Y96.982 E8.7473
G1 X126.253 Y96.399 E8.7852
G1 X126.818 Y95.893 E8.8230
G1 X127.452 Y95.474 E8.8609
G1 X128.140 Y95.151 E8.8988
G1 X128.868 Y94.932 E8.9367
G1 X129.616 Y94.822 E8.9745
G1 X130.000 Y94.808 E8.9937
G1 X130.384 Y94.822 E9.0128
G1 X131.132 Y94.932 E9.0506
G1 X131.860 Y95.151 E9.0885
G1 X132.548 Y95.474 E9.1264
G1 X133.182 Y95.893 E9.1643
G1 X133.747 Y96.399 E9.2021
G1 X134.232 Y96.982 E9.2400
G1 X134.627 Y97.629 E9.2778
G1 X134.923 Y98.326 E9.3156
G1 X135.114 Y99.058 E9.3533
G1 X135.197 Y99.811 E9.3911
G1 X135.170 Y100.567 E9.4288
G1 X135.032 Y101.311 E9.4666
G1 X134.787 Y102.028 E9.5044
G1 X134.441 Y102.702 E9.5422
G1 X134.000 Y103.318 E9.5800
G1 X133.474 Y103.864 E9.6178
G1 X132.873 Y104.328 E9.6557
G1 X132.210 Y104.700 E9.6936
G1 X131.500 Y104.971 E9.7315
G1 X130.758 Y105.137 E9.7695
G1 X130.000 Y105.192 E9.8074
G1 X129.297 Y105.141 E9.8426
G1 X128.749 Y105.496
G0 F4800 E8.8426
G0 X126.327 Y103.977 F10800
G0 X124.460 Y101.673
G0 F4800 E9.8426
;segType:HShell
G1 X124.397 Y101.734 E9.8470 F3600
G1 X123.877 Y101.734
G1 X124.353 Y101.278 E9.8798
G1 X124.274 Y100.856
G1 X123.358 Y101.734 E9.9431
G1 X122.838 Y101.734
G1 X124.224 Y100.406 E10.0389
G1 X124.207 Y99.925
G1 X122.319 Y101.734 E10.1693
G1 X121.799 Y101.734
G1 X124.246 Y99.390 E10.3384
G1 X124.332 Y98.809
G1 X121.280 Y101.734 E10.5493
G1 X120.760 Y101.734
G1 X124.380 Y98.266 E10.7993
G1 X123.860 Y98.266
G1 X120.241 Y101.734 E11.0494
G1 X119.721 Y101.734
G1 X123.341 Y98.266 E11.2995
G1 X122.821 Y98.266
G1 X119.202 Y101.734 E11.5495
G1 X118.682 Y101.734
G1 X122.302 Y98.266 E11.7996
G1 X121.782 Y98.266
G1 X118.163 Y101.734 E12.0497
G1 X118.100 Y101.296
G1 X121.263 Y98.266 E12.2682
G1 X120.743 Y98.266
G1 X118.100 Y100.799 E12.4509
G1 X118.100 Y100.301
G1 X120.224 Y98.266 E12.5976
G1 X119.704 Y98.266
G1 X118.100 Y99.803 E12.7085
G1 X118.100 Y99.306
G1 X119.185 Y98.266 E12.7834
G1 X118.666 Y98.266
G1 X118.100 Y98.808 E12.8225
G0 X125.209 Y97.551 F10800
G0 X126.119 Y96.280
G0 X127.359 Y95.322
G0 X128.826 Y94.761
G0 X130.402 Y94.647
G0 X131.928 Y94.988
G0 X133.297 Y95.756
G0 X135.809 Y98.266
G1 X135.582 Y98.483 E12.8381 F3600
G1 X135.686 Y98.881
G1 X136.328 Y98.266 E12.8825
G1 X136.848 Y98.266
G1 X135.746 Y99.321 E12.9586
G1 X135.796 Y99.771
G1 X137.367 Y98.266 E13.0671
G1 X137.886 Y98.266
G1 X135.780 Y100.284 E13.2126
G1 X135.730 Y100.830
G1 X138.406 Y98.266 E13.3975
G1 X138.925 Y98.266
G1 X135.618 Y101.434 E13.6259
G1 X135.825 Y101.734
G1 X139.445 Y98.266 E13.8760
G1 X139.964 Y98.266
G1 X136.345 Y101.734 E14.1261
G1 X136.864 Y101.734
G1 X140.484 Y98.266 E14.3762
G1 X141.003 Y98.266
G1 X137.384 Y101.734 E14.6262
G1 X137.903 Y101.734
G1 X141.523 Y98.266 E14.8763
G1 X141.900 Y98.403
G1 X138.423 Y101.734 E15.1165
G1 X138.942 Y101.734
G1 X141.900 Y98.900 E15.3209
G1 X141.900 Y99.398
G1 X139.462 Y101.734 E15.4893
G1 X139.981 Y101.734
G1 X141.900 Y99.896 E15.6219
G1 X141.900 Y100.393
G1 X140.501 Y101.734 E15.7186
G1 X141.020 Y101.734
G1 X141.900 Y100.891 E15.7794
G1 X141.900 Y101.389
G1 X141.540 Y101.734 E15.8043
; ------------------------------------
; Layer #3
; ------------------------------------
G21 ; mm
G90 ; abs
G92 E0 ; reset extr
M106 S255
G0 F4800 E-1.0000
G0 F300 Z2.700
G0 X135.388 Y101.967 F10800
G0 X133.850 Y104.250
G0 X130.842 Y105.659
G0 X127.548 Y105.174
G0 X125.084 Y102.968
G0 X124.718 Y102.261
G0 X123.116 Y101.925
G0 F4800 E0.0000
;segType:Loop
G1 X117.900 Y101.925 E0.2602 F3420
G1 X117.900 Y98.075 E0.4524
G1 X124.379 Y98.075 E0.7756
G1 X124.902 Y97.019 E0.8344
G1 X125.333 Y96.377 E0.8730
G1 X125.844 Y95.797 E0.9115
G1 X126.424 Y95.289 E0.9500
G1 X127.065 Y94.862 E0.9884
G1 X127.755 Y94.522 E1.0268
G1 X128.482 Y94.275 E1.0651
G1 X129.235 Y94.126 E1.1034
G1 X130.000 Y94.076 E1.1416
G1 X130.765 Y94.126 E1.1799
G1 X131.518 Y94.275 E1.2182
G1 X132.245 Y94.522 E1.2565
G1 X132.935 Y94.862 E1.2949
G1 X133.576 Y95.289 E1.3333
G1 X134.156 Y95.797 E1.3718
G1 X134.667 Y96.377 E1.4103
G1 X135.098 Y97.019 E1.4489
G1 X135.621 Y98.075 E1.5077
G1 X142.100 Y98.075 E1.8309
G1 X142.100 Y101.925 E2.0230
G1 X135.621 Y101.925 E2.3463
G1 X135.098 Y102.981 E2.4051
G1 X134.667 Y103.623 E2.4437
G1 X134.156 Y104.203 E2.4822
G1 X133.576 Y104.711 E2.5207
G1 X132.935 Y105.138 E2.5591
G1 X132.245 Y105.478 E2.5975
G1 X131.518 Y105.725 E2.6358
G1 X130.765 Y105.874 E2.6741
G1 X130.000 Y105.924 E2.7123
G1 X129.235 Y105.874 E2.7506
G1 X128.482 Y105.725 E2.7888
G1 X127.755 Y105.478 E2.8272
G1 X127.065 Y105.138 E2.8655
G1 X126.424 Y104.711 E2.9039
G1 X125.844 Y104.203 E2.9424
G1 X125.333 Y103.623 E2.9810
G1 X124.902 Y102.981 E3.0196
G1 X124.379 Y101.925 E3.0783
G1 X123.300 Y101.925 E3.1322
G0 X123.440 Y102.133 F10800
G0 X124.126 Y102.133
G0 X124.731 Y102.347
;segType:Perimeter
G1 X124.071 Y102.309 E3.1652 F2052
G1 X117.500 Y102.309 E3.4930
G1 X117.500 Y97.692 E3.7234
G1 X124.126 Y97.692 E4.0540
G1 X124.552 Y96.833 E4.1018
G1 X125.011 Y96.149 E4.1429
G1 X125.555 Y95.530 E4.1840
G1 X126.174 Y94.989 E4.2250
G1 X126.858 Y94.532 E4.2660
G1 X127.596 Y94.169 E4.3071
G1 X128.375 Y93.906 E4.3481
G1 X129.180 Y93.746 E4.3890
G1 X130.000 Y93.692 E4.4300
G1 X130.820 Y93.746 E4.4710
G1 X131.625 Y93.906 E4.5120
G1 X132.404 Y94.169 E4.5530
G1 X133.142 Y94.532 E4.5940
G1 X133.826 Y94.989 E4.6351
G1 X134.445 Y95.530 E4.6761
G1 X134.989 Y96.149 E4.7172
G1 X135.448 Y96.833 E4.7583
G1 X135.874 Y97.692 E4.8061
G1 X142.500 Y97.692 E5.1367
G1 X142.500 Y102.309 E5.3670
G1 X135.874 Y102.309 E5.6976
G1 X135.448 Y103.167 E5.7454
G1 X134.989 Y103.851 E5.7865
G1 X134.445 Y104.470 E5.8276
G1 X133.826 Y105.011 E5.8687
G1 X133.142 Y105.468 E5.9097
G1 X132.404 Y105.831 E5.9507
G1 X131.625 Y106.094 E5.9917
G1 X130.820 Y106.254 E6.0327
G1 X130.000 Y106.308 E6.0737
G1 X129.180 Y106.254 E6.1147
G1 X128.375 Y106.094 E6.1557
G1 X127.596 Y105.831 E6.1967
G1 X126.858 Y105.468 E6.2377
G1 X126.174 Y105.011 E6.2787
G1 X125.555 Y104.470 E6.3198
G1 X125.011 Y103.851 E6.3608
G1 X124.552 Y103.167 E6.4019
G1 X124.150 Y102.356 E6.4471
G1 X123.831 Y101.801
G0 X126.436 Y103.893 F10800
G0 X128.121 Y105.239
;segType:Loop
G1 X127.614 Y105.045 E6.4742 F3420
G1 X126.899 Y104.644 E6.5151
G1 X126.252 Y104.145 E6.5558
G1 X125.687 Y103.558 E6.5965
G1 X125.213 Y102.896 E6.6371
G1 X124.841 Y102.173 E6.6777
G1 X124.579 Y101.405 E6.7182
G1 X124.432 Y100.607 E6.7586
G1 X124.402 Y99.797 E6.7991
G1 X124.491 Y98.991 E6.8395
G1 X124.696 Y98.207 E6.8800
G1 X125.014 Y97.459 E6.9205
G1 X125.438 Y96.765 E6.9611
G1 X125.959 Y96.139 E7.0017
G1 X126.567 Y95.594 E7.0425
G1 X127.249 Y95.142 E7.0833
G1 X127.991 Y94.795 E7.1242
G1 X128.777 Y94.558 E7.1651
G1 X129.578 Y94.440 E7.2055
G1 X130.000 Y94.425 E7.2266
G1 X130.422 Y94.440 E7.2476
G1 X131.223 Y94.558 E7.2880
G1 X132.009 Y94.795 E7.3290
G1 X132.751 Y95.142 E7.3699
G1 X133.433 Y95.594 E7.4107
G1 X134.041 Y96.139 E7.4514
G1 X134.562 Y96.765 E7.4921
G1 X134.987 Y97.459 E7.5326
G1 X135.304 Y98.207 E7.5732
G1 X135.509 Y98.991 E7.6136
G1 X135.598 Y99.797 E7.6541
G1 X135.568 Y100.607 E7.6945
G1 X135.421 Y101.405 E7.7350
G1 X135.159 Y102.173 E7.7755
G1 X134.787 Y102.896 E7.8160
G1 X134.314 Y103.558 E7.8566
G1 X133.748 Y104.145 E7.8973
G1 X133.101 Y104.644 E7.9381
G1 X132.386 Y105.045 E7.9789
G1 X131.621 Y105.338 E8.0199
G1 X130.819 Y105.517 E8.0608
G1 X130.000 Y105.576 E8.1018
G1 X129.181 Y105.517 E8.1428
G1 X128.379 Y105.338 E8.1837
G1 X128.291 Y105.304 E8.1884
;segType:Perimeter
G0 X129.599 Y105.621 F10800
G1 X129.188 Y105.125 E8.2206 F2052
G1 X128.500 Y104.971 E8.2558
G1 X127.790 Y104.700 E8.2937
G1 X127.127 Y104.328 E8.3316
G1 X126.527 Y103.864 E8.3695
G1 X126.000 Y103.318 E8.4073
G1 X125.559 Y102.702 E8.4451
G1 X125.213 Y102.028 E8.4829
G1 X124.968 Y101.311 E8.5207
G1 X124.830 Y100.567 E8.5585
G1 X124.803 Y99.811 E8.5962
G1 X124.886 Y99.058 E8.6340
G1 X125.077 Y98.326 E8.6717
G1 X125.373 Y97.629 E8.7095
G1 X125.768 Y96.982 E8.7473
G1 X126.253 Y96.399 E8.7852
G1 X126.818 Y95.893 E8.8230
G1 X127.452 Y95.474 E8.8609
G1 X128.140 Y95.151 E8.8988
G1 X128.868 Y94.932 E8.9367
G1 X129.616 Y94.822 E8.9745
G1 X130.000 Y94.808 E8.9937
G1 X130.384 Y94.822 E9.0128
G1 X131.132 Y94.932 E9.0506
G1 X131.860 Y95.151 E9.0885
G1 X132.548 Y95.474 E9.1264
G1 X133.182 Y95.893 E9.1643
G1 X133.747 Y96.399 E9.2021
G1 X134.232 Y96.982 E9.2400
G1 X134.627 Y97.629 E9.2778
G1 X134.923 Y98.326 E9.3156
G1 X135.114 Y99.058 E9.3533
G1 X135.197 Y99.811 E9.3911
G1 X135.170 Y100.567 E9.4288
G1 X135.032 Y101.311 E9.4666
G1 X134.787 Y102.028 E9.5044
G1 X134.441 Y102.702 E9.5422
G1 X134.000 Y103.318 E9.5800
G1 X133.474 Y103.864 E9.6178
G1 X132.873 Y104.328 E9.6557
G1 X132.210 Y104.700 E9.6936
G1 X131.500 Y104.971 E9.7315
G1 X130.758 Y105.137 E9.7695
G1 X130.000 Y105.192 E9.8074
G1 X129.297 Y105.141 E9.8426
G1 X128.749 Y105.496
G0 F4800 E8.8426
G0 X126.458 Y104.037 F10800
G0 X125.401 Y102.791
G0 X124.231 Y100.462
G0 F4800 E9.8426
;segType:Infill
G1 X118.100 Y100.462 E10.1485 F5130
G0 X123.647 Y101.734 F10800
G1 X123.647 Y98.266 E10.3215 F5130
G0 X127.359 Y95.322 F10800
G0 X128.826 Y94.761
G0 X130.402 Y94.647
G0 X131.928 Y94.988
G0 X133.297 Y95.756
G0 X134.383 Y96.882
G0 X135.068 Y98.200
G0 X138.340 Y98.266
G1 X138.340 Y101.734 E10.4945 F5130
G0 X141.900 Y100.462 F10800
G1 X135.774 Y100.462 E10.8001 F5130
; ------------------------------------
; Layer #4
; ------------------------------------
G21 ; mm
G90 ; abs
G92 E0 ; reset extr
M106 S255
G0 F4800 E-1.0000
G0 F300 Z3.000
G0 X134.431 Y103.647 F10800
G0 X131.665 Y105.475
G0 X128.335 Y105.475
G0 X125.569 Y103.647
G0 X124.718 Y102.261
G0 X123.116 Y101.925
G0 F4800 E0.0000
;segType:Loop
G1 X117.900 Y101.925 E0.2602 F3420
G1 X117.900 Y98.075 E0.4524
G1 X124.379 Y98.075 E0.7756
G1 X124.902 Y97.019 E0.8344
G1 X125.333 Y96.377 E0.8730
G1 X125.844 Y95.797 E0.9115
G1 X126.424 Y95.289 E0.9500
G1 X127.065 Y94.862 E0.9884
G1 X127.755 Y94.522 E1.0268
G1 X128.482 Y94.275 E1.0651
G1 X129.235 Y94.126 E1.1034
G1 X130.000 Y94.076 E1.1416
G1 X130.765 Y94.126 E1.1799
G1 X131.518 Y94.275 E1.2182
G1 X132.245 Y94.522 E1.2565
G1 X132.935 Y94.862 E1.2949
G1 X133.576 Y95.289 E1.3333
G1 X134.156 Y95.797 E1.3718
G1 X134.667 Y96.377 E1.4103
G1 X135.098 Y97.019 E1.4489
G1 X135.621 Y98.075 E1.5077
G1 X142.100 Y98.075 E1.8309
G1 X142.100 Y101.925 E2.0230
G1 X135.621 Y101.925 E2.3463
G1 X135.098 Y102.981 E2.4051
G1 X134.667 Y103.623 E2.4437
G1 X134.156 Y104.203 E2.4822
G1 X133.576 Y104.711 E2.5207
G1 X132.935 Y105.138 E2.5591
G1 X132.245 Y105.478 E2.5975
G1 X131.518 Y105.725 E2.6358
G1 X130.765 Y105.874 E2.6741
G1 X130.000 Y105.924 E2.7123
G1 X129.235 Y105.874 E2.7506
G1 X128.482 Y105.725 E2.7888
G1 X127.755 Y105.478 E2.8272
G1 X127.065 Y105.138 E2.8655
G1 X126.424 Y104.711 E2.9039
G1 X125.844 Y104.203 E2.9424
G1 X125.333 Y103.623 E2.9810
G1 X124.902 Y102.981 E3.0196
G1 X124.379 Y101.925 E3.0783
G1 X123.300 Y101.925 E3.1322
G0 X123.440 Y102.133 F10800
G0 X124.126 Y102.133
G0 X124.731 Y102.347
;segType:Perimeter
G1 X124.071 Y102.309 E3.1652 F2052
G1 X117.500 Y102.309 E3.4930
G1 X117.500 Y97.692 E3.7234
G1 X124.126 Y97.692 E4.0540
G1 X124.552 Y96.833 E4.1018
G1 X125.011 Y96.149 E4.1429
G1 X125.555 Y95.530 E4.1840
G1 X126.174 Y94.989 E4.2250
G1 X126.858 Y94.532 E4.2660
G1 X127.596 Y94.169 E4.3071
G1 X128.375 Y93.906 E4.3481
G1 X129.180 Y93.746 E4.3890
G1 X130.000 Y93.692 E4.4300
G1 X130.820 Y93.746 E4.4710
G1 X131.625 Y93.906 E4.5120
G1 X132.404 Y94.169 E4.5530
G1 X133.142 Y94.532 E4.5940
G1 X133.826 Y94.989 E4.6351
G1 X134.445 Y95.530 E4.6761
G1 X134.989 Y96.149 E4.7172
G1 X135.448 Y96.833 E4.7583
G1 X135.874 Y97.692 E4.8061
G1 X142.500 Y97.692 E5.1367
G1 X142.500 Y102.309 E5.3670
G1 X135.874 Y102.309 E5.6976
G1 X135.448 Y103.167 E5.7454
G1 X134.989 Y103.851 E5.7865
G1 X134.445 Y104.470 E5.8276
G1 X133.826 Y105.011 E5.8687
G1 X133.142 Y105.468 E5.9097
G1 X132.404 Y105.831 E5.9507
G1 X131.625 Y106.094 E5.9917
G1 X130.820 Y106.254 E6.0327
G1 X130.000 Y106.308 E6.0737
G1 X129.180 Y106.254 E6.1147
G1 X128.375 Y106.094 E6.1557
G1 X127.596 Y105.831 E6.1967
G1 X126.858 Y105.468 E6.2377
G1 X126.174 Y105.011 E6.2787
G1 X125.555 Y104.470 E6.3198
G1 X125.011 Y103.851 E6.3608
G1 X124.552 Y103.167 E6.4019
G1 X124.150 Y102.356 E6.4471
G1 X123.831 Y101.801
G0 X126.436 Y103.893 F10800
G0 X128.121 Y105.239
;segType:Loop
G1 X127.614 Y105.045 E6.4742 F3420
G1 X126.899 Y104.644 E6.5151
G1 X126.252 Y104.145 E6.5558
G1 X125.687 Y103.558 E6.5965
G1 X125.213 Y102.896 E6.6371
G1 X124.841 Y102.173 E6.6777
G1 X124.579 Y101.405 E6.7182
G1 X124.432 Y100.607 E6.7586
G1 X124.402 Y99.797 E6.7991
G1 X124.491 Y98.991 E6.8395
G1 X124.696 Y98.207 E6.8800
G1 X125.014 Y97.459 E6.9205
G1 X125.438 Y96.765 E6.9611
G1 X125.959 Y96.139 E7.0017
G1 X126.567 Y95.594 E7.0425
G1 X127.249 Y95.142 E7.0833
G1 X127.991 Y94.795 E7.1242
G1 X128.777 Y94.558 E7.1651
G1 X129.578 Y94.440 E7.2055
G1 X130.000 Y94.425 E7.2266
G1 X130.422 Y94.440 E7.2476
G1 X131.223 Y94.558 E7.2880
G1 X132.009 Y94.795 E7.3290
G1 X132.751 Y95.142 E7.3699
G1 X133.433 Y95.594 E7.4107
G1 X134.041 Y96.139 E7.4514
G1 X134.562 Y96.765 E7.4921
G1 X134.987 Y97.459 E7.5326
G1 X135.304 Y98.207 E7.5732
G1 X135.509 Y98.991 E7.6136
G1 X135.598 Y99.797 E7.6541
G1 X135.568 Y100.607 E7.6945
G1 X135.421 Y101.405 E7.7350
G1 X135.159 Y102.173 E7.7755
G1 X134.787 Y102.896 E7.8160
G1 X134.314 Y103.558 E7.8566
G1 X133.748 Y104.145 E7.8973
G1 X133.101 Y104.644 E7.9381
G1 X132.386 Y105.045 E7.9789
G1 X131.621 Y105.338 E8.0199
G1 X130.819 Y105.517 E8.0608
G1 X130.000 Y105.576 E8.1018
G1 X129.181 Y105.517 E8.1428
G1 X128.379 Y105.338 E8.1837
G1 X128.291 Y105.304 E8.1884
;segType:Perimeter
G0 X129.599 Y105.621 F10800
G1 X129.188 Y105.125 E8.2206 F2052
G1 X128.500 Y104.971 E8.2558
G1 X127.790 Y104.700 E8.2937
G1 X127.127 Y104.328 E8.3316
G1 X126.527 Y103.864 E8.3695
G1 X126.000 Y103.318 E8.4073
G1 X125.559 Y102.702 E8.4451
G1 X125.213 Y102.028 E8.4829
G1 X124.968 Y101.311 E8.5207
G1 X124.830 Y100.567 E8.5585
G1 X124.803 Y99.811 E8.5962
G1 X124.886 Y99.058 E8.6340
G1 X125.077 Y98.326 E8.6717
G1 X125.373 Y97.629 E8.7095
G1 X125.768 Y96.982 E8.7473
G1 X126.253 Y96.399 E8.7852
G1 X126.818 Y95.893 E8.8230
G1 X127.452 Y95.474 E8.8609
G1 X128.140 Y95.151 E8.8988
G1 X128.868 Y94.932 E8.9367
G1 X129.616 Y94.822 E8.9745
G1 X130.000 Y94.808 E8.9937
G1 X130.384 Y94.822 E9.0128
G1 X131.132 Y94.932 E9.0506
G1 X131.860 Y95.151 E9.0885
G1 X132.548 Y95.474 E9.1264
G1 X133.182 Y95.893 E9.1643
G1 X133.747 Y96.399 E9.2021
G1 X134.232 Y96.982 E9.2400
G1 X134.627 Y97.629 E9.2778
G1 X134.923 Y98.326 E9.3156
G1 X135.114 Y99.058 E9.3533
G1 X135.197 Y99.811 E9.3911
G1 X135.170 Y100.567 E9.4288
G1 X135.032 Y101.311 E9.4666
G1 X134.787 Y102.028 E9.5044
G1 X134.441 Y102.702 E9.5422
G1 X134.000 Y103.318 E9.5800
G1 X133.474 Y103.864 E9.6178
G1 X132.873 Y104.328 E9.6557
G1 X132.210 Y104.700 E9.6936
G1 X131.500 Y104.971 E9.7315
G1 X130.758 Y105.137 E9.7695
G1 X130.000 Y105.192 E9.8074
G1 X129.297 Y105.141 E9.8426
G1 X128.749 Y105.496
G0 F4800 E8.8426
G0 X126.454 Y104.034 F10800
G0 X125.401 Y102.791
G0 X124.226 Y100.462
G0 F4800 E9.8426
;segType:Infill
G1 X118.100 Y100.462 E10.1482 F5130
G0 X123.647 Y101.734 F10800
G1 X123.647 Y98.266 E10.3212 F5130
G0 X127.359 Y95.322 F10800
G0 X128.826 Y94.761
G0 X130.402 Y94.647
G0 X131.928 Y94.988
G0 X133.297 Y95.756
G0 X134.383 Y96.882
G0 X135.068 Y98.200
G0 X138.340 Y98.266
G1 X138.340 Y101.734 E10.4942 F5130
G0 X141.900 Y100.462 F10800
G1 X135.774 Y100.462 E10.7999 F5130
; ------------------------------------
; Layer #5
; ------------------------------------
G21 ; mm
G90 ; abs
G92 E0 ; reset extr
M106 S255
G0 F4800 E-1.0000
G0 F300 Z3.300
G0 X134.431 Y103.647 F10800
G0 X131.665 Y105.475
G0 X128.335 Y105.475
G0 X125.569 Y103.647
G0 X124.718 Y102.261
G0 X123.116 Y101.925
G0 F4800 E0.0000
;segType:Loop
G1 X117.900 Y101.925 E0.2602 F3420
G1 X117.900 Y98.075 E0.4524
G1 X124.379 Y98.075 E0.7756
G1 X124.902 Y97.019 E0.8344
G1 X125.333 Y96.377 E0.8730
G1 X125.844 Y95.797 E0.9115
G1 X126.424 Y95.289 E0.9500
G1 X127.065 Y94.862 E0.9884
G1 X127.755 Y94.522 E1.0268
G1 X128.482 Y94.275 E1.0651
G1 X129.235 Y94.126 E1.1034
G1 X130.000 Y94.076 E1.1416
G1 X130.765 Y94.126 E1.1799
G1 X131.518 Y94.275 E1.2182
G1 X132.245 Y94.522 E1.2565
G1 X132.935 Y94.862 E1.2949
G1 X133.576 Y95.289 E1.3333
G1 X134.156 Y95.797 E1.3718
G1 X134.667 Y96.377 E1.4103
G1 X135.098 Y97.019 E1.4489
G1 X135.621 Y98.075 E1.5077
G1 X142.100 Y98.075 E1.8309
G1 X142.100 Y101.925 E2.0230
G1 X135.621 Y101.925 E2.3463
G1 X135.098 Y102.981 E2.4051
G1 X134.667 Y103.623 E2.4437
G1 X134.156 Y104.203 E2.4822
G1 X133.576 Y104.711 E2.5207
G1 X132.935 Y105.138 E2.5591
G1 X132.245 Y105.478 E2.5975
G1 X131.518 Y105.725 E2.6358
G1 X130.765 Y105.874 E2.6741
G1 X130.000 Y105.924 E2.7123
G1 X129.235 Y105.874 E2.7506
G1 X128.482 Y105.725 E2.7888
G1 X127.755 Y105.478 E2.8272
G1 X127.065 Y105.138 E2.8655
G1 X126.424 Y104.711 E2.9039
G1 X125.844 Y104.203 E2.9424
G1 X125.333 Y103.623 E2.9810
G1 X124.902 Y102.981 E3.0196
G1 X124.379 Y101.925 E3.0783
G1 X123.300 Y101.925 E3.1322
G0 X123.440 Y102.133 F10800
G0 X124.126 Y102.133
G0 X124.731 Y102.347
;segType:Perimeter
G1 X124.071 Y102.309 E3.1652 F2052
G1 X117.500 Y102.309 E3.4930
G1 X117.500 Y97.692 E3.7234
G1 X124.126 Y97.692 E4.0540
G1 X124.552 Y96.833 E4.1018
G1 X125.011 Y96.149 E4.1429
G1 X125.555 Y95.530 E4.1840
G1 X126.174 Y94.989 E4.2250
G1 X126.858 Y94.532 E4.2660
G1 X127.596 Y94.169 E4.3071
G1 X128.375 Y93.906 E4.3481
G1 X129.180 Y93.746 E4.3890
G1 X130.000 Y93.692 E4.4300
G1 X130.820 Y93.746 E4.4710
G1 X131.625 Y93.906 E4.5120
G1 X132.404 Y94.169 E4.5530
G1 X133.142 Y94.532 E4.5940
G1 X133.826 Y94.989 E4.6351
G1 X134.445 Y95.530 E4.6761
G1 X134.989 Y96.149 E4.7172
G1 X135.448 Y96.833 E4.7583
G1 X135.874 Y97.692 E4.8061
G1 X142.500 Y97.692 E5.1367
G1 X142.500 Y102.309 E5.3670
G1 X135.874 Y102.309 E5.6976
G1 X135.448 Y103.167 E5.7454
G1 X134.989 Y103.851 E5.7865
G1 X134.445 Y104.470 E5.8276
G1 X133.826 Y105.011 E5.8687
G1 X133.142 Y105.468 E5.9097
G1 X132.404 Y105.831 E5.9507
G1 X131.625 Y106.094 E5.9917
G1 X130.820 Y106.254 E6.0327
G1 X130.000 Y106.308 E6.0737
G1 X129.180 Y106.254 E6.1147
G1 X128.375 Y106.094 E6.1557
G1 X127.596 Y105.831 E6.1967
G1 X126.858 Y105.468 E6.2377
G1 X126.174 Y105.011 E6.2787
G1 X125.555 Y104.470 E6.3198
G1 X125.011 Y103.851 E6.3608
G1 X124.552 Y103.167 E6.4019
G1 X124.150 Y102.356 E6.4471
G1 X123.831 Y101.801
G0 X126.436 Y103.893 F10800
G0 X128.121 Y105.239
;segType:Loop
G1 X127.614 Y105.045 E6.4742 F3420
G1 X126.899 Y104.644 E6.5151
G1 X126.252 Y104.145 E6.5558
G1 X125.687 Y103.558 E6.5965
G1 X125.213 Y102.896 E6.6371
G1 X124.841 Y102.173 E6.6777
G1 X124.579 Y101.405 E6.7182
G1 X124.432 Y100.607 E6.7586
G1 X124.402 Y99.797 E6.7991
G1 X124.491 Y98.991 E6.8395
G1 X124.696 Y98.207 E6.8800
G1 X125.014 Y97.459 E6.9205
G1 X125.438 Y96.765 E6.9611
G1 X125.959 Y96.139 E7.0017
G1 X126.567 Y95.594 E7.0425
G1 X127.249 Y95.142 E7.0833
G1 X127.991 Y94.795 E7.1242
G1 X128.777 Y94.558 E7.1651
G1 X129.578 Y94.440 E7.2055
G1 X130.000 Y94.425 E7.2266
G1 X130.422 Y94.440 E7.2476
G1 X131.223 Y94.558 E7.2880
G1 X132.009 Y94.795 E7.3290
G1 X132.751 Y95.142 E7.3699
G1 X133.433 Y95.594 E7.4107
G1 X134.041 Y96.139 E7.4514
G1 X134.562 Y96.765 E7.4921
G1 X134.987 Y97.459 E7.5326
G1 X135.304 Y98.207 E7.5732
G1 X135.509 Y98.991 E7.6136
G1 X135.598 Y99.797 E7.6541
G1 X135.568 Y100.607 E7.6945
G1 X135.421 Y101.405 E7.7350
G1 X135.159 Y102.173 E7.7755
G1 X134.787 Y102.896 E7.8160
G1 X134.314 Y103.558 E7.8566
G1 X133.748 Y104.145 E7.8973
G1 X133.101 Y104.644 E7.9381
G1 X132.386 Y105.045 E7.9789
G1 X131.621 Y105.338 E8.0199
G1 X130.819 Y105.517 E8.0608
G1 X130.000 Y105.576 E8.1018
G1 X129.181 Y105.517 E8.1428
G1 X128.379 Y105.338 E8.1837
G1 X128.291 Y105.304 E8.1884
;segType:Perimeter
G0 X129.599 Y105.621 F10800
G1 X129.188 Y105.125 E8.2206 F2052
G1 X128.500 Y104.971 E8.2558
G1 X127.790 Y104.700 E8.2937
G1 X127.127 Y104.328 E8.3316
G1 X126.527 Y103.864 E8.3695
G1 X126.000 Y103.318 E8.4073
G1 X125.559 Y102.702 E8.4451
G1 X125.213 Y102.028 E8.4829
G1 X124.968 Y101.311 E8.5207
G1 X124.830 Y100.567 E8.5585
G1 X124.803 Y99.811 E8.5962
G1 X124.886 Y99.058 E8.6340
G1 X125.077 Y98.326 E8.6717
G1 X125.373 Y97.629 E8.7095
G1 X125.768 Y96.982 E8.7473
G1 X126.253 Y96.399 E8.7852
G1 X126.818 Y95.893 E8.8230
G1 X127.452 Y95.474 E8.8609
G1 X128.140 Y95.151 E8.8988
G1 X128.868 Y94.932 E8.9367
G1 X129.616 Y94.822 E8.9745
G1 X130.000 Y94.808 E8.9937
G1 X130.384 Y94.822 E9.0128
G1 X131.132 Y94.932 E9.0506
G1 X131.860 Y95.151 E9.0885
G1 X132.548 Y95.474 E9.1264
G1 X133.182 Y95.893 E9.1643
G1 X133.747 Y96.399 E9.2021
G1 X134.232 Y96.982 E9.2400
G1 X134.627 Y97.629 E9.2778
G1 X134.923 Y98.326 E9.3156
G1 X135.114 Y99.058 E9.3533
G1 X135.197 Y99.811 E9.3911
G1 X135.170 Y100.567 E9.4288
G1 X135.032 Y101.311 E9.4666
G1 X134.787 Y102.028 E9.5044
G1 X134.441 Y102.702 E9.5422
G1 X134.000 Y103.318 E9.5800
G1 X133.474 Y103.864 E9.6178
G1 X132.873 Y104.328 E9.6557
G1 X132.210 Y104.700 E9.6936
G1 X131.500 Y104.971 E9.7315
G1 X130.758 Y105.137 E9.7695
G1 X130.000 Y105.192 E9.8074
G1 X129.297 Y105.141 E9.8426
G1 X128.749 Y105.496
G0 F4800 E8.8426
G0 X126.454 Y104.034 F10800
G0 X125.401 Y102.791
G0 X124.226 Y100.462
G0 F4800 E9.8426
;segType:Infill
G1 X118.100 Y100.462 E10.1482 F5130
G0 X123.647 Y101.734 F10800
G1 X123.647 Y98.266 E10.3212 F5130
G0 X127.359 Y95.322 F10800
G0 X128.826 Y94.761
G0 X130.402 Y94.647
G0 X131.928 Y94.988
G0 X133.297 Y95.756
G0 X134.383 Y96.882
G0 X135.068 Y98.200
G0 X138.340 Y98.266
G1 X138.340 Y101.734 E10.4942 F5130
G0 X141.900 Y100.462 F10800
G1 X135.774 Y100.462 E10.7999 F5130
; ------------------------------------
; Layer #6
; ------------------------------------
G21 ; mm
G90 ; abs
G92 E0 ; reset extr
M106 S255
G0 F4800 E-1.0000
G0 F300 Z3.600
G0 X134.431 Y103.647 F10800
G0 X131.665 Y105.475
G0 X128.335 Y105.475
G0 X125.569 Y103.647
G0 X124.718 Y102.261
G0 X123.116 Y101.925
G0 F4800 E0.0000
;segType:Loop
G1 X117.900 Y101.925 E0.2602 F3420
G1 X117.900 Y98.075 E0.4524
G1 X124.379 Y98.075 E0.7756
G1 X124.902 Y97.019 E0.8344
G1 X125.333 Y96.377 E0.8730
G1 X125.844 Y95.797 E0.9115
G1 X126.424 Y95.289 E0.9500
G1 X127.065 Y94.862 E0.9884
G1 X127.755 Y94.522 E1.0268
G1 X128.482 Y94.275 E1.0651
G1 X129.235 Y94.126 E1.1034
G1 X130.000 Y94.076 E1.1416
G1 X130.765 Y94.126 E1.1799
G1 X131.518 Y94.275 E1.2182
G1 X132.245 Y94.522 E1.2565
G1 X132.935 Y94.862 E1.2949
G1 X133.576 Y95.289 E1.3333
G1 X134.156 Y95.797 E1.3718
G1 X134.667 Y96.377 E1.4103
G1 X135.098 Y97.019 E1.4489
G1 X135.621 Y98.075 E1.5077
G1 X142.100 Y98.075 E1.8309
G1 X142.100 Y101.925 E2.0230
G1 X135.621 Y101.925 E2.3463
G1 X135.098 Y102.981 E2.4051
G1 X134.667 Y103.623 E2.4437
G1 X134.156 Y104.203 E2.4822
G1 X133.576 Y104.711 E2.5207
G1 X132.935 Y105.138 E2.5591
G1 X132.245 Y105.478 E2.5975
G1 X131.518 Y105.725 E2.6358
G1 X130.765 Y105.874 E2.6741
G1 X130.000 Y105.924 E2.7123
G1 X129.235 Y105.874 E2.7506
G1 X128.482 Y105.725 E2.7888
G1 X127.755 Y105.478 E2.8272
G1 X127.065 Y105.138 E2.8655
G1 X126.424 Y104.711 E2.9039
G1 X125.844 Y104.203 E2.9424
G1 X125.333 Y103.623 E2.9810
G1 X124.902 Y102.981 E3.0196
G1 X124.379 Y101.925 E3.0783
G1 X123.300 Y101.925 E3.1322
G0 X123.440 Y102.133 F10800
G0 X124.126 Y102.133
G0 X124.731 Y102.347
;segType:Perimeter
G1 X124.071 Y102.309 E3.1652 F2052
G1 X117.500 Y102.309 E3.4930
G1 X117.500 Y97.692 E3.7234
G1 X124.126 Y97.692 E4.0540
G1 X124.552 Y96.833 E4.1018
G1 X125.011 Y96.149 E4.1429
G1 X125.555 Y95.530 E4.1840
G1 X126.174 Y94.989 E4.2250
G1 X126.858 Y94.532 E4.2660
G1 X127.596 Y94.169 E4.3071
G1 X128.375 Y93.906 E4.3481
G1 X129.180 Y93.746 E4.3890
G1 X130.000 Y93.692 E4.4300
G1 X130.820 Y93.746 E4.4710
G1 X131.625 Y93.906 E4.5120
G1 X132.404 Y94.169 E4.5530
G1 X133.142 Y94.532 E4.5940
G1 X133.826 Y94.989 E4.6351
G1 X134.445 Y95.530 E4.6761
G1 X134.989 Y96.149 E4.7172
G1 X135.448 Y96.833 E4.7583
G1 X135.874 Y97.692 E4.8061
G1 X142.500 Y97.692 E5.1367
G1 X142.500 Y102.309 E5.3670
G1 X135.874 Y102.309 E5.6976
G1 X135.448 Y103.167 E5.7454
G1 X134.989 Y103.851 E5.7865
G1 X134.445 Y104.470 E5.8276
G1 X133.826 Y105.011 E5.8687
G1 X133.142 Y105.468 E5.9097
G1 X132.404 Y105.831 E5.9507
G1 X131.625 Y106.094 E5.9917
G1 X130.820 Y106.254 E6.0327
G1 X130.000 Y106.308 E6.0737
G1 X129.180 Y106.254 E6.1147
G1 X128.375 Y106.094 E6.1557
G1 X127.596 Y105.831 E6.1967
G1 X126.858 Y105.468 E6.2377
G1 X126.174 Y105.011 E6.2787
G1 X125.555 Y104.470 E6.3198
G1 X125.011 Y103.851 E6.3608
G1 X124.552 Y103.167 E6.4019
G1 X124.150 Y102.356 E6.4471
G1 X123.831 Y101.801
G0 X126.436 Y103.893 F10800
G0 X128.121 Y105.239
;segType:Loop
G1 X127.614 Y105.045 E6.4742 F3420
G1 X126.899 Y104.644 E6.5151
G1 X126.252 Y104.145 E6.5558
G1 X125.687 Y103.558 E6.5965
G1 X125.213 Y102.896 E6.6371
G1 X124.841 Y102.173 E6.6777
G1 X124.579 Y101.405 E6.7182
G1 X124.432 Y100.607 E6.7586
G1 X124.402 Y99.797 E6.7991
G1 X124.491 Y98.991 E6.8395
G1 X124.696 Y98.207 E6.8800
G1 X125.014 Y97.459 E6.9205
G1 X125.438 Y96.765 E6.9611
G1 X125.959 Y96.139 E7.0017
G1 X126.567 Y95.594 E7.0425
G1 X127.249 Y95.142 E7.0833
G1 X127.991 Y94.795 E7.1242
G1 X128.777 Y94.558 E7.1651
G1 X129.578 Y94.440 E7.2055
G1 X130.000 Y94.425 E7.2266
G1 X130.422 Y94.440 E7.2476
G1 X131.223 Y94.558 E7.2880
G1 X132.009 Y94.795 E7.3290
G1 X132.751 Y95.142 E7.3699
G1 X133.433 Y95.594 E7.4107
G1 X134.041 Y96.139 E7.4514
G1 X134.562 Y96.765 E7.4921
G1 X134.987 Y97.459 E7.5326
G1 X135.304 Y98.207 E7.5732
G1 X135.509 Y98.991 E7.6136
G1 X135.598 Y99.797 E7.6541
G1 X135.568 Y100.607 E7.6945
G1 X135.421 Y101.405 E7.7350
G1 X135.159 Y102.173 E7.7755
G1 X134.787 Y102.896 E7.8160
G1 X134.314 Y103.558 E7.8566
G1 X133.748 Y104.145 E7.8973
G1 X133.101 Y104.644 E7.9381
G1 X132.386 Y105.045 E7.9789
G1 X131.621 Y105.338 E8.0199
G1 X130.819 Y105.517 E8.0608
G1 X130.000 Y105.576 E8.1018
G1 X129.181 Y105.517 E8.1428
G1 X128.379 Y105.338 E8.1837
G1 X128.291 Y105.304 E8.1884
;segType:Perimeter
G0 X129.599 Y105.621 F10800
G1 X129.188 Y105.125 E8.2206 F2052
G1 X128.500 Y104.971 E8.2558
G1 X127.790 Y104.700 E8.2937
G1 X127.127 Y104.328 E8.3316
G1 X126.527 Y103.864 E8.3695
G1 X126.000 Y103.318 E8.4073
G1 X125.559 Y102.702 E8.4451
G1 X125.213 Y102.028 E8.4829
G1 X124.968 Y101.311 E8.5207
G1 X124.830 Y100.567 E8.5585
G1 X124.803 Y99.811 E8.5962
G1 X124.886 Y99.058 E8.6340
G1 X125.077 Y98.326 E8.6717
G1 X125.373 Y97.629 E8.7095
G1 X125.768 Y96.982 E8.7473
G1 X126.253 Y96.399 E8.7852
G1 X126.818 Y95.893 E8.8230
G1 X127.452 Y95.474 E8.8609
G1 X128.140 Y95.151 E8.8988
G1 X128.868 Y94.932 E8.9367
G1 X129.616 Y94.822 E8.9745
G1 X130.000 Y94.808 E8.9937
G1 X130.384 Y94.822 E9.0128
G1 X131.132 Y94.932 E9.0506
G1 X131.860 Y95.151 E9.0885
G1 X132.548 Y95.474 E9.1264
G1 X133.182 Y95.893 E9.1643
G1 X133.747 Y96.399 E9.2021
G1 X134.232 Y96.982 E9.2400
G1 X134.627 Y97.629 E9.2778
G1 X134.923 Y98.326 E9.3156
G1 X135.114 Y99.058 E9.3533
G1 X135.197 Y99.811 E9.3911
G1 X135.170 Y100.567 E9.4288
G1 X135.032 Y101.311 E9.4666
G1 X134.787 Y102.028 E9.5044
G1 X134.441 Y102.702 E9.5422
G1 X134.000 Y103.318 E9.5800
G1 X133.474 Y103.864 E9.6178
G1 X132.873 Y104.328 E9.6557
G1 X132.210 Y104.700 E9.6936
G1 X131.500 Y104.971 E9.7315
G1 X130.758 Y105.137 E9.7695
G1 X130.000 Y105.192 E9.8074
G1 X129.297 Y105.141 E9.8426
G1 X128.749 Y105.496
G0 F4800 E8.8426
G0 X126.454 Y104.034 F10800
G0 X125.401 Y102.791
G0 X124.226 Y100.462
G0 F4800 E9.8426
;segType:Infill
G1 X118.100 Y100.462 E10.1482 F5130
G0 X123.647 Y101.734 F10800
G1 X123.647 Y98.266 E10.3212 F5130
G0 X127.359 Y95.322 F10800
G0 X128.826 Y94.761
G0 X130.402 Y94.647
G0 X131.928 Y94.988
G0 X133.297 Y95.756
G0 X134.383 Y96.882
G0 X135.068 Y98.200
G0 X138.340 Y98.266
G1 X138.340 Y101.734 E10.4942 F5130
G0 X141.900 Y100.462 F10800
G1 X135.774 Y100.462 E10.7999 F5130
; ------------------------------------
; Layer #7
; ------------------------------------
G21 ; mm
G90 ; abs
G92 E0 ; reset extr
M106 S255
G0 F4800 E-1.0000
G0 F300 Z3.900
G0 X134.431 Y103.647 F10800
G0 X131.665 Y105.475
G0 X128.335 Y105.475
G0 X125.569 Y103.647
G0 X124.718 Y102.261
G0 X123.116 Y101.925
G0 F4800 E0.0000
;segType:Loop
G1 X117.900 Y101.925 E0.2602 F3420
G1 X117.900 Y98.075 E0.4524
G1 X124.379 Y98.075 E0.7756
G1 X124.902 Y97.019 E0.8344
G1 X125.333 Y96.377 E0.8730
G1 X125.844 Y95.797 E0.9115
G1 X126.424 Y95.289 E0.9500
G1 X127.065 Y94.862 E0.9884
G1 X127.755 Y94.522 E1.0268
G1 X128.482 Y94.275 E1.0651
G1 X129.235 Y94.126 E1.1034
G1 X130.000 Y94.076 E1.1416
G1 X130.765 Y94.126 E1.1799
G1 X131.518 Y94.275 E1.2182
G1 X132.245 Y94.522 E1.2565
G1 X132.935 Y94.862 E1.2949
G1 X133.576 Y95.289 E1.3333
G1 X134.156 Y95.797 E1.3718
G1 X134.667 Y96.377 E1.4103
G1 X135.098 Y97.019 E1.4489
G1 X135.621 Y98.075 E1.5077
G1 X142.100 Y98.075 E1.8309
G1 X142.100 Y101.925 E2.0230
G1 X135.621 Y101.925 E2.3463
G1 X135.098 Y102.981 E2.4051
G1 X134.667 Y103.623 E2.4437
G1 X134.156 Y104.203 E2.4822
G1 X133.576 Y104.711 E2.5207
G1 X132.935 Y105.138 E2.5591
G1 X132.245 Y105.478 E2.5975
G1 X131.518 Y105.725 E2.6358
G1 X130.765 Y105.874 E2.6741
G1 X130.000 Y105.924 E2.7123
G1 X129.235 Y105.874 E2.7506
G1 X128.482 Y105.725 E2.7888
G1 X127.755 Y105.478 E2.8272
G1 X127.065 Y105.138 E2.8655
G1 X126.424 Y104.711 E2.9039
G1 X125.844 Y104.203 E2.9424
G1 X125.333 Y103.623 E2.9810
G1 X124.902 Y102.981 E3.0196
G1 X124.379 Y101.925 E3.0783
G1 X123.300 Y101.925 E3.1322
G0 X123.440 Y102.133 F10800
G0 X124.126 Y102.133
G0 X124.731 Y102.347
;segType:Perimeter
G1 X124.071 Y102.309 E3.1652 F2052
G1 X117.500 Y102.309 E3.4930
G1 X117.500 Y97.692 E3.7234
G1 X124.126 Y97.692 E4.0540
G1 X124.552 Y96.833 E4.1018
G1 X125.011 Y96.149 E4.1429
G1 X125.555 Y95.530 E4.1840
G1 X126.174 Y94.989 E4.2250
G1 X126.858 Y94.532 E4.2660
G1 X127.596 Y94.169 E4.3071
G1 X128.375 Y93.906 E4.3481
G1 X129.180 Y93.746 E4.3890
G1 X130.000 Y93.692 E4.4300
G1 X130.820 Y93.746 E4.4710
G1 X131.625 Y93.906 E4.5120
G1 X132.404 Y94.169 E4.5530
G1 X133.142 Y94.532 E4.5940
G1 X133.826 Y94.989 E4.6351
G1 X134.445 Y95.530 E4.6761
G1 X134.989 Y96.149 E4.7172
G1 X135.448 Y96.833 E4.7583
G1 X135.874 Y97.692 E4.8061
G1 X142.500 Y97.692 E5.1367
G1 X142.500 Y102.309 E5.3670
G1 X135.874 Y102.309 E5.6976
G1 X135.448 Y103.167 E5.7454
G1 X134.989 Y103.851 E5.7865
G1 X134.445 Y104.470 E5.8276
G1 X133.826 Y105.011 E5.8687
G1 X133.142 Y105.468 E5.9097
G1 X132.404 Y105.831 E5.9507
G1 X131.625 Y106.094 E5.9917
G1 X130.820 Y106.254 E6.0327
G1 X130.000 Y106.308 E6.0737
G1 X129.180 Y106.254 E6.1147
G1 X128.375 Y106.094 E6.1557
G1 X127.596 Y105.831 E6.1967
G1 X126.858 Y105.468 E6.2377
G1 X126.174 Y105.011 E6.2787
G1 X125.555 Y104.470 E6.3198
G1 X125.011 Y103.851 E6.3608
G1 X124.552 Y103.167 E6.4019
G1 X124.150 Y102.356 E6.4471
G1 X123.831 Y101.801
G0 X126.436 Y103.893 F10800
G0 X128.121 Y105.239
;segType:Loop
G1 X127.614 Y105.045 E6.4742 F3420
G1 X126.899 Y104.644 E6.5151
G1 X126.252 Y104.145 E6.5558
G1 X125.687 Y103.558 E6.5965
G1 X125.213 Y102.896 E6.6371
G1 X124.841 Y102.173 E6.6777
G1 X124.579 Y101.405 E6.7182
G1 X124.432 Y100.607 E6.7586
G1 X124.402 Y99.797 E6.7991
G1 X124.491 Y98.991 E6.8395
G1 X124.696 Y98.207 E6.8800
G1 X125.014 Y97.459 E6.9205
G1 X125.438 Y96.765 E6.9611
G1 X125.959 Y96.139 E7.0017
G1 X126.567 Y95.594 E7.0425
G1 X127.249 Y95.142 E7.0833
G1 X127.991 Y94.795 E7.1242
G1 X128.777 Y94.558 E7.1651
G1 X129.578 Y94.440 E7.2055
G1 X130.000 Y94.425 E7.2266
G1 X130.422 Y94.440 E7.2476
G1 X131.223 Y94.558 E7.2880
G1 X132.009 Y94.795 E7.3290
G1 X132.751 Y95.142 E7.3699
G1 X133.433 Y95.594 E7.4107
G1 X134.041 Y96.139 E7.4514
G1 X134.562 Y96.765 E7.4921
G1 X134.987 Y97.459 E7.5326
G1 X135.304 Y98.207 E7.5732
G1 X135.509 Y98.991 E7.6136
G1 X135.598 Y99.797 E7.6541
G1 X135.568 Y100.607 E7.6945
G1 X135.421 Y101.405 E7.7350
G1 X135.159 Y102.173 E7.7755
G1 X134.787 Y102.896 E7.8160
G1 X134.314 Y103.558 E7.8566
G1 X133.748 Y104.145 E7.8973
G1 X133.101 Y104.644 E7.9381
G1 X132.386 Y105.045 E7.9789
G1 X131.621 Y105.338 E8.0199
G1 X130.819 Y105.517 E8.0608
G1 X130.000 Y105.576 E8.1018
G1 X129.181 Y105.517 E8.1428
G1 X128.379 Y105.338 E8.1837
G1 X128.291 Y105.304 E8.1884
;segType:Perimeter
G0 X129.599 Y105.621 F10800
G1 X129.188 Y105.125 E8.2206 F2052
G1 X128.500 Y104.971 E8.2558
G1 X127.790 Y104.700 E8.2937
G1 X127.127 Y104.328 E8.3316
G1 X126.527 Y103.864 E8.3695
G1 X126.000 Y103.318 E8.4073
G1 X125.559 Y102.702 E8.4451
G1 X125.213 Y102.028 E8.4829
G1 X124.968 Y101.311 E8.5207
G1 X124.830 Y100.567 E8.5585
G1 X124.803 Y99.811 E8.5962
G1 X124.886 Y99.058 E8.6340
G1 X125.077 Y98.326 E8.6717
G1 X125.373 Y97.629 E8.7095
G1 X125.768 Y96.982 E8.7473
G1 X126.253 Y96.399 E8.7852
G1 X126.818 Y95.893 E8.8230
G1 X127.452 Y95.474 E8.8609
G1 X128.140 Y95.151 E8.8988
G1 X128.868 Y94.932 E8.9367
G1 X129.616 Y94.822 E8.9745
G1 X130.000 Y94.808 E8.9937
G1 X130.384 Y94.822 E9.0128
G1 X131.132 Y94.932 E9.0506
G1 X131.860 Y95.151 E9.0885
G1 X132.548 Y95.474 E9.1264
G1 X133.182 Y95.893 E9.1643
G1 X133.747 Y96.399 E9.2021
G1 X134.232 Y96.982 E9.2400
G1 X134.627 Y97.629 E9.2778
G1 X134.923 Y98.326 E9.3156
G1 X135.114 Y99.058 E9.3533
G1 X135.197 Y99.811 E9.3911
G1 X135.170 Y100.567 E9.4288
G1 X135.032 Y101.311 E9.4666
G1 X134.787 Y102.028 E9.5044
G1 X134.441 Y102.702 E9.5422
G1 X134.000 Y103.318 E9.5800
G1 X133.474 Y103.864 E9.6178
G1 X132.873 Y104.328 E9.6557
G1 X132.210 Y104.700 E9.6936
G1 X131.500 Y104.971 E9.7315
G1 X130.758 Y105.137 E9.7695
G1 X130.000 Y105.192 E9.8074
G1 X129.297 Y105.141 E9.8426
G1 X128.749 Y105.496
G0 F4800 E8.8426
G0 X126.454 Y104.034 F10800
G0 X125.401 Y102.791
G0 X124.226 Y100.462
G0 F4800 E9.8426
;segType:Infill
G1 X118.100 Y100.462 E10.1482 F5130
G0 X123.647 Y101.734 F10800
G1 X123.647 Y98.266 E10.3212 F5130
G0 X127.359 Y95.322 F10800
G0 X128.826 Y94.761
G0 X130.402 Y94.647
G0 X131.928 Y94.988
G0 X133.297 Y95.756
G0 X134.383 Y96.882
G0 X135.068 Y98.200
G0 X138.340 Y98.266
G1 X138.340 Y101.734 E10.4942 F5130
G0 X141.900 Y100.462 F10800
G1 X135.774 Y100.462 E10.7999 F5130
; ------------------------------------
; Layer #8
; ------------------------------------
G21 ; mm
G90 ; abs
G92 E0 ; reset extr
M106 S255
G0 F4800 E-1.0000
G0 F300 Z4.200
G0 X134.431 Y103.647 F10800
G0 X131.665 Y105.475
G0 X128.335 Y105.475
G0 X125.569 Y103.647
G0 X124.718 Y102.261
G0 X123.116 Y101.925
G0 F4800 E0.0000
;segType:Loop
G1 X117.900 Y101.925 E0.2602 F3420
G1 X117.900 Y98.075 E0.4524
G1 X124.379 Y98.075 E0.7756
G1 X124.902 Y97.019 E0.8344
G1 X125.333 Y96.377 E0.8730
G1 X125.844 Y95.797 E0.9115
G1 X126.424 Y95.289 E0.9500
G1 X127.065 Y94.862 E0.9884
G1 X127.755 Y94.522 E1.0268
G1 X128.482 Y94.275 E1.0651
G1 X129.235 Y94.126 E1.1034
G1 X130.000 Y94.076 E1.1416
G1 X130.765 Y94.126 E1.1799
G1 X131.518 Y94.275 E1.2182
G1 X132.245 Y94.522 E1.2565
G1 X132.935 Y94.862 E1.2949
G1 X133.576 Y95.289 E1.3333
G1 X134.156 Y95.797 E1.3718
G1 X134.667 Y96.377 E1.4103
G1 X135.098 Y97.019 E1.4489
G1 X135.621 Y98.075 E1.5077
G1 X142.100 Y98.075 E1.8309
G1 X142.100 Y101.925 E2.0230
G1 X135.621 Y101.925 E2.3463
G1 X135.098 Y102.981 E2.4051
G1 X134.667 Y103.623 E2.4437
G1 X134.156 Y104.203 E2.4822
G1 X133.576 Y104.711 E2.5207
G1 X132.935 Y105.138 E2.5591
G1 X132.245 Y105.478 E2.5975
G1 X131.518 Y105.725 E2.6358
G1 X130.765 Y105.874 E2.6741
G1 X130.000 Y105.924 E2.7123
G1 X129.235 Y105.874 E2.7506
G1 X128.482 Y105.725 E2.7888
G1 X127.755 Y105.478 E2.8272
G1 X127.065 Y105.138 E2.8655
G1 X126.424 Y104.711 E2.9039
G1 X125.844 Y104.203 E2.9424
G1 X125.333 Y103.623 E2.9810
G1 X124.902 Y102.981 E3.0196
G1 X124.379 Y101.925 E3.0783
G1 X123.300 Y101.925 E3.1322
G0 X123.440 Y102.133 F10800
G0 X124.126 Y102.133
G0 X124.731 Y102.347
;segType:Perimeter
G1 X124.071 Y102.309 E3.1652 F2052
G1 X117.500 Y102.309 E3.4930
G1 X117.500 Y97.692 E3.7234
G1 X124.126 Y97.692 E4.0540
G1 X124.552 Y96.833 E4.1018
G1 X125.011 Y96.149 E4.1429
G1 X125.555 Y95.530 E4.1840
G1 X126.174 Y94.989 E4.2250
G1 X126.858 Y94.532 E4.2660
G1 X127.596 Y94.169 E4.3071
G1 X128.375 Y93.906 E4.3481
G1 X129.180 Y93.746 E4.3890
G1 X130.000 Y93.692 E4.4300
G1 X130.820 Y93.746 E4.4710
G1 X131.625 Y93.906 E4.5120
G1 X132.404 Y94.169 E4.5530
G1 X133.142 Y94.532 E4.5940
G1 X133.826 Y94.989 E4.6351
G1 X134.445 Y95.530 E4.6761
G1 X134.989 Y96.149 E4.7172
G1 X135.448 Y96.833 E4.7583
G1 X135.874 Y97.692 E4.8061
G1 X142.500 Y97.692 E5.1367
G1 X142.500 Y102.309 E5.3670
G1 X135.874 Y102.309 E5.6976
G1 X135.448 Y103.167 E5.7454
G1 X134.989 Y103.851 E5.7865
G1 X134.445 Y104.470 E5.8276
G1 X133.826 Y105.011 E5.8687
G1 X133.142 Y105.468 E5.9097
G1 X132.404 Y105.831 E5.9507
G1 X131.625 Y106.094 E5.9917
G1 X130.820 Y106.254 E6.0327
G1 X130.000 Y106.308 E6.0737
G1 X129.180 Y106.254 E6.1147
G1 X128.375 Y106.094 E6.1557
G1 X127.596 Y105.831 E6.1967
G1 X126.858 Y105.468 E6.2377
G1 X126.174 Y105.011 E6.2787
G1 X125.555 Y104.470 E6.3198
G1 X125.011 Y103.851 E6.3608
G1 X124.552 Y103.167 E6.4019
G1 X124.150 Y102.356 E6.4471
G1 X123.831 Y101.801
G0 X126.436 Y103.893 F10800
G0 X128.121 Y105.239
;segType:Loop
G1 X127.614 Y105.045 E6.4742 F3420
G1 X126.899 Y104.644 E6.5151
G1 X126.252 Y104.145 E6.5558
G1 X125.687 Y103.558 E6.5965
G1 X125.213 Y102.896 E6.6371
G1 X124.841 Y102.173 E6.6777
G1 X124.579 Y101.405 E6.7182
G1 X124.432 Y100.607 E6.7586
G1 X124.402 Y99.797 E6.7991
G1 X124.491 Y98.991 E6.8395
G1 X124.696 Y98.207 E6.8800
G1 X125.014 Y97.459 E6.9205
G1 X125.438 Y96.765 E6.9611
G1 X125.959 Y96.139 E7.0017
G1 X126.567 Y95.594 E7.0425
G1 X127.249 Y95.142 E7.0833
G1 X127.991 Y94.795 E7.1242
G1 X128.777 Y94.558 E7.1651
G1 X129.578 Y94.440 E7.2055
G1 X130.000 Y94.425 E7.2266
G1 X130.422 Y94.440 E7.2476
G1 X131.223 Y94.558 E7.2880
G1 X132.009 Y94.795 E7.3290
G1 X132.751 Y95.142 E7.3699
G1 X133.433 Y95.594 E7.4107
G1 X134.041 Y96.139 E7.4514
G1 X134.562 Y96.765 E7.4921
G1 X134.987 Y97.459 E7.5326
G1 X135.304 Y98.207 E7.5732
G1 X135.509 Y98.991 E7.6136
G1 X135.598 Y99.797 E7.6541
G1 X135.568 Y100.607 E7.6945
G1 X135.421 Y101.405 E7.7350
G1 X135.159 Y102.173 E7.7755
G1 X134.787 Y102.896 E7.8160
G1 X134.314 Y103.558 E7.8566
G1 X133.748 Y104.145 E7.8973
G1 X133.101 Y104.644 E7.9381
G1 X132.386 Y105.045 E7.9789
G1 X131.621 Y105.338 E8.0199
G1 X130.819 Y105.517 E8.0608
G1 X130.000 Y105.576 E8.1018
G1 X129.181 Y105.517 E8.1428
G1 X128.379 Y105.338 E8.1837
G1 X128.291 Y105.304 E8.1884
;segType:Perimeter
G0 X129.599 Y105.621 F10800
G1 X129.188 Y105.125 E8.2206 F2052
G1 X128.500 Y104.971 E8.2558
G1 X127.790 Y104.700 E8.2937
G1 X127.127 Y104.328 E8.3316
G1 X126.527 Y103.864 E8.3695
G1 X126.000 Y103.318 E8.4073
G1 X125.559 Y102.702 E8.4451
G1 X125.213 Y102.028 E8.4829
G1 X124.968 Y101.311 E8.5207
G1 X124.830 Y100.567 E8.5585
G1 X124.803 Y99.811 E8.5962
G1 X124.886 Y99.058 E8.6340
G1 X125.077 Y98.326 E8.6717
G1 X125.373 Y97.629 E8.7095
G1 X125.768 Y96.982 E8.7473
G1 X126.253 Y96.399 E8.7852
G1 X126.818 Y95.893 E8.8230
G1 X127.452 Y95.474 E8.8609
G1 X128.140 Y95.151 E8.8988
G1 X128.868 Y94.932 E8.9367
G1 X129.616 Y94.822 E8.9745
G1 X130.000 Y94.808 E8.9937
G1 X130.384 Y94.822 E9.0128
G1 X131.132 Y94.932 E9.0506
G1 X131.860 Y95.151 E9.0885
G1 X132.548 Y95.474 E9.1264
G1 X133.182 Y95.893 E9.1643
G1 X133.747 Y96.399 E9.2021
G1 X134.232 Y96.982 E9.2400
G1 X134.627 Y97.629 E9.2778
G1 X134.923 Y98.326 E9.3156
G1 X135.114 Y99.058 E9.3533
G1 X135.197 Y99.811 E9.3911
G1 X135.170 Y100.567 E9.4288
G1 X135.032 Y101.311 E9.4666
G1 X134.787 Y102.028 E9.5044
G1 X134.441 Y102.702 E9.5422
G1 X134.000 Y103.318 E9.5800
G1 X133.474 Y103.864 E9.6178
G1 X132.873 Y104.328 E9.6557
G1 X132.210 Y104.700 E9.6936
G1 X131.500 Y104.971 E9.7315
G1 X130.758 Y105.137 E9.7695
G1 X130.000 Y105.192 E9.8074
G1 X129.297 Y105.141 E9.8426
G1 X128.749 Y105.496
G0 F4800 E8.8426
G0 X126.454 Y104.034 F10800
G0 X125.401 Y102.791
G0 X124.226 Y100.462
G0 F4800 E9.8426
;segType:Infill
G1 X118.100 Y100.462 E10.1482 F5130
G0 X123.647 Y101.734 F10800
G1 X123.647 Y98.266 E10.3212 F5130
G0 X127.359 Y95.322 F10800
G0 X128.826 Y94.761
G0 X130.402 Y94.647
G0 X131.928 Y94.988
G0 X133.297 Y95.756
G0 X134.383 Y96.882
G0 X135.068 Y98.200
G0 X138.340 Y98.266
G1 X138.340 Y101.734 E10.4942 F5130
G0 X141.900 Y100.462 F10800
G1 X135.774 Y100.462 E10.7999 F5130
; ------------------------------------
; Layer #9
; ------------------------------------
G21 ; mm
G90 ; abs
G92 E0 ; reset extr
M106 S255
G0 F4800 E-1.0000
G0 F300 Z4.500
G0 X134.431 Y103.647 F10800
G0 X131.665 Y105.475
G0 X128.335 Y105.475
G0 X125.569 Y103.647
G0 X124.718 Y102.261
G0 X123.116 Y101.925
G0 F4800 E0.0000
;segType:Loop
G1 X117.900 Y101.925 E0.2602 F3420
G1 X117.900 Y98.075 E0.4524
G1 X124.379 Y98.075 E0.7756
G1 X124.902 Y97.019 E0.8344
G1 X125.333 Y96.377 E0.8730
G1 X125.844 Y95.797 E0.9115
G1 X126.424 Y95.289 E0.9500
G1 X127.065 Y94.862 E0.9884
G1 X127.755 Y94.522 E1.0268
G1 X128.482 Y94.275 E1.0651
G1 X129.235 Y94.126 E1.1034
G1 X130.000 Y94.076 E1.1416
G1 X130.765 Y94.126 E1.1799
G1 X131.518 Y94.275 E1.2182
G1 X132.245 Y94.522 E1.2565
G1 X132.935 Y94.862 E1.2949
G1 X133.576 Y95.289 E1.3333
G1 X134.156 Y95.797 E1.3718
G1 X134.667 Y96.377 E1.4103
G1 X135.098 Y97.019 E1.4489
G1 X135.621 Y98.075 E1.5077
G1 X142.100 Y98.075 E1.8309
G1 X142.100 Y101.925 E2.0230
G1 X135.621 Y101.925 E2.3463
G1 X135.098 Y102.981 E2.4051
G1 X134.667 Y103.623 E2.4437
G1 X134.156 Y104.203 E2.4822
G1 X133.576 Y104.711 E2.5207
G1 X132.935 Y105.138 E2.5591
G1 X132.245 Y105.478 E2.5975
G1 X131.518 Y105.725 E2.6358
G1 X130.765 Y105.874 E2.6741
G1 X130.000 Y105.924 E2.7123
G1 X129.235 Y105.874 E2.7506
G1 X128.482 Y105.725 E2.7888
G1 X127.755 Y105.478 E2.8272
G1 X127.065 Y105.138 E2.8655
G1 X126.424 Y104.711 E2.9039
G1 X125.844 Y104.203 E2.9424
G1 X125.333 Y103.623 E2.9810
G1 X124.902 Y102.981 E3.0196
G1 X124.379 Y101.925 E3.0783
G1 X123.300 Y101.925 E3.1322
G0 X123.440 Y102.133 F10800
G0 X124.126 Y102.133
G0 X124.731 Y102.347
;segType:Perimeter
G1 X124.071 Y102.309 E3.1652 F2052
G1 X117.500 Y102.309 E3.4930
G1 X117.500 Y97.692 E3.7234
G1 X124.126 Y97.692 E4.0540
G1 X124.552 Y96.833 E4.1018
G1 X125.011 Y96.149 E4.1429
G1 X125.555 Y95.530 E4.1840
G1 X126.174 Y94.989 E4.2250
G1 X126.858 Y94.532 E4.2660
G1 X127.596 Y94.169 E4.3071
G1 X128.375 Y93.906 E4.3481
G1 X129.180 Y93.746 E4.3890
G1 X130.000 Y93.692 E4.4300
G1 X130.820 Y93.746 E4.4710
G1 X131.625 Y93.906 E4.5120
G1 X132.404 Y94.169 E4.5530
G1 X133.142 Y94.532 E4.5940
G1 X133.826 Y94.989 E4.6351
G1 X134.445 Y95.530 E4.6761
G1 X134.989 Y96.149 E4.7172
G1 X135.448 Y96.833 E4.7583
G1 X135.874 Y97.692 E4.8061
G1 X142.500 Y97.692 E5.1367
G1 X142.500 Y102.309 E5.3670
G1 X135.874 Y102.309 E5.6976
G1 X135.448 Y103.167 E5.7454
G1 X134.989 Y103.851 E5.7865
G1 X134.445 Y104.470 E5.8276
G1 X133.826 Y105.011 E5.8687
G1 X133.142 Y105.468 E5.9097
G1 X132.404 Y105.831 E5.9507
G1 X131.625 Y106.094 E5.9917
G1 X130.820 Y106.254 E6.0327
G1 X130.000 Y106.308 E6.0737
G1 X129.180 Y106.254 E6.1147
G1 X128.375 Y106.094 E6.1557
G1 X127.596 Y105.831 E6.1967
G1 X126.858 Y105.468 E6.2377
G1 X126.174 Y105.011 E6.2787
G1 X125.555 Y104.470 E6.3198
G1 X125.011 Y103.851 E6.3608
G1 X124.552 Y103.167 E6.4019
G1 X124.150 Y102.356 E6.4471
G1 X123.831 Y101.801
G0 X126.436 Y103.893 F10800
G0 X128.121 Y105.239
;segType:Loop
G1 X127.614 Y105.045 E6.4742 F3420
G1 X126.899 Y104.644 E6.5151
G1 X126.252 Y104.145 E6.5558
G1 X125.687 Y103.558 E6.5965
G1 X125.213 Y102.896 E6.6371
G1 X124.841 Y102.173 E6.6777
G1 X124.579 Y101.405 E6.7182
G1 X124.432 Y100.607 E6.7586
G1 X124.402 Y99.797 E6.7991
G1 X124.491 Y98.991 E6.8395
G1 X124.696 Y98.207 E6.8800
G1 X125.014 Y97.459 E6.9205
G1 X125.438 Y96.765 E6.9611
G1 X125.959 Y96.139 E7.0017
G1 X126.567 Y95.594 E7.0425
G1 X127.249 Y95.142 E7.0833
G1 X127.991 Y94.795 E7.1242
G1 X128.777 Y94.558 E7.1651
G1 X129.578 Y94.440 E7.2055
G1 X130.000 Y94.425 E7.2266
G1 X130.422 Y94.440 E7.2476
G1 X131.223 Y94.558 E7.2880
G1 X132.009 Y94.795 E7.3290
G1 X132.751 Y95.142 E7.3699
G1 X133.433 Y95.594 E7.4107
G1 X134.041 Y96.139 E7.4514
G1 X134.562 Y96.765 E7.4921
G1 X134.987 Y97.459 E7.5326
G1 X135.304 Y98.207 E7.5732
G1 X135.509 Y98.991 E7.6136
G1 X135.598 Y99.797 E7.6541
G1 X135.568 Y100.607 E7.6945
G1 X135.421 Y101.405 E7.7350
G1 X135.159 Y102.173 E7.7755
G1 X134.787 Y102.896 E7.8160
G1 X134.314 Y103.558 E7.8566
G1 X133.748 Y104.145 E7.8973
G1 X133.101 Y104.644 E7.9381
G1 X132.386 Y105.045 E7.9789
G1 X131.621 Y105.338 E8.0199
G1 X130.819 Y105.517 E8.0608
G1 X130.000 Y105.576 E8.1018
G1 X129.181 Y105.517 E8.1428
G1 X128.379 Y105.338 E8.1837
G1 X128.291 Y105.304 E8.1884
;segType:Perimeter
G0 X129.599 Y105.621 F10800
G1 X129.188 Y105.125 E8.2206 F2052
G1 X128.500 Y104.971 E8.2558
G1 X127.790 Y104.700 E8.2937
G1 X127.127 Y104.328 E8.3316
G1 X126.527 Y103.864 E8.3695
G1 X126.000 Y103.318 E8.4073
G1 X125.559 Y102.702 E8.4451
G1 X125.213 Y102.028 E8.4829
G1 X124.968 Y101.311 E8.5207
G1 X124.830 Y100.567 E8.5585
G1 X124.803 Y99.811 E8.5962
G1 X124.886 Y99.058 E8.6340
G1 X125.077 Y98.326 E8.6717
G1 X125.373 Y97.629 E8.7095
G1 X125.768 Y96.982 E8.7473
G1 X126.253 Y96.399 E8.7852
G1 X126.818 Y95.893 E8.8230
G1 X127.452 Y95.474 E8.8609
G1 X128.140 Y95.151 E8.8988
G1 X128.868 Y94.932 E8.9367
G1 X129.616 Y94.822 E8.9745
G1 X130.000 Y94.808 E8.9937
G1 X130.384 Y94.822 E9.0128
G1 X131.132 Y94.932 E9.0506
G1 X131.860 Y95.151 E9.0885
G1 X132.548 Y95.474 E9.1264
G1 X133.182 Y95.893 E9.1643
G1 X133.747 Y96.399 E9.2021
G1 X134.232 Y96.982 E9.2400
G1 X134.627 Y97.629 E9.2778
G1 X134.923 Y98.326 E9.3156
G1 X135.114 Y99.058 E9.3533
G1 X135.197 Y99.811 E9.3911
G1 X135.170 Y100.567 E9.4288
G1 X135.032 Y101.311 E9.4666
G1 X134.787 Y102.028 E9.5044
G1 X134.441 Y102.702 E9.5422
G1 X134.000 Y103.318 E9.5800
G1 X133.474 Y103.864 E9.6178
G1 X132.873 Y104.328 E9.6557
G1 X132.210 Y104.700 E9.6936
G1 X131.500 Y104.971 E9.7315
G1 X130.758 Y105.137 E9.7695
G1 X130.000 Y105.192 E9.8074
G1 X129.297 Y105.141 E9.8426
G1 X128.749 Y105.496
G0 F4800 E8.8426
G0 X126.454 Y104.034 F10800
G0 X125.401 Y102.791
G0 X124.226 Y100.462
G0 F4800 E9.8426
;segType:Infill
G1 X118.100 Y100.462 E10.1482 F5130
G0 X123.647 Y101.734 F10800
G1 X123.647 Y98.266 E10.3212 F5130
G0 X127.359 Y95.322 F10800
G0 X128.826 Y94.761
G0 X130.402 Y94.647
G0 X131.928 Y94.988
G0 X133.297 Y95.756
G0 X134.383 Y96.882
G0 X135.068 Y98.200
G0 X138.340 Y98.266
G1 X138.340 Y101.734 E10.4942 F5130
G0 X141.900 Y100.462 F10800
G1 X135.774 Y100.462 E10.7999 F5130
; ------------------------------------
; Layer #10
; ------------------------------------
G21 ; mm
G90 ; abs
G92 E0 ; reset extr
M106 S255
G0 F4800 E-1.0000
G0 F300 Z4.800
G0 X134.431 Y103.647 F10800
G0 X131.665 Y105.475
G0 X128.335 Y105.475
G0 X125.569 Y103.647
G0 X124.718 Y102.261
G0 X123.116 Y101.925
G0 F4800 E0.0000
;segType:Loop
G1 X117.900 Y101.925 E0.2602 F3420
G1 X117.900 Y98.075 E0.4524
G1 X124.379 Y98.075 E0.7756
G1 X124.902 Y97.019 E0.8344
G1 X125.333 Y96.377 E0.8730
G1 X125.844 Y95.797 E0.9115
G1 X126.424 Y95.289 E0.9500
G1 X127.065 Y94.862 E0.9884
G1 X127.755 Y94.522 E1.0268
G1 X128.482 Y94.275 E1.0651
G1 X129.235 Y94.126 E1.1034
G1 X130.000 Y94.076 E1.1416
G1 X130.765 Y94.126 E1.1799
G1 X131.518 Y94.275 E1.2182
G1 X132.245 Y94.522 E1.2565
G1 X132.935 Y94.862 E1.2949
G1 X133.576 Y95.289 E1.3333
G1 X134.156 Y95.797 E1.3718
G1 X134.667 Y96.377 E1.4103
G1 X135.098 Y97.019 E1.4489
G1 X135.621 Y98.075 E1.5077
G1 X142.100 Y98.075 E1.8309
G1 X142.100 Y101.925 E2.0230
G1 X135.621 Y101.925 E2.3463
G1 X135.098 Y102.981 E2.4051
G1 X134.667 Y103.623 E2.4437
G1 X134.156 Y104.203 E2.4822
G1 X133.576 Y104.711 E2.5207
G1 X132.935 Y105.138 E2.5591
G1 X132.245 Y105.478 E2.5975
G1 X131.518 Y105.725 E2.6358
G1 X130.765 Y105.874 E2.6741
G1 X130.000 Y105.924 E2.7123
G1 X129.235 Y105.874 E2.7506
G1 X128.482 Y105.725 E2.7888
G1 X127.755 Y105.478 E2.8272
G1 X127.065 Y105.138 E2.8655
G1 X126.424 Y104.711 E2.9039
G1 X125.844 Y104.203 E2.9424
G1 X125.333 Y103.623 E2.9810
G1 X124.902 Y102.981 E3.0196
G1 X124.379 Y101.925 E3.0783
G1 X123.300 Y101.925 E3.1322
G0 X123.440 Y102.133 F10800
G0 X124.126 Y102.133
G0 X124.731 Y102.347
;segType:Perimeter
G1 X124.071 Y102.309 E3.1652 F2052
G1 X117.500 Y102.309 E3.4930
G1 X117.500 Y97.692 E3.7234
G1 X124.126 Y97.692 E4.0540
G1 X124.552 Y96.833 E4.1018
G1 X125.011 Y96.149 E4.1429
G1 X125.555 Y95.530 E4.1840
G1 X126.174 Y94.989 E4.2250
G1 X126.858 Y94.532 E4.2660
G1 X127.596 Y94.169 E4.3071
G1 X128.375 Y93.906 E4.3481
G1 X129.180 Y93.746 E4.3890
G1 X130.000 Y93.692 E4.4300
G1 X130.820 Y93.746 E4.4710
G1 X131.625 Y93.906 E4.5120
G1 X132.404 Y94.169 E4.5530
G1 X133.142 Y94.532 E4.5940
G1 X133.826 Y94.989 E4.6351
G1 X134.445 Y95.530 E4.6761
G1 X134.989 Y96.149 E4.7172
G1 X135.448 Y96.833 E4.7583
G1 X135.874 Y97.692 E4.8061
G1 X142.500 Y97.692 E5.1367
G1 X142.500 Y102.309 E5.3670
G1 X135.874 Y102.309 E5.6976
G1 X135.448 Y103.167 E5.7454
G1 X134.989 Y103.851 E5.7865
G1 X134.445 Y104.470 E5.8276
G1 X133.826 Y105.011 E5.8687
G1 X133.142 Y105.468 E5.9097
G1 X132.404 Y105.831 E5.9507
G1 X131.625 Y106.094 E5.9917
G1 X130.820 Y106.254 E6.0327
G1 X130.000 Y106.308 E6.0737
G1 X129.180 Y106.254 E6.1147
G1 X128.375 Y106.094 E6.1557
G1 X127.596 Y105.831 E6.1967
G1 X126.858 Y105.468 E6.2377
G1 X126.174 Y105.011 E6.2787
G1 X125.555 Y104.470 E6.3198
G1 X125.011 Y103.851 E6.3608
G1 X124.552 Y103.167 E6.4019
G1 X124.150 Y102.356 E6.4471
G1 X123.831 Y101.801
G0 X126.436 Y103.893 F10800
G0 X128.121 Y105.239
;segType:Loop
G1 X127.614 Y105.045 E6.4742 F3420
G1 X126.899 Y104.644 E6.5151
G1 X126.252 Y104.145 E6.5558
G1 X125.687 Y103.558 E6.5965
G1 X125.213 Y102.896 E6.6371
G1 X124.841 Y102.173 E6.6777
G1 X124.579 Y101.405 E6.7182
G1 X124.432 Y100.607 E6.7586
G1 X124.402 Y99.797 E6.7991
G1 X124.491 Y98.991 E6.8395
G1 X124.696 Y98.207 E6.8800
G1 X125.014 Y97.459 E6.9205
G1 X125.438 Y96.765 E6.9611
G1 X125.959 Y96.139 E7.0017
G1 X126.567 Y95.594 E7.0425
G1 X127.249 Y95.142 E7.0833
G1 X127.991 Y94.795 E7.1242
G1 X128.777 Y94.558 E7.1651
G1 X129.578 Y94.440 E7.2055
G1 X130.000 Y94.425 E7.2266
G1 X130.422 Y94.440 E7.2476
G1 X131.223 Y94.558 E7.2880
G1 X132.009 Y94.795 E7.3290
G1 X132.751 Y95.142 E7.3699
G1 X133.433 Y95.594 E7.4107
G1 X134.041 Y96.139 E7.4514
G1 X134.562 Y96.765 E7.4921
G1 X134.987 Y97.459 E7.5326
G1 X135.304 Y98.207 E7.5732
G1 X135.509 Y98.991 E7.6136
G1 X135.598 Y99.797 E7.6541
G1 X135.568 Y100.607 E7.6945
G1 X135.421 Y101.405 E7.7350
G1 X135.159 Y102.173 E7.7755
G1 X134.787 Y102.896 E7.8160
G1 X134.314 Y103.558 E7.8566
G1 X133.748 Y104.145 E7.8973
G1 X133.101 Y104.644 E7.9381
G1 X132.386 Y105.045 E7.9789
G1 X131.621 Y105.338 E8.0199
G1 X130.819 Y105.517 E8.0608
G1 X130.000 Y105.576 E8.1018
G1 X129.181 Y105.517 E8.1428
G1 X128.379 Y105.338 E8.1837
G1 X128.291 Y105.304 E8.1884
;segType:Perimeter
G0 X129.599 Y105.621 F10800
G1 X129.188 Y105.125 E8.2206 F2052
G1 X128.500 Y104.971 E8.2558
G1 X127.790 Y104.700 E8.2937
G1 X127.127 Y104.328 E8.3316
G1 X126.527 Y103.864 E8.3695
G1 X126.000 Y103.318 E8.4073
G1 X125.559 Y102.702 E8.4451
G1 X125.213 Y102.028 E8.4829
G1 X124.968 Y101.311 E8.5207
G1 X124.830 Y100.567 E8.5585
G1 X124.803 Y99.811 E8.5962
G1 X124.886 Y99.058 E8.6340
G1 X125.077 Y98.326 E8.6717
G1 X125.373 Y97.629 E8.7095
G1 X125.768 Y96.982 E8.7473
G1 X126.253 Y96.399 E8.7852
G1 X126.818 Y95.893 E8.8230
G1 X127.452 Y95.474 E8.8609
G1 X128.140 Y95.151 E8.8988
G1 X128.868 Y94.932 E8.9367
G1 X129.616 Y94.822 E8.9745
G1 X130.000 Y94.808 E8.9937
G1 X130.384 Y94.822 E9.0128
G1 X131.132 Y94.932 E9.0506
G1 X131.860 Y95.151 E9.0885
G1 X132.548 Y95.474 E9.1264
G1 X133.182 Y95.893 E9.1643
G1 X133.747 Y96.399 E9.2021
G1 X134.232 Y96.982 E9.2400
G1 X134.627 Y97.629 E9.2778
G1 X134.923 Y98.326 E9.3156
G1 X135.114 Y99.058 E9.3533
G1 X135.197 Y99.811 E9.3911
G1 X135.170 Y100.567 E9.4288
G1 X135.032 Y101.311 E9.4666
G1 X134.787 Y102.028 E9.5044
G1 X134.441 Y102.702 E9.5422
G1 X134.000 Y103.318 E9.5800
G1 X133.474 Y103.864 E9.6178
G1 X132.873 Y104.328 E9.6557
G1 X132.210 Y104.700 E9.6936
G1 X131.500 Y104.971 E9.7315
G1 X130.758 Y105.137 E9.7695
G1 X130.000 Y105.192 E9.8074
G1 X129.297 Y105.141 E9.8426
G1 X128.749 Y105.496
G0 F4800 E8.8426
G0 X126.454 Y104.034 F10800
G0 X125.401 Y102.791
G0 X124.226 Y100.462
G0 F4800 E9.8426
;segType:Infill
G1 X118.100 Y100.462 E10.1482 F5130
G0 X123.647 Y101.734 F10800
G1 X123.647 Y98.266 E10.3212 F5130
G0 X127.359 Y95.322 F10800
G0 X128.826 Y94.761
G0 X130.402 Y94.647
G0 X131.928 Y94.988
G0 X133.297 Y95.756
G0 X134.383 Y96.882
G0 X135.068 Y98.200
G0 X138.340 Y98.266
G1 X138.340 Y101.734 E10.4942 F5130
G0 X141.900 Y100.462 F10800
G1 X135.774 Y100.462 E10.7999 F5130
; ------------------------------------
; Layer #11
; ------------------------------------
G21 ; mm
G90 ; abs
G92 E0 ; reset extr
M106 S255
G0 F4800 E-1.0000
G0 F300 Z5.100
G0 X134.431 Y103.647 F10800
G0 X131.665 Y105.475
G0 X128.335 Y105.475
G0 X125.569 Y103.647
G0 X124.718 Y102.261
G0 X123.116 Y101.925
G0 F4800 E0.0000
;segType:Loop
G1 X117.900 Y101.925 E0.2602 F3420
G1 X117.900 Y98.075 E0.4524
G1 X124.379 Y98.075 E0.7756
G1 X124.902 Y97.019 E0.8344
G1 X125.333 Y96.377 E0.8730
G1 X125.844 Y95.797 E0.9115
G1 X126.424 Y95.289 E0.9500
G1 X127.065 Y94.862 E0.9884
G1 X127.755 Y94.522 E1.0268
G1 X128.482 Y94.275 E1.0651
G1 X129.235 Y94.126 E1.1034
G1 X130.000 Y94.076 E1.1416
G1 X130.765 Y94.126 E1.1799
G1 X131.518 Y94.275 E1.2182
G1 X132.245 Y94.522 E1.2565
G1 X132.935 Y94.862 E1.2949
G1 X133.576 Y95.289 E1.3333
G1 X134.156 Y95.797 E1.3718
G1 X134.667 Y96.377 E1.4103
G1 X135.098 Y97.019 E1.4489
G1 X135.621 Y98.075 E1.5077
G1 X142.100 Y98.075 E1.8309
G1 X142.100 Y101.925 E2.0230
G1 X135.621 Y101.925 E2.3463
G1 X135.098 Y102.981 E2.4051
G1 X134.667 Y103.623 E2.4437
G1 X134.156 Y104.203 E2.4822
G1 X133.576 Y104.711 E2.5207
G1 X132.935 Y105.138 E2.5591
G1 X132.245 Y105.478 E2.5975
G1 X131.518 Y105.725 E2.6358
G1 X130.765 Y105.874 E2.6741
G1 X130.000 Y105.924 E2.7123
G1 X129.235 Y105.874 E2.7506
G1 X128.482 Y105.725 E2.7888
G1 X127.755 Y105.478 E2.8272
G1 X127.065 Y105.138 E2.8655
G1 X126.424 Y104.711 E2.9039
G1 X125.844 Y104.203 E2.9424
G1 X125.333 Y103.623 E2.9810
G1 X124.902 Y102.981 E3.0196
G1 X124.379 Y101.925 E3.0783
G1 X123.300 Y101.925 E3.1322
G0 X123.440 Y102.133 F10800
G0 X124.126 Y102.133
G0 X124.731 Y102.347
;segType:Perimeter
G1 X124.071 Y102.309 E3.1652 F2052
G1 X117.500 Y102.309 E3.4930
G1 X117.500 Y97.692 E3.7234
G1 X124.126 Y97.692 E4.0540
G1 X124.552 Y96.833 E4.1018
G1 X125.011 Y96.149 E4.1429
G1 X125.555 Y95.530 E4.1840
G1 X126.174 Y94.989 E4.2250
G1 X126.858 Y94.532 E4.2660
G1 X127.596 Y94.169 E4.3071
G1 X128.375 Y93.906 E4.3481
G1 X129.180 Y93.746 E4.3890
G1 X130.000 Y93.692 E4.4300
G1 X130.820 Y93.746 E4.4710
G1 X131.625 Y93.906 E4.5120
G1 X132.404 Y94.169 E4.5530
G1 X133.142 Y94.532 E4.5940
G1 X133.826 Y94.989 E4.6351
G1 X134.445 Y95.530 E4.6761
G1 X134.989 Y96.149 E4.7172
G1 X135.448 Y96.833 E4.7583
G1 X135.874 Y97.692 E4.8061
G1 X142.500 Y97.692 E5.1367
G1 X142.500 Y102.309 E5.3670
G1 X135.874 Y102.309 E5.6976
G1 X135.448 Y103.167 E5.7454
G1 X134.989 Y103.851 E5.7865
G1 X134.445 Y104.470 E5.8276
G1 X133.826 Y105.011 E5.8687
G1 X133.142 Y105.468 E5.9097
G1 X132.404 Y105.831 E5.9507
G1 X131.625 Y106.094 E5.9917
G1 X130.820 Y106.254 E6.0327
G1 X130.000 Y106.308 E6.0737
G1 X129.180 Y106.254 E6.1147
G1 X128.375 Y106.094 E6.1557
G1 X127.596 Y105.831 E6.1967
G1 X126.858 Y105.468 E6.2377
G1 X126.174 Y105.011 E6.2787
G1 X125.555 Y104.470 E6.3198
G1 X125.011 Y103.851 E6.3608
G1 X124.552 Y103.167 E6.4019
G1 X124.150 Y102.356 E6.4471
G1 X123.831 Y101.801
G0 X126.436 Y103.893 F10800
G0 X128.121 Y105.239
;segType:Loop
G1 X127.614 Y105.045 E6.4742 F3420
G1 X126.899 Y104.644 E6.5151
G1 X126.252 Y104.145 E6.5558
G1 X125.687 Y103.558 E6.5965
G1 X125.213 Y102.896 E6.6371
G1 X124.841 Y102.173 E6.6777
G1 X124.579 Y101.405 E6.7182
G1 X124.432 Y100.607 E6.7586
G1 X124.402 Y99.797 E6.7991
G1 X124.491 Y98.991 E6.8395
G1 X124.696 Y98.207 E6.8800
G1 X125.014 Y97.459 E6.9205
G1 X125.438 Y96.765 E6.9611
G1 X125.959 Y96.139 E7.0017
G1 X126.567 Y95.594 E7.0425
G1 X127.249 Y95.142 E7.0833
G1 X127.991 Y94.795 E7.1242
G1 X128.777 Y94.558 E7.1651
G1 X129.578 Y94.440 E7.2055
G1 X130.000 Y94.425 E7.2266
G1 X130.422 Y94.440 E7.2476
G1 X131.223 Y94.558 E7.2880
G1 X132.009 Y94.795 E7.3290
G1 X132.751 Y95.142 E7.3699
G1 X133.433 Y95.594 E7.4107
G1 X134.041 Y96.139 E7.4514
G1 X134.562 Y96.765 E7.4921
G1 X134.987 Y97.459 E7.5326
G1 X135.304 Y98.207 E7.5732
G1 X135.509 Y98.991 E7.6136
G1 X135.598 Y99.797 E7.6541
G1 X135.568 Y100.607 E7.6945
G1 X135.421 Y101.405 E7.7350
G1 X135.159 Y102.173 E7.7755
G1 X134.787 Y102.896 E7.8160
G1 X134.314 Y103.558 E7.8566
G1 X133.748 Y104.145 E7.8973
G1 X133.101 Y104.644 E7.9381
G1 X132.386 Y105.045 E7.9789
G1 X131.621 Y105.338 E8.0199
G1 X130.819 Y105.517 E8.0608
G1 X130.000 Y105.576 E8.1018
G1 X129.181 Y105.517 E8.1428
G1 X128.379 Y105.338 E8.1837
G1 X128.291 Y105.304 E8.1884
;segType:Perimeter
G0 X129.599 Y105.621 F10800
G1 X129.188 Y105.125 E8.2206 F2052
G1 X128.500 Y104.971 E8.2558
G1 X127.790 Y104.700 E8.2937
G1 X127.127 Y104.328 E8.3316
G1 X126.527 Y103.864 E8.3695
G1 X126.000 Y103.318 E8.4073
G1 X125.559 Y102.702 E8.4451
G1 X125.213 Y102.028 E8.4829
G1 X124.968 Y101.311 E8.5207
G1 X124.830 Y100.567 E8.5585
G1 X124.803 Y99.811 E8.5962
G1 X124.886 Y99.058 E8.6340
G1 X125.077 Y98.326 E8.6717
G1 X125.373 Y97.629 E8.7095
G1 X125.768 Y96.982 E8.7473
G1 X126.253 Y96.399 E8.7852
G1 X126.818 Y95.893 E8.8230
G1 X127.452 Y95.474 E8.8609
G1 X128.140 Y95.151 E8.8988
G1 X128.868 Y94.932 E8.9367
G1 X129.616 Y94.822 E8.9745
G1 X130.000 Y94.808 E8.9937
G1 X130.384 Y94.822 E9.0128
G1 X131.132 Y94.932 E9.0506
G1 X131.860 Y95.151 E9.0885
G1 X132.548 Y95.474 E9.1264
G1 X133.182 Y95.893 E9.1643
G1 X133.747 Y96.399 E9.2021
G1 X134.232 Y96.982 E9.2400
G1 X134.627 Y97.629 E9.2778
G1 X134.923 Y98.326 E9.3156
G1 X135.114 Y99.058 E9.3533
G1 X135.197 Y99.811 E9.3911
G1 X135.170 Y100.567 E9.4288
G1 X135.032 Y101.311 E9.4666
G1 X134.787 Y102.028 E9.5044
G1 X134.441 Y102.702 E9.5422
G1 X134.000 Y103.318 E9.5800
G1 X133.474 Y103.864 E9.6178
G1 X132.873 Y104.328 E9.6557
G1 X132.210 Y104.700 E9.6936
G1 X131.500 Y104.971 E9.7315
G1 X130.758 Y105.137 E9.7695
G1 X130.000 Y105.192 E9.8074
G1 X129.297 Y105.141 E9.8426
G1 X128.749 Y105.496
G0 F4800 E8.8426
G0 X126.454 Y104.034 F10800
G0 X125.401 Y102.791
G0 X124.226 Y100.462
G0 F4800 E9.8426
;segType:Infill
G1 X118.100 Y100.462 E10.1482 F5130
G0 X123.647 Y101.734 F10800
G1 X123.647 Y98.266 E10.3212 F5130
G0 X127.359 Y95.322 F10800
G0 X128.826 Y94.761
G0 X130.402 Y94.647
G0 X131.928 Y94.988
G0 X133.297 Y95.756
G0 X134.383 Y96.882
G0 X135.068 Y98.200
G0 X138.340 Y98.266
G1 X138.340 Y101.734 E10.4942 F5130
G0 X141.900 Y100.462 F10800
G1 X135.774 Y100.462 E10.7999 F5130
; ------------------------------------
; Layer #12
; ------------------------------------
G21 ; mm
G90 ; abs
G92 E0 ; reset extr
M106 S255
G0 F4800 E-1.0000
G0 F300 Z5.400
G0 X134.431 Y103.647 F10800
G0 X131.665 Y105.475
G0 X128.335 Y105.475
G0 X125.569 Y103.647
G0 X124.718 Y102.261
G0 X123.116 Y101.925
G0 F4800 E0.0000
;segType:Loop
G1 X117.900 Y101.925 E0.2602 F3420
G1 X117.900 Y98.075 E0.4524
G1 X124.379 Y98.075 E0.7756
G1 X124.902 Y97.019 E0.8344
G1 X125.333 Y96.377 E0.8730
