; GCode generated by CraftWare

G28 X0 Y0
G28 Z0

M104 S220 ;set head temp (no wait)
M190 S70 ;set bed temp (wait)
M109 S220 ;set head temp (wait)
; ------------------------------------
; Layer #0
; ------------------------------------
M106 S0 ;turn off fan
G21 ; mm
G90 ; abs
G92 E0 ;reset extr
G0 F1200 Z0.200
;segType:Skirt
G0 F4800 E-1.0000
G0 X112.621 Y109.020 F5400
G0 F4800 E0.0000
G1 X115.653 Y112.051 E0.1426 F2400
G1 X140.772 Y112.051 E0.9780
G1 X141.143 Y111.927 E0.9911
G1 X142.133 Y110.937 E1.0376
G1 X142.256 Y110.566 E1.0506
G1 X143.741 Y109.081 E1.1205
G1 X143.803 Y108.153 E1.1514
G1 X143.803 Y103.204 E1.3160
G1 X143.865 Y103.018 E1.3225
G1 X147.825 Y103.018 E1.4542
G1 X148.381 Y102.585 E1.4777
G1 X148.876 Y102.090 E1.5010
G1 X149.000 Y101.719 E1.5140
G1 X149.000 Y98.254 E1.6292
G1 X148.010 Y97.264 E1.6758
G1 X147.082 Y97.203 E1.7067
G1 X143.865 Y97.203 E1.8137
G1 X143.803 Y96.275 E1.8447
G1 X143.803 Y91.325 E2.0093
G1 X143.679 Y90.954 E2.0223
G1 X140.709 Y87.984 E2.1620
G1 X139.782 Y87.922 E2.1929
G1 X116.024 Y87.922 E2.9831
G1 X115.344 Y88.232 E3.0079
G1 X114.354 Y89.221 E3.0545
G1 X113.920 Y89.779 E3.0780
G1 X112.683 Y91.016 E3.1362
G1 X112.621 Y91.944 E3.1671
G1 X112.621 Y97.141 E3.3400
G1 X111.693 Y97.203 E3.3709
G1 X108.723 Y97.203 E3.4697
G1 X107.733 Y98.193 E3.5162
G1 X107.548 Y98.502 E3.5282
G1 X107.548 Y101.966 E3.6435
G1 X108.538 Y102.956 E3.6900
G1 X109.466 Y103.018 E3.7210
G1 X112.436 Y103.018 E3.8197
G1 X112.621 Y103.080 E3.8262
G1 X112.621 Y109.020 E4.0238
G0 X112.250 Y108.772 F5400
G1 X112.374 Y109.143 E4.0368 F2400
G1 X115.653 Y112.422 E4.1910
G1 X140.772 Y112.422 E5.0265
G1 X141.143 Y112.298 E5.0395
G1 X142.133 Y111.308 E5.0861
G1 X142.999 Y110.195 E5.1330
G1 X143.989 Y109.205 E5.1796
G1 X144.174 Y108.896 E5.1915
G1 X144.174 Y103.451 E5.3726
G1 X145.102 Y103.389 E5.4036
G1 X147.082 Y103.389 E5.4694
G1 X148.010 Y103.328 E5.5003
G1 X149.247 Y102.090 E5.5585
G1 X149.371 Y101.719 E5.5716
G1 X149.371 Y98.254 E5.6868
G1 X148.381 Y97.264 E5.7334
G1 X147.825 Y96.832 E5.7568
G1 X144.855 Y96.832 E5.8556
G1 X144.174 Y96.769 E5.8783
G1 X144.174 Y91.325 E6.0594
G1 X144.050 Y90.954 E6.0724
G1 X141.081 Y87.984 E6.2121
G1 X140.524 Y87.551 E6.2356
G1 X115.776 Y87.551 E7.0587
G1 X115.220 Y87.984 E7.0821
G1 X114.230 Y88.974 E7.1287
G1 X113.797 Y89.531 E7.1522
G1 X112.312 Y91.016 E7.2220
G1 X112.250 Y91.944 E7.2529
G1 X112.250 Y95.903 E7.3846
G1 X112.188 Y96.832 E7.4156
G1 X108.723 Y96.832 E7.5308
G1 X107.239 Y98.316 E7.6006
G1 X107.177 Y99.244 E7.6316
G1 X107.177 Y101.719 E7.7139
G1 X107.301 Y102.090 E7.7269
G1 X107.564 Y102.354 E7.7393
G0 F4800 E6.7393
G0 X139.664 Y99.738 F5400
G0 X142.134 Y99.536
G0 X147.072 Y99.134
G0 F4800 E7.7393
;segType:Support
G1 X145.272 Y99.134 E7.7902 F3600
G1 X145.073 Y99.169 E7.7959
G1 X143.273 Y99.169 E7.8468
G1 X142.960 Y99.187 E7.8557
G1 X141.160 Y99.187 E7.9065
G1 X141.060 Y99.207 E7.9094
G1 X140.246 Y99.207 E7.9324
G1 X140.246 Y101.007 E7.9833
G1 X141.060 Y101.007 E8.0063
G1 X141.160 Y100.987 E8.0092
G1 X142.960 Y100.987 E8.0601
G1 X143.273 Y100.969 E8.0690
G1 X145.073 Y100.969 E8.1199
G1 X145.272 Y100.934 E8.1256
G1 X147.072 Y100.934 E8.1765
G0 F4800 E7.1765
G0 X140.216 Y109.928 F5400
G0 F4800 E8.1765
G1 X138.416 Y109.928 E8.2274 F3600
G1 X138.143 Y109.844 E8.2354
G1 X136.343 Y109.844 E8.2863
G1 X135.843 Y109.868 E8.3005
G1 X134.043 Y109.868 E8.3514
G1 X133.461 Y109.853 E8.3678
G1 X131.661 Y109.853 E8.4187
G1 X131.262 Y109.809 E8.4301
G1 X129.462 Y109.809 E8.4809
G1 X129.091 Y109.728 E8.4917
G1 X127.291 Y109.728 E8.5426
G1 X126.821 Y109.950 E8.5573
G1 X125.021 Y109.950 E8.6082
G1 X124.491 Y109.874 E8.6233
G1 X122.691 Y109.874 E8.6742
G1 X122.303 Y109.763 E8.6856
G1 X120.503 Y109.763 E8.7365
G1 X120.243 Y109.919 E8.7451
G1 X118.443 Y109.919 E8.7960
G1 X118.212 Y109.813 E8.8031
G1 X116.412 Y109.813 E8.8540
G0 F4800 E7.8540
G0 X109.603 Y100.983 F5400
G0 F4800 E8.8540
G1 X111.403 Y100.983 E8.9049 F3600
G1 X111.147 Y100.961 E8.9122
G1 X112.947 Y100.961 E8.9630
G1 X113.116 Y100.947 E8.9678
G1 X114.916 Y100.947 E9.0187
G1 X115.262 Y100.895 E9.0286
G1 X116.288 Y100.895 E9.0576
G1 X116.288 Y99.095 E9.1085
G1 X115.262 Y99.095 E9.1375
G1 X114.916 Y99.147 E9.1474
G1 X113.116 Y99.147 E9.1983
G1 X112.947 Y99.161 E9.2031
G1 X111.147 Y99.161 E9.2540
G1 X111.403 Y99.183 E9.2612
G1 X109.603 Y99.183 E9.3121
G0 F4800 E8.3121
G0 X116.351 Y90.047 F5400
G0 F4800 E9.3121
G1 X118.151 Y90.047 E9.3630 F3600
G1 X120.359 Y90.073 E9.4254
G1 X124.309 Y90.078 E9.5371
G1 X124.617 Y90.040 E9.5458
G1 X126.417 Y90.040 E9.5967
G1 X126.912 Y90.023 E9.6107
G1 X128.712 Y90.023 E9.6616
G1 X129.297 Y90.040 E9.6782
G1 X131.097 Y90.040 E9.7290
G1 X131.402 Y90.078 E9.7377
G1 X135.340 Y90.079 E9.8491
G1 X135.766 Y90.049 E9.8611
G1 X137.566 Y90.049 E9.9120
G1 X137.857 Y90.095 E9.9204
G1 X139.657 Y90.095 E9.9713
;segType:HShell
G0 F4800 E8.9713
G0 X124.960 Y93.277 F5400
G0 F4800 E9.9713
G1 X138.406 Y106.723 E10.6037 F2400
;segType:Perimeter
G0 X139.379 Y107.110 F5400
G1 X139.586 Y107.883 E10.6303 F1439
G1 X116.893 Y107.883 E11.3851
G1 X116.888 Y107.180 E11.4085
G1 X116.888 Y92.157 E11.9081
G1 X118.906 Y92.117 E11.9753
G1 X139.640 Y92.117 E12.6649
G1 X139.645 Y92.894 E12.6908
G1 X139.646 Y93.008 E12.6946
G1 X139.646 Y107.823 E13.1873
G0 X138.873 Y107.616 F5400
;segType:Loop
G0 X138.546 Y107.483
G1 X117.290 Y107.483 E13.8942 F2400
G1 X117.288 Y107.180 E13.9043
G1 X117.288 Y92.549 E14.3910
G1 X118.910 Y92.517 E14.4449
G1 X139.243 Y92.517 E15.1212
G1 X139.246 Y93.008 E15.1375
G1 X139.246 Y107.483 E15.6190
G1 X138.746 Y107.483 E15.6356
G0 X137.446 Y107.083 F5400
G1 X117.733 Y107.083 E16.2912 F2400
G1 X117.688 Y107.066 E16.2929
G1 X117.688 Y92.941 E16.7626
G1 X118.914 Y92.917 E16.8034
G1 X138.845 Y92.917 E17.4663
G1 X138.846 Y93.123 E17.4732
G1 X138.846 Y107.083 E17.9375
G1 X137.646 Y107.083 E17.9774
;segType:HShell
G0 X137.840 Y106.723 F5400
G1 X124.394 Y93.277 E18.6099 F2400
G0 X123.828 Y93.277 F5400
G1 X137.275 Y106.723 E19.2423 F2400
G0 X136.709 Y106.723 F5400
G1 X123.263 Y93.277 E19.8748 F2400
G0 X122.697 Y93.277 F5400
G1 X136.143 Y106.723 E20.5073 F2400
G0 X135.577 Y106.723 F5400
G1 X122.131 Y93.277 E21.1397 F2400
G0 X121.566 Y93.277 F5400
G1 X135.012 Y106.723 E21.7722 F2400
G0 X134.446 Y106.723 F5400
G1 X121.000 Y93.277 E22.4047 F2400
G0 X120.434 Y93.277 F5400
G1 X133.880 Y106.723 E23.0371 F2400
G0 X133.315 Y106.723 F5400
G1 X119.869 Y93.277 E23.6696 F2400
G0 X119.303 Y93.277 F5400
G1 X132.749 Y106.723 E24.3021 F2400
G0 X132.183 Y106.723 F5400
G1 X118.741 Y93.280 E24.9344 F2400
G0 X118.186 Y93.291 F5400
G1 X131.618 Y106.723 E25.5661 F2400
G0 X131.052 Y106.723 F5400
G1 X118.048 Y93.719 E26.1778 F2400
G0 X118.048 Y94.285 F5400
G1 X130.486 Y106.723 E26.7629 F2400
G0 X129.921 Y106.723 F5400
G1 X118.048 Y94.851 E27.3213 F2400
G0 X118.048 Y95.416 F5400
G1 X129.355 Y106.723 E27.8531 F2400
G0 X128.789 Y106.723 F5400
G1 X118.048 Y95.982 E28.3584 F2400
G0 X118.048 Y96.548 F5400
G1 X128.224 Y106.723 E28.8370 F2400
G0 X127.658 Y106.723 F5400
G1 X118.048 Y97.113 E29.2890 F2400
G0 X118.048 Y97.679 F5400
G1 X127.092 Y106.723 E29.7144 F2400
G0 X126.526 Y106.723 F5400
G1 X118.048 Y98.245 E30.1132 F2400
G0 X118.048 Y98.810 F5400
G1 X125.961 Y106.723 E30.4854 F2400
G0 X125.395 Y106.723 F5400
G1 X118.048 Y99.376 E30.8310 F2400
G0 X118.048 Y99.942 F5400
G1 X124.829 Y106.723 E31.1499 F2400
G0 X124.264 Y106.723 F5400
G1 X118.048 Y100.507 E31.4423 F2400
G0 X118.048 Y101.073 F5400
G1 X123.698 Y106.723 E31.7081 F2400
G0 X123.132 Y106.723 F5400
G1 X118.048 Y101.639 E31.9472 F2400
G0 X118.048 Y102.204 F5400
G1 X122.567 Y106.723 E32.1598 F2400
G0 X122.001 Y106.723 F5400
G1 X118.048 Y102.770 E32.3457 F2400
G0 X118.048 Y103.336 F5400
G1 X121.435 Y106.723 E32.5050 F2400
G0 X120.870 Y106.723 F5400
G1 X118.048 Y103.901 E32.6377 F2400
G0 X118.048 Y104.467 F5400
G1 X120.304 Y106.723 E32.7438 F2400
G0 X119.738 Y106.723 F5400
G1 X118.048 Y105.033 E32.8233 F2400
G0 X118.048 Y105.599 F5400
G1 X119.173 Y106.723 E32.8762 F2400
G0 X118.607 Y106.723 F5400
G1 X118.048 Y106.164 E32.9025 F2400
G0 X125.525 Y93.277 F5400
G1 X138.485 Y106.237 E33.5121 F2400
G0 X138.485 Y105.671 F5400
G1 X126.091 Y93.277 E34.0951 F2400
G0 X126.657 Y93.277 F5400
G1 X138.485 Y105.105 E34.6515 F2400
G0 X138.485 Y104.540 F5400
G1 X127.223 Y93.277 E35.1812 F2400
G0 X127.788 Y93.277 F5400
G1 X138.485 Y103.974 E35.6844 F2400
G0 X138.485 Y103.408 F5400
G1 X128.354 Y93.277 E36.1610 F2400
G0 X128.920 Y93.277 F5400
G1 X138.485 Y102.843 E36.6109 F2400
G0 X138.485 Y102.277 F5400
G1 X129.485 Y93.277 E37.0342 F2400
G0 X130.051 Y93.277 F5400
G1 X138.485 Y101.711 E37.4310 F2400
G0 X138.485 Y101.145 F5400
G1 X130.617 Y93.277 E37.8011 F2400
G0 X131.182 Y93.277 F5400
G1 X138.485 Y100.580 E38.1446 F2400
G0 X138.485 Y100.014 F5400
G1 X131.748 Y93.277 E38.4615 F2400
G0 X132.314 Y93.277 F5400
G1 X138.485 Y99.448 E38.7518 F2400
G0 X138.485 Y98.883 F5400
G1 X132.879 Y93.277 E39.0154 F2400
G0 X133.445 Y93.277 F5400
G1 X138.485 Y98.317 E39.2525 F2400
G0 X138.485 Y97.751 F5400
G1 X134.011 Y93.277 E39.4630 F2400
G0 X134.576 Y93.277 F5400
G1 X138.485 Y97.186 E39.6468 F2400
G0 X138.485 Y96.620 F5400
G1 X135.142 Y93.277 E39.8041 F2400
G0 X135.708 Y93.277 F5400
G1 X138.485 Y96.054 E39.9347 F2400
G0 X138.485 Y95.488 F5400
G1 X136.273 Y93.277 E40.0387 F2400
G0 X136.839 Y93.277 F5400
G1 X138.485 Y94.923 E40.1161 F2400
G0 X138.485 Y94.357 F5400
G1 X137.405 Y93.277 E40.1669 F2400
G0 X137.971 Y93.277 F5400
G1 X138.485 Y93.791 E40.1911 F2400
; ------------------------------------
; Layer #1
; ------------------------------------
M106 S0 ;turn off fan
G21 ; mm
G90 ; abs
G92 E0 ;reset extr
G0 F4800 E-1.0000
G0 F1200 Z0.400
G0 X139.977 Y95.590 F7200
G0 X142.960 Y99.187
G0 F4800 E0.0000
;segType:SupportTouch
G1 X142.960 Y100.987 E0.0509 F5400
G1 X141.160 Y100.987 E0.1018
G1 X141.160 Y99.187 E0.1527
G1 X142.960 Y99.187 E0.2036
G0 X145.073 Y99.169 F7200
G1 X145.073 Y100.969 E0.2544 F5400
G1 X143.273 Y100.969 E0.3053
G1 X143.273 Y99.169 E0.3562
G1 X145.073 Y99.169 E0.4071
G0 X147.072 Y99.134 F7200
G1 X145.272 Y99.134 E0.4580 F5400
G1 X145.272 Y100.934 E0.5089
G1 X147.072 Y100.934 E0.5598
G1 X147.072 Y99.134 E0.6107
;segType:Support
G0 F4800 E-0.3893
G0 X139.657 Y90.095 F7200
G0 F4800 E0.6107
G1 X137.857 Y90.095 E0.6615 F5400
G1 X137.566 Y90.049 E0.6699
G1 X135.766 Y90.049 E0.7208
G1 X135.340 Y90.079 E0.7328
G1 X131.402 Y90.078 E0.8442
G1 X131.097 Y90.040 E0.8529
G1 X129.297 Y90.040 E0.9038
G1 X128.712 Y90.023 E0.9203
G1 X126.912 Y90.023 E0.9712
G1 X126.417 Y90.040 E0.9852
G1 X124.617 Y90.040 E1.0361
G1 X124.309 Y90.078 E1.0448
G1 X120.359 Y90.073 E1.1565
G1 X118.151 Y90.047 E1.2189
G1 X116.351 Y90.047 E1.2698
;segType:SupportTouch
G0 F4800 E0.2698
G0 X114.916 Y99.147 F7200
G0 F4800 E1.2698
G1 X113.116 Y99.147 E1.3207 F5400
G1 X113.116 Y100.947 E1.3716
G1 X114.916 Y100.947 E1.4225
G1 X114.916 Y99.147 E1.4734
G0 X111.403 Y99.183 F7200
G1 X109.603 Y99.183 E1.5243 F5400
G1 X109.603 Y100.983 E1.5751
G1 X111.403 Y100.983 E1.6260
G1 X111.403 Y99.183 E1.6769
G0 X112.947 Y99.161 F7200
G1 X112.947 Y100.961 E1.7278 F5400
G1 X111.147 Y100.961 E1.7787
G1 X111.147 Y99.161 E1.8296
G1 X112.947 Y99.161 E1.8805
G0 X116.288 Y99.095 F7200
G1 X115.262 Y99.095 E1.9095 F5400
G1 X115.262 Y100.895 E1.9604
G1 X116.288 Y100.895 E1.9894
;segType:Support
G0 F4800 E0.9894
G0 X116.412 Y109.813 F7200
G0 F4800 E1.9894
G1 X118.212 Y109.813 E2.0402 F5400
G1 X118.443 Y109.919 E2.0474
G1 X120.243 Y109.919 E2.0983
G1 X120.503 Y109.763 E2.1069
G1 X122.303 Y109.763 E2.1578
G1 X122.691 Y109.874 E2.1692
G1 X124.491 Y109.874 E2.2201
G1 X125.021 Y109.950 E2.2352
G1 X126.821 Y109.950 E2.2861
G1 X127.291 Y109.728 E2.3008
G1 X129.091 Y109.728 E2.3517
G1 X129.462 Y109.809 E2.3624
G1 X131.262 Y109.809 E2.4133
G1 X131.661 Y109.853 E2.4247
G1 X133.461 Y109.853 E2.4756
G1 X134.043 Y109.868 E2.4920
G1 X135.843 Y109.868 E2.5429
G1 X136.343 Y109.844 E2.5570
G1 X138.143 Y109.844 E2.6079
G1 X138.416 Y109.928 E2.6160
G1 X140.216 Y109.928 E2.6669
;segType:HShell
G0 F4800 E1.6669
G0 X135.680 Y106.723 F7200
G0 F4800 E2.6669
G1 X138.485 Y103.918 E2.7989 F3600
G0 X138.485 Y104.483 F7200
G1 X136.246 Y106.723 E2.9042 F3600
G0 X136.812 Y106.723 F7200
G1 X138.485 Y105.049 E2.9829 F3600
G0 X138.485 Y105.615 F7200
G1 X137.377 Y106.723 E3.0351 F3600
G0 X137.943 Y106.723 F7200
G1 X138.485 Y106.180 E3.0606 F3600
;segType:Perimeter
G0 X139.379 Y107.110 F7200
G1 X139.586 Y107.883 E3.0872 F2159
G1 X116.897 Y107.883 E3.8418
G1 X116.888 Y107.712 E3.8475
G1 X116.888 Y92.117 E4.3662
G1 X139.630 Y92.117 E5.1226
G1 X139.646 Y92.876 E5.1479
G1 X139.646 Y107.823 E5.6450
G0 X138.873 Y107.616 F7200
;segType:Loop
G0 X138.546 Y107.483
G1 X117.390 Y107.483 E6.3486 F3600
G1 X117.288 Y107.408 E6.3528
G1 X117.288 Y92.517 E6.8481
G1 X139.238 Y92.517 E7.5782
G1 X139.246 Y92.881 E7.5903
G1 X139.246 Y107.483 E8.0760
G1 X138.746 Y107.483 E8.0926
G0 X137.446 Y107.083 F7200
G1 X117.733 Y107.083 E8.7483 F3600
G1 X117.688 Y107.066 E8.7499
G1 X117.688 Y92.917 E9.2205
G1 X138.762 Y92.917 E9.9214
G1 X138.846 Y93.008 E9.9255
G1 X138.846 Y107.083 E10.3936
G1 X137.646 Y107.083 E10.4335
;segType:HShell
G0 X118.579 Y93.277 F7200
G1 X118.048 Y93.808 E10.4585 F3600
G0 X118.048 Y94.374 F7200
G1 X119.145 Y93.277 E10.5101 F3600
G0 X119.711 Y93.277 F7200
G1 X118.048 Y94.939 E10.5883 F3600
G0 X118.048 Y95.505 F7200
G1 X120.276 Y93.277 E10.6931 F3600
G0 X120.842 Y93.277 F7200
G1 X118.048 Y96.071 E10.8245 F3600
G0 X118.048 Y96.636 F7200
G1 X121.408 Y93.277 E10.9826 F3600
G0 X121.973 Y93.277 F7200
G1 X118.048 Y97.202 E11.1672 F3600
G0 X118.048 Y97.768 F7200
G1 X122.539 Y93.277 E11.3784 F3600
G0 X123.105 Y93.277 F7200
G1 X118.048 Y98.334 E11.6163 F3600
G0 X118.048 Y98.899 F7200
G1 X123.670 Y93.277 E11.8807 F3600
G0 X124.236 Y93.277 F7200
G1 X118.048 Y99.465 E12.1718 F3600
G0 X118.048 Y100.031 F7200
G1 X124.802 Y93.277 E12.4895 F3600
G0 X125.367 Y93.277 F7200
G1 X118.048 Y100.596 E12.8338 F3600
G0 X118.048 Y101.162 F7200
G1 X125.933 Y93.277 E13.2047 F3600
G0 X126.499 Y93.277 F7200
G1 X118.048 Y101.728 E13.6022 F3600
G0 X118.048 Y102.293 F7200
G1 X127.065 Y93.277 E14.0263 F3600
G0 X127.630 Y93.277 F7200
G1 X118.048 Y102.859 E14.4770 F3600
G0 X118.048 Y103.425 F7200
G1 X128.196 Y93.277 E14.9543 F3600
G0 X128.762 Y93.277 F7200
G1 X118.048 Y103.990 E15.4582 F3600
G0 X118.048 Y104.556 F7200
G1 X129.327 Y93.277 E15.9888 F3600
G0 X129.893 Y93.277 F7200
G1 X118.048 Y105.122 E16.5459 F3600
G0 X118.048 Y105.687 F7200
G1 X130.459 Y93.277 E17.1297 F3600
G0 X131.024 Y93.277 F7200
G1 X118.048 Y106.253 E17.7400 F3600
G0 X118.144 Y106.723 F7200
G1 X131.590 Y93.277 E18.3725 F3600
G0 X132.156 Y93.277 F7200
G1 X118.710 Y106.723 E19.0050 F3600
G0 X119.275 Y106.723 F7200
G1 X132.721 Y93.277 E19.6374 F3600
G0 X133.287 Y93.277 F7200
G1 X119.841 Y106.723 E20.2699 F3600
G0 X120.407 Y106.723 F7200
G1 X133.853 Y93.277 E20.9024 F3600
G0 X134.418 Y93.277 F7200
G1 X120.972 Y106.723 E21.5348 F3600
G0 X121.538 Y106.723 F7200
G1 X134.984 Y93.277 E22.1673 F3600
G0 X135.550 Y93.277 F7200
G1 X122.104 Y106.723 E22.7998 F3600
G0 X122.669 Y106.723 F7200
G1 X136.116 Y93.277 E23.4322 F3600
G0 X136.681 Y93.277 F7200
G1 X123.235 Y106.723 E24.0647 F3600
G0 X123.801 Y106.723 F7200
G1 X137.247 Y93.277 E24.6971 F3600
G0 X137.813 Y93.277 F7200
G1 X124.366 Y106.723 E25.3296 F3600
G0 X124.932 Y106.723 F7200
G1 X138.378 Y93.277 E25.9621 F3600
G0 X138.485 Y93.735 F7200
G1 X125.498 Y106.723 E26.5730 F3600
G0 X126.063 Y106.723 F7200
G1 X138.485 Y94.301 E27.1573 F3600
G0 X138.485 Y94.867 F7200
G1 X126.629 Y106.723 E27.7149 F3600
G0 X127.195 Y106.723 F7200
G1 X138.485 Y95.432 E28.2460 F3600
G0 X138.485 Y95.998 F7200
G1 X127.761 Y106.723 E28.7505 F3600
G0 X128.326 Y106.723 F7200
G1 X138.485 Y96.564 E29.2283 F3600
G0 X138.485 Y97.130 F7200
G1 X128.892 Y106.723 E29.6796 F3600
G0 X129.458 Y106.723 F7200
G1 X138.485 Y97.695 E30.1042 F3600
G0 X138.485 Y98.261 F7200
G1 X130.023 Y106.723 E30.5023 F3600
G0 X130.589 Y106.723 F7200
G1 X138.485 Y98.827 E30.8737 F3600
G0 X138.485 Y99.392 F7200
G1 X131.155 Y106.723 E31.2185 F3600
G0 X131.720 Y106.723 F7200
G1 X138.485 Y99.958 E31.5367 F3600
G0 X138.485 Y100.524 F7200
G1 X132.286 Y106.723 E31.8283 F3600
G0 X132.852 Y106.723 F7200
G1 X138.485 Y101.089 E32.0933 F3600
G0 X138.485 Y101.655 F7200
G1 X133.417 Y106.723 E32.3317 F3600
G0 X133.983 Y106.723 F7200
G1 X138.485 Y102.221 E32.5435 F3600
G0 X138.485 Y102.786 F7200
G1 X134.549 Y106.723 E32.7286 F3600
G0 X135.114 Y106.723 F7200
G1 X138.485 Y103.352 E32.8872 F3600
;segType:SupportTouch
G0 X140.246 Y101.007 F7200
G1 X141.060 Y101.007 E32.9102 F5400
G1 X141.060 Y99.207 E32.9611
G1 X140.246 Y99.207 E32.9841 F5400
; ------------------------------------
; Layer #2
; ------------------------------------
M106 S0 ;turn off fan
G21 ; mm
G90 ; abs
G92 E0 ;reset extr
G0 F4800 E-1.0000
G0 F1200 Z0.600
G0 X137.754 Y99.355 F7200
G0 X110.338 Y100.983
G0 F4800 E0.0000
;segType:SoftSupport
G1 X111.403 Y100.983 E0.0177 F5400
G1 X111.403 Y99.183 E0.0476
G1 X110.338 Y99.183 E0.0654 F5400
;segType:Support
G0 F4800 E-0.9346
G0 X116.351 Y90.047 F7200
G0 F4800 E0.0654
G1 X118.151 Y90.047 E0.1162 F5400
G1 X120.359 Y90.073 E0.1787
G1 X124.309 Y90.078 E0.2903
G1 X124.617 Y90.040 E0.2991
G1 X126.417 Y90.040 E0.3500
G1 X126.912 Y90.023 E0.3640
G1 X128.712 Y90.023 E0.4149
G1 X129.297 Y90.040 E0.4314
G1 X131.097 Y90.040 E0.4823
G1 X131.402 Y90.078 E0.4910
G1 X135.340 Y90.079 E0.6023
G1 X135.766 Y90.049 E0.6144
G1 X137.566 Y90.049 E0.6653
G1 X137.857 Y90.095 E0.6736
G1 X139.657 Y90.095 E0.7245
;segType:HShell
G0 F4800 E-0.2755
G0 X124.960 Y93.277 F7200
G0 F4800 E0.7245
G1 X138.406 Y106.723 E1.3570 F3600
;segType:Perimeter
G0 X139.586 Y107.883 F7200
G1 X116.898 Y107.883 E2.1116 F2159
G1 X116.888 Y107.806 E2.1142
G1 X116.888 Y92.117 E2.6360
G1 X139.619 Y92.117 E3.3920
G1 X139.646 Y92.872 E3.4172
G1 X139.646 Y107.823 E3.9145
G0 X138.873 Y107.616 F7200
;segType:Loop
G0 X138.546 Y107.483
G1 X117.390 Y107.483 E4.6181 F3600
G1 X117.288 Y107.408 E4.6223
G1 X117.288 Y92.517 E5.1176
G1 X139.233 Y92.517 E5.8475
G1 X139.246 Y92.878 E5.8595
G1 X139.246 Y107.483 E6.3453
G1 X138.746 Y107.483 E6.3619
G0 X137.446 Y107.083 F7200
G1 X117.733 Y107.083 E7.0176 F3600
G1 X117.688 Y107.066 E7.0192
G1 X117.688 Y92.917 E7.4898
G1 X138.762 Y92.917 E8.1907
G1 X138.846 Y93.008 E8.1948
G1 X138.846 Y107.083 E8.6629
G1 X137.646 Y107.083 E8.7028
;segType:HShell
G0 X137.840 Y106.723 F7200
G1 X124.394 Y93.277 E9.3353 F3600
G0 X123.828 Y93.277 F7200
G1 X137.275 Y106.723 E9.9678 F3600
G0 X136.709 Y106.723 F7200
G1 X123.263 Y93.277 E10.6002 F3600
G0 X122.697 Y93.277 F7200
G1 X136.143 Y106.723 E11.2327 F3600
G0 X135.577 Y106.723 F7200
G1 X122.131 Y93.277 E11.8652 F3600
G0 X121.566 Y93.277 F7200
G1 X135.012 Y106.723 E12.4976 F3600
G0 X134.446 Y106.723 F7200
G1 X121.000 Y93.277 E13.1301 F3600
G0 X120.434 Y93.277 F7200
G1 X133.880 Y106.723 E13.7626 F3600
G0 X133.315 Y106.723 F7200
G1 X119.869 Y93.277 E14.3950 F3600
G0 X119.303 Y93.277 F7200
G1 X132.749 Y106.723 E15.0275 F3600
G0 X132.183 Y106.723 F7200
G1 X118.737 Y93.277 E15.6599 F3600
G0 X118.172 Y93.277 F7200
G1 X131.618 Y106.723 E16.2924 F3600
G0 X131.052 Y106.723 F7200
G1 X118.048 Y93.719 E16.9041 F3600
G0 X118.048 Y94.285 F7200
G1 X130.486 Y106.723 E17.4891 F3600
G0 X129.921 Y106.723 F7200
G1 X118.048 Y94.851 E18.0476 F3600
G0 X118.048 Y95.416 F7200
G1 X129.355 Y106.723 E18.5794 F3600
G0 X128.789 Y106.723 F7200
G1 X118.048 Y95.982 E19.0846 F3600
G0 X118.048 Y96.548 F7200
G1 X128.224 Y106.723 E19.5633 F3600
G0 X127.658 Y106.723 F7200
G1 X118.048 Y97.113 E20.0153 F3600
G0 X118.048 Y97.679 F7200
G1 X127.092 Y106.723 E20.4407 F3600
G0 X126.526 Y106.723 F7200
G1 X118.048 Y98.245 E20.8395 F3600
G0 X118.048 Y98.810 F7200
G1 X125.961 Y106.723 E21.2117 F3600
G0 X125.395 Y106.723 F7200
G1 X118.048 Y99.376 E21.5572 F3600
G0 X118.048 Y99.942 F7200
G1 X124.829 Y106.723 E21.8762 F3600
G0 X124.264 Y106.723 F7200
G1 X118.048 Y100.507 E22.1686 F3600
G0 X118.048 Y101.073 F7200
G1 X123.698 Y106.723 E22.4343 F3600
G0 X123.132 Y106.723 F7200
G1 X118.048 Y101.639 E22.6735 F3600
G0 X118.048 Y102.204 F7200
G1 X122.567 Y106.723 E22.8860 F3600
G0 X122.001 Y106.723 F7200
G1 X118.048 Y102.770 E23.0720 F3600
G0 X118.048 Y103.336 F7200
G1 X121.435 Y106.723 E23.2313 F3600
G0 X120.870 Y106.723 F7200
G1 X118.048 Y103.901 E23.3640 F3600
G0 X118.048 Y104.467 F7200
G1 X120.304 Y106.723 E23.4701 F3600
G0 X119.738 Y106.723 F7200
G1 X118.048 Y105.033 E23.5496 F3600
G0 X118.048 Y105.599 F7200
G1 X119.173 Y106.723 E23.6025 F3600
G0 X118.607 Y106.723 F7200
G1 X118.048 Y106.164 E23.6288 F3600
G0 X125.525 Y93.277 F7200
G1 X138.485 Y106.237 E24.2384 F3600
G0 X138.485 Y105.671 F7200
G1 X126.091 Y93.277 E24.8214 F3600
G0 X126.657 Y93.277 F7200
G1 X138.485 Y105.105 E25.3778 F3600
G0 X138.485 Y104.540 F7200
G1 X127.223 Y93.277 E25.9075 F3600
G0 X127.788 Y93.277 F7200
G1 X138.485 Y103.974 E26.4107 F3600
G0 X138.485 Y103.408 F7200
G1 X128.354 Y93.277 E26.8873 F3600
G0 X128.920 Y93.277 F7200
G1 X138.485 Y102.843 E27.3372 F3600
G0 X138.485 Y102.277 F7200
G1 X129.485 Y93.277 E27.7605 F3600
G0 X130.051 Y93.277 F7200
G1 X138.485 Y101.711 E28.1573 F3600
G0 X138.485 Y101.146 F7200
G1 X130.617 Y93.277 E28.5274 F3600
G0 X131.182 Y93.277 F7200
G1 X138.485 Y100.580 E28.8709 F3600
G0 X138.485 Y100.014 F7200
G1 X131.748 Y93.277 E29.1878 F3600
G0 X132.314 Y93.277 F7200
G1 X138.485 Y99.449 E29.4781 F3600
G0 X138.485 Y98.883 F7200
G1 X132.879 Y93.277 E29.7418 F3600
G0 X133.445 Y93.277 F7200
G1 X138.485 Y98.317 E29.9789 F3600
G0 X138.485 Y97.752 F7200
G1 X134.011 Y93.277 E30.1894 F3600
G0 X134.576 Y93.277 F7200
G1 X138.485 Y97.186 E30.3732 F3600
G0 X138.485 Y96.620 F7200
G1 X135.142 Y93.277 E30.5305 F3600
G0 X135.708 Y93.277 F7200
G1 X138.485 Y96.055 E30.6611 F3600
G0 X138.485 Y95.489 F7200
G1 X136.273 Y93.277 E30.7652 F3600
G0 X136.839 Y93.277 F7200
G1 X138.485 Y94.923 E30.8426 F3600
G0 X138.485 Y94.357 F7200
G1 X137.405 Y93.277 E30.8934 F3600
G0 X137.971 Y93.277 F7200
G1 X138.485 Y93.792 E30.9177 F3600
;segType:SoftSupport
G0 F4800 E29.9177
G0 X140.246 Y99.207 F7200
G0 F4800 E30.9177
G1 X141.060 Y99.207 E30.9312 F5400
G1 X141.060 Y101.007 E30.9611 F5400
G1 X140.246 Y101.007 E30.9747
G0 X142.960 Y99.187 F7200
G1 X142.960 Y100.987 E31.0046 F5400
G1 X141.160 Y100.987 E31.0345
G1 X141.160 Y99.187 E31.0645
G1 X142.960 Y99.187 E31.0944
G0 X145.073 Y99.169 F7200
G1 X145.073 Y100.969 E31.1243 F5400
G1 X143.273 Y100.969 E31.1543
G1 X143.273 Y99.169 E31.1842
G1 X145.073 Y99.169 E31.2141
;segType:SupportTouch
G0 X147.072 Y99.134 F7200
G1 X146.196 Y99.134 E31.2389 F5400
;segType:SoftSupport
G1 X145.272 Y99.134 E31.2543 F5400
G1 X145.272 Y100.934 E31.2842
G1 X146.196 Y100.934 E31.2996
;segType:SupportTouch
G1 X147.072 Y100.934 E31.3243 F5400
G1 X147.072 Y99.134 E31.3752
;segType:Support
G0 F4800 E30.3752
G0 X140.216 Y109.928 F7200
G0 F4800 E31.3752
G1 X138.416 Y109.928 E31.4261 F5400
G1 X138.143 Y109.844 E31.4342
G1 X136.343 Y109.844 E31.4851
G1 X135.843 Y109.868 E31.4992
G1 X134.043 Y109.868 E31.5501
G1 X133.461 Y109.853 E31.5666
G1 X131.661 Y109.853 E31.6175
G1 X131.262 Y109.809 E31.6288
G1 X129.462 Y109.809 E31.6797
G1 X129.091 Y109.728 E31.6904
G1 X127.291 Y109.728 E31.7413
G1 X126.821 Y109.950 E31.7560
G1 X125.021 Y109.950 E31.8069
G1 X124.491 Y109.874 E31.8221
G1 X122.691 Y109.874 E31.8729
G1 X122.303 Y109.763 E31.8844
G1 X120.503 Y109.763 E31.9352
G1 X120.243 Y109.919 E31.9438
G1 X118.443 Y109.919 E31.9947
G1 X118.212 Y109.813 E32.0019
G1 X116.412 Y109.813 E32.0528
;segType:SoftSupport
G0 F4800 E31.0528
G0 X116.288 Y100.895 F7200
G0 F4800 E32.0528
G1 X115.262 Y100.895 E32.0698 F5400
G1 X115.262 Y99.095 E32.0998
G1 X116.288 Y99.095 E32.1168
G0 X114.916 Y99.147 F7200
G1 X113.116 Y99.147 E32.1468 F5400
G1 X113.116 Y100.947 E32.1767
G1 X114.916 Y100.947 E32.2066
G1 X114.916 Y99.147 E32.2366
G0 X112.947 Y99.161 F7200
G1 X111.147 Y99.161 E32.2665 F5400
G1 X111.147 Y100.961 E32.2964
G1 X112.947 Y100.961 E32.3264
G1 X112.947 Y99.161 E32.3563
;segType:SupportTouch
G0 X110.338 Y99.183 F7200
G1 X109.603 Y99.183 E32.3771 F5400
G1 X109.603 Y100.983 E32.4280
G1 X110.338 Y100.983 E32.4488
; ------------------------------------
; Layer #3
; ------------------------------------
M106 S255 ;set fan speed
G21 ; mm
G90 ; abs
G92 E0 ;reset extr
G0 F4800 E-1.0000
G0 F1200 Z0.800
G0 X133.321 Y107.863 F7200
G0 X135.619 Y108.551
G0 X140.216 Y109.928
G0 F4800 E0.0000
;segType:Support
G1 X138.416 Y109.928 E0.0509 F5400
G1 X138.143 Y109.844 E0.0590
G1 X136.343 Y109.844 E0.1099
G1 X135.843 Y109.868 E0.1240
G1 X134.043 Y109.868 E0.1749
G1 X133.461 Y109.853 E0.1913
G1 X131.661 Y109.853 E0.2422
G1 X131.262 Y109.809 E0.2536
G1 X129.462 Y109.809 E0.3045
G1 X129.091 Y109.728 E0.3152
G1 X127.291 Y109.728 E0.3661
G1 X126.821 Y109.950 E0.3808
G1 X125.021 Y109.950 E0.4317
G1 X124.491 Y109.874 E0.4468
G1 X122.691 Y109.874 E0.4977
G1 X122.303 Y109.763 E0.5091
G1 X120.503 Y109.763 E0.5600
G1 X120.243 Y109.919 E0.5686
G1 X118.443 Y109.919 E0.6195
G1 X118.212 Y109.813 E0.6267
G1 X116.412 Y109.813 E0.6775
;segType:SupportTouch
G0 F4800 E-0.3225
G0 X110.338 Y100.549 F7200
G0 F4800 E0.6775
G1 X110.036 Y100.549 E0.6861 F5400
G1 X110.036 Y99.616 E0.7125
G0 X110.338 Y100.983 F7200
G1 X109.603 Y100.983 E0.7332 F5400
G1 X109.603 Y99.183 E0.7841
G1 X110.338 Y99.183 E0.8049
G0 X110.036 Y99.616 F7200
G1 X110.338 Y99.546 E0.8137 F5400
;segType:Support
G0 F4800 E-0.1863
G0 X116.351 Y90.047 F7200
G0 F4800 E0.8137
G1 X118.151 Y90.047 E0.8645 F5400
G1 X120.359 Y90.073 E0.9270
G1 X124.309 Y90.078 E1.0386
G1 X124.617 Y90.040 E1.0474
G1 X126.417 Y90.040 E1.0983
G1 X126.912 Y90.023 E1.1123
G1 X128.712 Y90.023 E1.1632
G1 X129.297 Y90.040 E1.1797
G1 X131.097 Y90.040 E1.2306
G1 X131.402 Y90.078 E1.2393
G1 X135.340 Y90.079 E1.3506
G1 X135.766 Y90.049 E1.3627
G1 X137.566 Y90.049 E1.4136
G1 X137.857 Y90.095 E1.4219
G1 X139.657 Y90.095 E1.4728
;segType:HShell
G0 F4800 E0.4728
G0 X138.485 Y103.918 F7200
G0 F4800 E1.4728
G1 X135.680 Y106.723 E1.6048 F3600
G0 X136.246 Y106.723 F7200
G1 X138.485 Y104.483 E1.7101 F3600
G0 X138.485 Y105.049 F7200
G1 X136.812 Y106.723 E1.7889 F3600
G0 X137.377 Y106.723 F7200
G1 X138.485 Y105.615 E1.8410 F3600
G0 X138.485 Y106.180 F7200
G1 X137.943 Y106.723 E1.8665 F3600
;segType:Perimeter
G0 X139.586 Y107.883 F7200
G1 X116.911 Y107.883 E2.6207 F2159
G1 X116.888 Y107.700 E2.6268
G1 X116.888 Y92.117 E3.1451
G1 X139.606 Y92.117 E3.9007
G1 X139.646 Y93.252 E3.9385
G1 X139.646 Y107.823 E4.4231
G0 X138.873 Y107.616 F7200
;segType:Loop
G0 X138.546 Y107.483
G1 X117.390 Y107.483 E5.1268 F3600
G1 X117.288 Y107.408 E5.1310
G1 X117.288 Y92.517 E5.6263
G1 X139.220 Y92.517 E6.3557
G1 X139.246 Y93.259 E6.3805
G1 X139.246 Y107.483 E6.8535
G1 X138.746 Y107.483 E6.8702
G0 X137.446 Y107.083 F7200
G1 X117.733 Y107.083 E7.5258 F3600
G1 X117.688 Y107.066 E7.5274
G1 X117.688 Y92.917 E7.9980
G1 X138.834 Y92.917 E8.7013
G1 X138.846 Y93.266 E8.7129
G1 X138.846 Y107.083 E9.1725
G1 X137.646 Y107.083 E9.2124
;segType:HShell
G0 X138.485 Y103.352 F7200
G1 X135.114 Y106.723 E9.3710 F3600
G0 X134.549 Y106.723 F7200
G1 X138.485 Y102.786 E9.5561 F3600
G0 X138.485 Y102.221 F7200
G1 X133.983 Y106.723 E9.7679 F3600
G0 X133.417 Y106.723 F7200
G1 X138.485 Y101.655 E10.0063 F3600
G0 X138.485 Y101.089 F7200
G1 X132.852 Y106.723 E10.2713 F3600
G0 X132.286 Y106.723 F7200
G1 X138.485 Y100.524 E10.5629 F3600
G0 X138.485 Y99.958 F7200
G1 X131.720 Y106.723 E10.8811 F3600
G0 X131.155 Y106.723 F7200
G1 X138.485 Y99.392 E11.2259 F3600
G0 X138.485 Y98.827 F7200
G1 X130.589 Y106.723 E11.5973 F3600
G0 X130.023 Y106.723 F7200
G1 X138.485 Y98.261 E11.9954 F3600
G0 X138.485 Y97.695 F7200
G1 X129.458 Y106.723 E12.4200 F3600
G0 X128.892 Y106.723 F7200
G1 X138.485 Y97.130 E12.8713 F3600
G0 X138.485 Y96.564 F7200
G1 X128.326 Y106.723 E13.3491 F3600
G0 X127.761 Y106.723 F7200
G1 X138.485 Y95.998 E13.8536 F3600
G0 X138.485 Y95.432 F7200
G1 X127.195 Y106.723 E14.3847 F3600
G0 X126.629 Y106.723 F7200
G1 X138.485 Y94.867 E14.9424 F3600
G0 X138.485 Y94.301 F7200
G1 X126.063 Y106.723 E15.5266 F3600
G0 X125.498 Y106.723 F7200
G1 X138.485 Y93.735 E16.1375 F3600
G0 X138.378 Y93.277 F7200
G1 X124.932 Y106.723 E16.7700 F3600
G0 X124.366 Y106.723 F7200
G1 X137.813 Y93.277 E17.4025 F3600
G0 X137.247 Y93.277 F7200
G1 X123.801 Y106.723 E18.0349 F3600
G0 X123.235 Y106.723 F7200
G1 X136.681 Y93.277 E18.6674 F3600
G0 X136.115 Y93.277 F7200
G1 X122.669 Y106.723 E19.2999 F3600
G0 X122.104 Y106.723 F7200
G1 X135.550 Y93.277 E19.9323 F3600
G0 X134.984 Y93.277 F7200
G1 X121.538 Y106.723 E20.5648 F3600
G0 X120.972 Y106.723 F7200
G1 X134.418 Y93.277 E21.1973 F3600
G0 X133.853 Y93.277 F7200
G1 X120.407 Y106.723 E21.8297 F3600
G0 X119.841 Y106.723 F7200
G1 X133.287 Y93.277 E22.4622 F3600
G0 X132.721 Y93.277 F7200
G1 X119.275 Y106.723 E23.0946 F3600
G0 X118.710 Y106.723 F7200
G1 X132.156 Y93.277 E23.7271 F3600
G0 X131.590 Y93.277 F7200
G1 X118.144 Y106.723 E24.3596 F3600
G0 X118.048 Y106.253 F7200
G1 X131.024 Y93.277 E24.9699 F3600
G0 X130.459 Y93.277 F7200
G1 X118.048 Y105.687 E25.5537 F3600
G0 X118.048 Y105.122 F7200
G1 X129.893 Y93.277 E26.1108 F3600
G0 X129.327 Y93.277 F7200
G1 X118.048 Y104.556 E26.6414 F3600
G0 X118.048 Y103.990 F7200
G1 X128.762 Y93.277 E27.1453 F3600
G0 X128.196 Y93.277 F7200
G1 X118.048 Y103.425 E27.6226 F3600
G0 X118.048 Y102.859 F7200
G1 X127.630 Y93.277 E28.0733 F3600
G0 X127.065 Y93.277 F7200
G1 X118.048 Y102.293 E28.4974 F3600
G0 X118.048 Y101.728 F7200
G1 X126.499 Y93.277 E28.8949 F3600
G0 X125.933 Y93.277 F7200
G1 X118.048 Y101.162 E29.2658 F3600
G0 X118.048 Y100.596 F7200
G1 X125.367 Y93.277 E29.6101 F3600
G0 X124.802 Y93.277 F7200
G1 X118.048 Y100.031 E29.9278 F3600
G0 X118.048 Y99.465 F7200
G1 X124.236 Y93.277 E30.2188 F3600
G0 X123.670 Y93.277 F7200
G1 X118.048 Y98.899 E30.4833 F3600
G0 X118.048 Y98.334 F7200
G1 X123.105 Y93.277 E30.7211 F3600
G0 X122.539 Y93.277 F7200
G1 X118.048 Y97.768 E30.9324 F3600
G0 X118.048 Y97.202 F7200
G1 X121.973 Y93.277 E31.1170 F3600
G0 X121.408 Y93.277 F7200
G1 X118.048 Y96.636 E31.2750 F3600
G0 X118.048 Y96.071 F7200
G1 X120.842 Y93.277 E31.4064 F3600
G0 X120.276 Y93.277 F7200
G1 X118.048 Y95.505 E31.5113 F3600
G0 X118.048 Y94.939 F7200
G1 X119.711 Y93.277 E31.5895 F3600
G0 X119.145 Y93.277 F7200
G1 X118.048 Y94.374 E31.6410 F3600
G0 X118.048 Y93.808 F7200
G1 X118.579 Y93.277 E31.6660 F3600
;segType:SupportTouch
G0 F4800 E30.6660
G0 X146.196 Y100.583 F7200
G0 F4800 E31.6660
G1 X146.721 Y100.583 E31.6809 F5400
G1 X146.721 Y99.485 E31.7119
G1 X146.196 Y99.451 E31.7268
G0 X146.196 Y99.134 F7200
G1 X147.072 Y99.134 E31.7516 F5400
G1 X147.072 Y100.934 E31.8025 F5400
G1 X146.196 Y100.934 E31.8272
; ------------------------------------
; Layer #4
; ------------------------------------
M106 S255 ;set fan speed
G21 ; mm
G90 ; abs
G92 E0 ;reset extr
G0 F4800 E-1.0000
G0 F1200 Z1.000
G0 X144.888 Y98.766 F7200
G0 X139.657 Y90.095
G0 F4800 E0.0000
;segType:Support
G1 X137.857 Y90.095 E0.0509 F5400
G1 X137.566 Y90.049 E0.0592
G1 X135.766 Y90.049 E0.1101
G1 X135.340 Y90.079 E0.1222
G1 X131.402 Y90.078 E0.2335
G1 X131.097 Y90.040 E0.2422
G1 X129.297 Y90.040 E0.2931
G1 X128.712 Y90.023 E0.3096
G1 X126.912 Y90.023 E0.3605
G1 X126.417 Y90.040 E0.3745
G1 X124.617 Y90.040 E0.4254
G1 X124.309 Y90.078 E0.4342
G1 X120.359 Y90.073 E0.5459
G1 X118.151 Y90.047 E0.6083
G1 X116.351 Y90.047 E0.6592
G0 F4800 E-0.3408
G0 X116.382 Y99.930 F7200
G0 X116.389 Y102.401
G0 X116.412 Y109.813
G0 F4800 E0.6592
G1 X118.212 Y109.813 E0.7101 F5400
G1 X118.443 Y109.919 E0.7172
G1 X120.243 Y109.919 E0.7681
G1 X120.503 Y109.763 E0.7767
G1 X122.303 Y109.763 E0.8276
G1 X122.691 Y109.874 E0.8390
G1 X124.491 Y109.874 E0.8899
G1 X125.021 Y109.950 E0.9050
G1 X126.821 Y109.950 E0.9559
G1 X127.291 Y109.728 E0.9706
G1 X129.091 Y109.728 E1.0215
G1 X129.462 Y109.809 E1.0322
G1 X131.262 Y109.809 E1.0831
G1 X131.661 Y109.853 E1.0945
G1 X133.461 Y109.853 E1.1454
G1 X134.043 Y109.868 E1.1618
G1 X135.843 Y109.868 E1.2127
G1 X136.343 Y109.844 E1.2269
G1 X138.143 Y109.844 E1.2777
G1 X138.416 Y109.928 E1.2858
G1 X140.216 Y109.928 E1.3367
;segType:HShell
G0 F4800 E0.3367
G0 X124.960 Y93.277 F7200
G0 F4800 E1.3367
G1 X138.406 Y106.723 E1.9692 F3600
;segType:Perimeter
G0 X139.379 Y107.110 F7200
G1 X139.586 Y107.883 E1.9958 F2159
G1 X116.888 Y107.883 E2.7507
G1 X116.888 Y100.853 E2.9845
G1 X110.538 Y100.853 E3.1957
G1 X110.538 Y99.147 E3.2525
G1 X116.888 Y99.147 E3.4637
G1 X116.888 Y92.117 E3.6975
G1 X139.646 Y92.117 E4.4544
G1 X139.646 Y99.118 E4.6873
G1 X145.996 Y99.146 E4.8985
G1 X145.996 Y100.871 E4.9558
G1 X145.880 Y100.881 E4.9597
G1 X139.646 Y100.881 E5.1670
G1 X139.646 Y107.823 E5.3979
G0 X138.873 Y107.616 F7200
;segType:Loop
G0 X138.546 Y107.483
G1 X117.288 Y107.483 E6.1050 F3600
G1 X117.288 Y100.453 E6.3388
G1 X110.938 Y100.453 E6.5500
G1 X110.938 Y99.547 E6.5801
G1 X117.288 Y99.547 E6.7913
G1 X117.288 Y92.517 E7.0251
G1 X139.246 Y92.517 E7.7555
G1 X139.246 Y99.516 E7.9883
G1 X145.596 Y99.545 E8.1995
G1 X145.596 Y100.437 E8.2291
G1 X145.504 Y100.481 E8.2325
G1 X139.246 Y100.481 E8.4407
G1 X139.246 Y107.483 E8.6736
G1 X138.746 Y107.483 E8.6902
G0 X137.446 Y107.083 F7200
G1 X117.688 Y107.083 E9.3473 F3600
G1 X117.688 Y100.323 E9.5722
G1 X117.390 Y100.000 E9.5907
G1 X111.219 Y100.000 E9.8507
G0 X117.390 Y100.000 F7200
G1 X117.688 Y99.637 E9.8663 F3600
G1 X117.688 Y92.917 E10.0898
G1 X138.846 Y92.917 E10.7935
G1 X138.846 Y99.637 E11.0170
G0 X139.104 Y99.998 F7200
G0 X145.390 Y100.012
G1 X145.276 Y100.012 E11.0221 F3600
G1 X145.162 Y100.012 E11.0272
G1 X145.047 Y100.012 E11.0324
G1 X144.933 Y100.011 E11.0375
G1 X144.819 Y100.011 E11.0426
G1 X144.704 Y100.011 E11.0478
G1 X144.590 Y100.011 E11.0529
G1 X144.476 Y100.010 E11.0580
G1 X144.362 Y100.010 E11.0632
G1 X144.247 Y100.010 E11.0683
G1 X144.133 Y100.010 E11.0735
G1 X144.019 Y100.009 E11.0787
G1 X143.904 Y100.009 E11.0838
G1 X143.790 Y100.009 E11.0890
G1 X143.676 Y100.009 E11.0942
G1 X143.562 Y100.008 E11.0994
G1 X143.447 Y100.008 E11.1046
G1 X143.333 Y100.008 E11.1098
G1 X143.219 Y100.008 E11.1150
G1 X143.104 Y100.007 E11.1202
G1 X142.990 Y100.007 E11.1254
G1 X142.876 Y100.007 E11.1306
G1 X142.762 Y100.007 E11.1358
G1 X142.647 Y100.006 E11.1410
G1 X142.533 Y100.006 E11.1462
G1 X142.419 Y100.006 E11.1515
G1 X142.304 Y100.005 E11.1567
G1 X142.190 Y100.005 E11.1620
G1 X142.076 Y100.005 E11.1672
G1 X141.962 Y100.005 E11.1725
G1 X141.847 Y100.004 E11.1777
G1 X141.733 Y100.004 E11.1830
G1 X141.619 Y100.004 E11.1882
G1 X141.504 Y100.004 E11.1935
G1 X141.390 Y100.003 E11.1988
G1 X141.276 Y100.003 E11.2041
G1 X141.162 Y100.003 E11.2094
G1 X141.047 Y100.003 E11.2146
G1 X140.933 Y100.002 E11.2199
G1 X140.819 Y100.002 E11.2252
G1 X140.704 Y100.002 E11.2306
G1 X140.590 Y100.002 E11.2359
G1 X140.476 Y100.001 E11.2412
G1 X140.362 Y100.001 E11.2465
G1 X140.247 Y100.001 E11.2518
G1 X140.133 Y100.001 E11.2572
G1 X140.019 Y100.000 E11.2625
G1 X139.904 Y100.000 E11.2678
G1 X139.790 Y100.000 E11.2732
G1 X139.676 Y100.000 E11.2785
G1 X139.562 Y99.999 E11.2839
G1 X139.447 Y99.999 E11.2892
G1 X139.333 Y99.999 E11.2946
G1 X139.219 Y99.999 E11.3000
G1 X139.104 Y99.998 E11.3053
G1 X138.846 Y100.323 E11.3191
G1 X138.846 Y107.083 E11.5440
G1 X137.646 Y107.083 E11.5839
;segType:HShell
G0 X137.840 Y106.723 F7200
G1 X124.394 Y93.277 E12.2164 F3600
G0 X123.828 Y93.277 F7200
G1 X137.275 Y106.723 E12.8488 F3600
G0 X136.709 Y106.723 F7200
G1 X123.263 Y93.277 E13.4813 F3600
G0 X122.697 Y93.277 F7200
G1 X136.143 Y106.723 E14.1138 F3600
G0 X135.577 Y106.723 F7200
G1 X122.131 Y93.277 E14.7462 F3600
G0 X121.566 Y93.277 F7200
G1 X135.012 Y106.723 E15.3787 F3600
G0 X134.446 Y106.723 F7200
G1 X121.000 Y93.277 E16.0112 F3600
G0 X120.434 Y93.277 F7200
G1 X133.880 Y106.723 E16.6436 F3600
G0 X133.315 Y106.723 F7200
G1 X119.869 Y93.277 E17.2761 F3600
G0 X119.303 Y93.277 F7200
G1 X132.749 Y106.723 E17.9086 F3600
G0 X132.183 Y106.723 F7200
G1 X118.737 Y93.277 E18.5410 F3600
G0 X118.172 Y93.277 F7200
G1 X131.618 Y106.723 E19.1735 F3600
G0 X131.052 Y106.723 F7200
G1 X118.048 Y93.719 E19.7851 F3600
G0 X118.048 Y94.285 F7200
G1 X130.486 Y106.723 E20.3702 F3600
G0 X129.921 Y106.723 F7200
G1 X118.048 Y94.851 E20.9286 F3600
G0 X118.048 Y95.416 F7200
G1 X129.355 Y106.723 E21.4605 F3600
G0 X128.789 Y106.723 F7200
G1 X118.048 Y95.982 E21.9657 F3600
G0 X118.048 Y96.548 F7200
G1 X128.224 Y106.723 E22.4443 F3600
G0 X127.658 Y106.723 F7200
G1 X118.048 Y97.113 E22.8963 F3600
G0 X118.048 Y97.679 F7200
G1 X127.092 Y106.723 E23.3218 F3600
G0 X126.526 Y106.723 F7200
G1 X118.048 Y98.245 E23.7206 F3600
G0 X118.048 Y98.810 F7200
G1 X125.961 Y106.723 E24.0927 F3600
G0 X125.395 Y106.723 F7200
G1 X118.048 Y99.376 E24.4383 F3600
G0 X118.048 Y99.942 F7200
G1 X124.829 Y106.723 E24.7573 F3600
G0 X124.264 Y106.723 F7200
G1 X118.048 Y100.507 E25.0497 F3600
G0 X118.048 Y101.073 F7200
G1 X123.698 Y106.723 E25.3154 F3600
G0 X123.132 Y106.723 F7200
G1 X118.048 Y101.639 E25.5546 F3600
G0 X118.048 Y102.204 F7200
G1 X122.567 Y106.723 E25.7671 F3600
G0 X122.001 Y106.723 F7200
G1 X118.048 Y102.770 E25.9530 F3600
G0 X118.048 Y103.336 F7200
G1 X121.435 Y106.723 E26.1124 F3600
G0 X120.870 Y106.723 F7200
G1 X118.048 Y103.901 E26.2451 F3600
G0 X118.048 Y104.467 F7200
G1 X120.304 Y106.723 E26.3512 F3600
G0 X119.738 Y106.723 F7200
G1 X118.048 Y105.033 E26.4307 F3600
G0 X118.048 Y105.599 F7200
G1 X119.173 Y106.723 E26.4836 F3600
G0 X118.607 Y106.723 F7200
G1 X118.048 Y106.164 E26.5099 F3600
G0 X125.525 Y93.277 F7200
G1 X138.485 Y106.237 E27.1195 F3600
G0 X138.485 Y105.671 F7200
G1 X126.091 Y93.277 E27.7025 F3600
G0 X126.657 Y93.277 F7200
G1 X138.485 Y105.105 E28.2588 F3600
G0 X138.485 Y104.540 F7200
G1 X127.223 Y93.277 E28.7886 F3600
G0 X127.788 Y93.277 F7200
G1 X138.485 Y103.974 E29.2918 F3600
G0 X138.485 Y103.408 F7200
G1 X128.354 Y93.277 E29.7683 F3600
G0 X128.920 Y93.277 F7200
G1 X138.485 Y102.843 E30.2183 F3600
G0 X138.485 Y102.277 F7200
G1 X129.485 Y93.277 E30.6416 F3600
G0 X130.051 Y93.277 F7200
G1 X138.485 Y101.711 E31.0384 F3600
G0 X138.485 Y101.146 F7200
G1 X130.617 Y93.277 E31.4085 F3600
G0 X131.182 Y93.277 F7200
G1 X138.485 Y100.580 E31.7520 F3600
G0 X138.485 Y100.014 F7200
G1 X131.748 Y93.277 E32.0689 F3600
G0 X132.314 Y93.277 F7200
G1 X138.485 Y99.449 E32.3592 F3600
G0 X138.485 Y98.883 F7200
G1 X132.879 Y93.277 E32.6229 F3600
G0 X133.445 Y93.277 F7200
G1 X138.485 Y98.317 E32.8600 F3600
G0 X138.485 Y97.752 F7200
G1 X134.011 Y93.277 E33.0705 F3600
G0 X134.576 Y93.277 F7200
G1 X138.485 Y97.186 E33.2543 F3600
G0 X138.485 Y96.620 F7200
G1 X135.142 Y93.277 E33.4116 F3600
G0 X135.708 Y93.277 F7200
G1 X138.485 Y96.055 E33.5422 F3600
G0 X138.485 Y95.489 F7200
G1 X136.273 Y93.277 E33.6463 F3600
G0 X136.839 Y93.277 F7200
G1 X138.485 Y94.923 E33.7237 F3600
G0 X138.485 Y94.357 F7200
G1 X137.405 Y93.277 E33.7745 F3600
G0 X137.971 Y93.277 F7200
G1 X138.485 Y93.792 E33.7988 F3600
; ------------------------------------
; Layer #5
; ------------------------------------
M106 S255 ;set fan speed
G21 ; mm
G90 ; abs
G92 E0 ;reset extr
;segType:SupportTouch
G0 F4800 E-1.0000
G0 F1200 Z1.200
G0 X138.077 Y108.084 F7200
G0 F4800 E0.0000
G1 X138.077 Y108.532 E0.0127 F5400
G1 X136.277 Y108.532 E0.0636
G1 X136.277 Y108.084 E0.0762
;segType:Support
G0 X138.446 Y108.128 F7200
G1 X138.416 Y108.128 E0.0771 F5400
G1 X138.273 Y108.084 E0.0813
G1 X140.216 Y109.928 E0.1571
G1 X138.416 Y109.928 E0.2079
G1 X138.143 Y109.844 E0.2160
G1 X136.343 Y109.844 E0.2669
G1 X135.843 Y109.868 E0.2810
G1 X134.043 Y109.868 E0.3319
G1 X133.461 Y109.853 E0.3484
G1 X131.661 Y109.853 E0.3993
G1 X131.262 Y109.809 E0.4106
G1 X129.462 Y109.809 E0.4615
G1 X129.091 Y109.728 E0.4723
G1 X127.291 Y109.728 E0.5232
G1 X126.821 Y109.950 E0.5379
G1 X125.021 Y109.950 E0.5887
G1 X124.491 Y109.874 E0.6039
G1 X122.691 Y109.874 E0.6548
G1 X122.303 Y109.763 E0.6662
G1 X120.503 Y109.763 E0.7171
G1 X120.243 Y109.919 E0.7256
G1 X118.443 Y109.919 E0.7765
G1 X118.212 Y109.813 E0.7837
G1 X116.412 Y109.813 E0.8346
G1 X118.365 Y108.084 E0.9084
G1 X118.443 Y108.119 E0.9108
G1 X120.243 Y108.119 E0.9617
G1 X120.301 Y108.084 E0.9636
G0 X124.443 Y108.084 F7200
G1 X125.021 Y108.150 E0.9800 F5400
G1 X126.821 Y108.150 E1.0309
G1 X126.961 Y108.084 E1.0353
G0 F4800 E0.0353
G0 X118.412 Y103.382 F7200
G0 X116.275 Y102.206
G0 X114.138 Y101.031
G0 X112.001 Y99.855
G0 F4800 E1.0353
;segType:HShell
G0 X111.573 Y100.000 F7200
G1 X112.422 Y100.000 E1.0541 F3600
G1 X112.988 Y100.000 E1.0730
G1 X113.553 Y100.000 E1.0918
G1 X114.119 Y100.000 E1.1106
G1 X114.685 Y100.000 E1.1294
G1 X115.250 Y100.000 E1.1482
G1 X115.816 Y100.000 E1.1670
;segType:Loop
G0 X117.087 Y99.051 F7200
G1 X117.087 Y101.008 E1.2321 F3600
G1 X117.047 Y100.905 E1.2358
G1 X110.938 Y100.905 E1.4390
G1 X110.938 Y99.095 E1.4992
G1 X117.047 Y99.095 E1.7024
G1 X117.061 Y99.048 E1.7040
;segType:Perimeter
G0 X116.888 Y99.435 F7200
G1 X116.888 Y98.635 E1.7306 F2159
G1 X116.888 Y92.117 E1.9474
G1 X117.487 Y92.117 E1.9674
G1 X117.487 Y107.883 E2.4918
G1 X116.888 Y107.883 E2.5117
G1 X116.888 Y101.305 E2.7305
G1 X110.538 Y101.305 E2.9417
G1 X110.538 Y98.695 E3.0285
G1 X116.828 Y98.695 E3.2377
G0 X117.287 Y98.695 F7200
;segType:Loop
G0 X116.687 Y100.151
G1 X116.687 Y100.505 E3.2494 F3600
G1 X111.338 Y100.505 E3.4274
G1 X111.338 Y99.495 E3.4609
G1 X116.687 Y99.495 E3.6388
G1 X116.687 Y99.951 E3.6540
;segType:Support
G0 F4800 E2.6540
G0 X116.351 Y90.047 F7200
G0 F4800 E3.6540
G1 X118.151 Y90.047 E3.7049 F5400
G1 X120.359 Y90.073 E3.7673
G1 X124.309 Y90.078 E3.8790
G1 X124.617 Y90.040 E3.8878
G1 X126.417 Y90.040 E3.9386
G1 X126.912 Y90.023 E3.9526
G1 X128.712 Y90.023 E4.0035
G1 X129.297 Y90.040 E4.0201
G1 X131.097 Y90.040 E4.0710
G1 X131.402 Y90.078 E4.0797
G1 X135.340 Y90.079 E4.1910
G1 X135.766 Y90.049 E4.2031
G1 X137.566 Y90.049 E4.2539
G1 X137.857 Y90.095 E4.2623
G1 X139.657 Y90.095 E4.3132
G1 X138.446 Y91.895 E4.3745
G1 X137.992 Y91.895 E4.3874
G1 X137.566 Y91.849 E4.3995
G1 X135.900 Y91.849 E4.4465
G1 X135.340 Y91.879 E4.4624
G1 X131.536 Y91.878 E4.5699
G1 X131.097 Y91.840 E4.5824
G1 X129.431 Y91.840 E4.6295
G1 X128.712 Y91.823 E4.6498
G1 X127.046 Y91.823 E4.6969
G1 X126.417 Y91.840 E4.7147
G1 X124.748 Y91.840 E4.7619
G1 X124.309 Y91.878 E4.7744
G1 X120.493 Y91.873 E4.8822
G1 X118.151 Y91.847 E4.9485
G1 X118.088 Y91.847 E4.9503
;segType:Loop
G0 F4800 E3.9503
G0 X139.446 Y101.023 F7200
G0 F4800 E4.9503
G1 X139.446 Y98.951 E5.0192 F3600
G1 X139.447 Y99.077 E5.0233
G1 X145.596 Y99.077 E5.2278
G1 X145.596 Y100.924 E5.2892
G1 X139.447 Y100.924 E5.4937
G1 X139.447 Y101.023 E5.4970
;segType:Perimeter
G0 X139.379 Y107.110 F7200
G1 X139.586 Y107.883 E5.5236 F2159
G1 X139.046 Y107.883 E5.5416
G1 X139.046 Y92.117 E6.0660
G1 X139.646 Y92.117 E6.0859
G1 X139.646 Y98.677 E6.3041
G1 X145.996 Y98.677 E6.5153
G1 X145.996 Y101.324 E6.6033
G1 X139.646 Y101.324 E6.8145
G1 X139.646 Y107.823 E7.0307
G0 X139.239 Y107.714 F7200
G0 X139.646 Y102.509
G0 X139.646 Y101.324
G0 X139.738 Y101.324
G0 X139.738 Y101.324
G0 X139.848 Y99.910
;segType:Loop
G0 X139.847 Y99.923
G1 X139.847 Y99.477 E7.0455 F3600
G1 X145.196 Y99.477 E7.2234
G1 X145.196 Y100.524 E7.2582
G1 X139.847 Y100.524 E7.4361
G1 X139.847 Y100.123 E7.4495
;segType:HShell
G0 X140.423 Y100.000 F7200
G1 X141.272 Y100.000 E7.4683 F3600
G1 X141.837 Y100.000 E7.4871
G1 X142.403 Y100.000 E7.5059
G1 X142.969 Y100.000 E7.5247
G1 X143.534 Y100.000 E7.5435
G1 X144.100 Y100.000 E7.5624
G1 X144.666 Y100.000 E7.5812
; ------------------------------------
; Layer #6
; ------------------------------------
M106 S255 ;set fan speed
G21 ; mm
G90 ; abs
G92 E0 ;reset extr
;segType:SoftSupport
G0 F4800 E-1.0000
G0 F1200 Z1.400
G0 X118.088 Y102.350 F7200
G0 F4800 E0.0000
G1 X119.610 Y102.350 E0.0253 F5400
G1 X119.610 Y100.550 E0.0553
G1 X118.088 Y100.550 E0.0806 F5400
G0 F4800 E-0.9194
G0 X115.958 Y100.305 F7200
G0 X111.698 Y99.814
G0 F4800 E0.0806
;segType:HShell
G1 X112.360 Y100.476 E0.1117 F3600
G0 X112.926 Y100.476 F7200
G1 X111.973 Y99.524 E0.1565 F3600
G0 X112.539 Y99.524 F7200
G1 X113.492 Y100.476 E0.2013 F3600
G0 X114.057 Y100.476 F7200
G1 X113.105 Y99.524 E0.2461 F3600
G0 X113.670 Y99.524 F7200
G1 X114.623 Y100.476 E0.2909 F3600
G0 X115.189 Y100.476 F7200
G1 X114.236 Y99.524 E0.3358 F3600
G0 X114.802 Y99.524 F7200
G1 X115.754 Y100.476 E0.3806 F3600
G0 X116.320 Y100.476 F7200
G1 X115.367 Y99.524 E0.4254 F3600
G0 X115.933 Y99.524 F7200
G1 X116.327 Y99.918 E0.4439 F3600
;segType:Perimeter
G0 X116.888 Y99.104 F7200
G1 X116.888 Y98.304 E0.4705 F2159
G1 X116.888 Y92.117 E0.6763
G1 X117.487 Y92.117 E0.6962
G1 X117.487 Y107.883 E1.2206
G1 X116.888 Y107.883 E1.2406
G1 X116.888 Y101.637 E1.4483
G1 X110.538 Y101.637 E1.6595
G1 X110.538 Y98.364 E1.7684
G1 X116.828 Y98.364 E1.9776
G0 X117.287 Y98.364 F7200
;segType:Loop
G0 X117.087 Y98.708
G1 X117.087 Y101.351 E2.0655 F3600
G1 X117.047 Y101.237 E2.0695
G1 X110.938 Y101.237 E2.2727
G1 X110.938 Y98.764 E2.3549
G1 X117.047 Y98.764 E2.5581
G1 X117.062 Y98.705 E2.5601
G0 X116.687 Y99.808 F7200
G1 X116.687 Y100.837 E2.5943 F3600
G1 X111.338 Y100.837 E2.7723
G1 X111.338 Y99.164 E2.8279
G1 X116.687 Y99.164 E3.0058
G1 X116.687 Y99.608 E3.0206
;segType:SoftSupport
G0 F4800 E2.0206
G0 X118.088 Y94.500 F7200
G0 F4800 E3.0206
G1 X119.651 Y94.500 E3.0466 F5400
G1 X119.651 Y92.700 E3.0765
G1 X118.088 Y92.700 E3.1025 F5400
;segType:Support
G0 X118.088 Y91.847 F7200
G1 X118.151 Y91.847 E3.1043 F5400
G1 X120.518 Y91.873 E3.1712
G1 X124.309 Y91.878 E3.2784
G1 X124.772 Y91.840 E3.2915
G1 X126.417 Y91.840 E3.3381
G1 X127.070 Y91.823 E3.3565
G1 X128.712 Y91.823 E3.4029
G1 X129.455 Y91.840 E3.4240
G1 X131.097 Y91.840 E3.4704
G1 X131.561 Y91.878 E3.4835
G1 X135.340 Y91.879 E3.5904
G1 X135.925 Y91.849 E3.6069
G1 X137.566 Y91.849 E3.6533
G1 X138.016 Y91.895 E3.6661
G1 X138.446 Y91.895 E3.6783
G1 X139.657 Y90.095 E3.7396
G1 X137.857 Y90.095 E3.7905
G1 X137.566 Y90.049 E3.7988
G1 X135.766 Y90.049 E3.8497
G1 X135.340 Y90.079 E3.8618
G1 X131.402 Y90.078 E3.9731
G1 X131.097 Y90.040 E3.9818
G1 X129.297 Y90.040 E4.0327
G1 X128.712 Y90.023 E4.0493
G1 X126.912 Y90.023 E4.1001
G1 X126.417 Y90.040 E4.1141
G1 X124.617 Y90.040 E4.1650
G1 X124.309 Y90.078 E4.1738
G1 X120.359 Y90.073 E4.2855
G1 X118.151 Y90.047 E4.3479
G1 X116.351 Y90.047 E4.3988
;segType:SupportTouch
G0 X119.969 Y91.139 F7200
G1 X119.969 Y91.916 E4.4207 F5400
;segType:SoftSupport
G1 X119.969 Y92.939 E4.4377 F5400
G1 X118.169 Y92.939 E4.4677
G1 X118.169 Y91.916 E4.4847
;segType:SupportTouch
G1 X118.169 Y91.139 E4.5067 F5400
G1 X119.969 Y91.139 E4.5575
;segType:SoftSupport
G0 X120.206 Y94.619 F7200
G1 X120.206 Y96.419 E4.5875 F5400
G1 X118.406 Y96.419 E4.6174
G1 X118.406 Y94.619 E4.6473
G1 X120.206 Y94.619 E4.6773
G0 X119.650 Y96.783 F7200
G1 X118.088 Y96.783 E4.7033 F5400
G0 X118.088 Y98.583 F7200
G1 X119.650 Y98.583 E4.7292 F5400
G1 X119.650 Y96.783 E4.7592
G0 X120.283 Y98.674 F7200
G1 X120.283 Y100.474 E4.7891 F5400
G1 X118.483 Y100.474 E4.8190
G1 X118.483 Y98.674 E4.8490
G1 X120.283 Y98.674 E4.8789
;segType:SupportTouch
G0 F4800 E3.8789
G0 X137.340 Y91.536 F7200
G0 F4800 E4.8789
G1 X135.540 Y91.536 E4.9298 F5400
G1 X135.540 Y91.916 E4.9406
;segType:SoftSupport
G1 X135.540 Y93.336 E4.9642 F5400
G1 X137.340 Y93.336 E4.9941
G1 X137.340 Y91.916 E5.0177
;segType:SupportTouch
G1 X137.340 Y91.536 E5.0285 F5400
;segType:SoftSupport
G0 X137.677 Y93.899 F7200
G1 X137.677 Y95.699 E5.0584 F5400
G1 X135.877 Y95.699 E5.0883
G1 X135.877 Y93.899 E5.1183
G1 X137.677 Y93.899 E5.1482
G0 X137.747 Y96.362 F7200
G1 X135.947 Y96.362 E5.1781 F5400
G1 X135.947 Y98.162 E5.2081
G1 X137.747 Y98.162 E5.2380
G1 X137.747 Y96.362 E5.2679
G0 X137.931 Y98.944 F7200
G1 X137.931 Y100.744 E5.2979 F5400
G1 X136.131 Y100.744 E5.3278
G1 X136.131 Y98.944 E5.3577
G1 X137.931 Y98.944 E5.3877
;segType:Loop
G0 X139.446 Y101.251 F7200
G1 X139.446 Y98.608 E5.4756 F3600
G1 X139.447 Y98.773 E5.4810
G1 X145.596 Y98.773 E5.6855
G1 X145.596 Y101.228 E5.7672
G1 X139.447 Y101.228 E5.9717
G1 X139.447 Y101.251 E5.9725
;segType:Perimeter
G0 X139.379 Y107.110 F7200
G1 X139.586 Y107.883 E5.9991 F2159
G1 X139.046 Y107.883 E6.0170
G1 X139.046 Y92.117 E6.5414
G1 X139.646 Y92.117 E6.5613
G1 X139.646 Y98.373 E6.7694
G1 X145.996 Y98.373 E6.9806
G1 X145.996 Y101.628 E7.0889
G1 X139.646 Y101.628 E7.3001
G1 X139.646 Y107.823 E7.5061
G0 X139.239 Y107.714 F7200
G0 X139.646 Y102.662
G0 X139.646 Y101.628
G0 X139.729 Y101.628
G0 X139.729 Y101.628
G0 X139.848 Y100.139
;segType:Loop
G0 X139.847 Y100.151
G1 X139.847 Y99.173 E7.5387 F3600
G1 X145.196 Y99.173 E7.7166
G1 X145.196 Y100.828 E7.7716
G1 X139.847 Y100.828 E7.9495
G1 X139.847 Y100.351 E7.9653
;segType:HShell
G0 X144.835 Y100.142 F7200
G1 X144.226 Y99.533 E7.9940 F3600
G0 X143.661 Y99.533 F7200
G1 X144.595 Y100.467 E8.0380 F3600
G0 X144.030 Y100.467 F7200
G1 X143.095 Y99.533 E8.0819 F3600
G0 X142.529 Y99.533 F7200
G1 X143.464 Y100.467 E8.1259 F3600
G0 X142.898 Y100.467 F7200
G1 X141.964 Y99.533 E8.1699 F3600
G0 X141.398 Y99.533 F7200
G1 X142.333 Y100.467 E8.2138 F3600
G0 X141.767 Y100.467 F7200
G1 X140.832 Y99.533 E8.2578 F3600
G0 X140.267 Y99.533 F7200
G1 X141.201 Y100.467 E8.3018 F3600
G0 X140.636 Y100.467 F7200
G1 X140.207 Y100.039 E8.3219 F3600
;segType:SoftSupport
G0 X137.991 Y101.767 F7200
G1 X137.991 Y103.567 E8.3519 F5400
G1 X136.191 Y103.567 E8.3818
G1 X136.191 Y101.767 E8.4117
G1 X137.991 Y101.767 E8.4417
G0 X138.028 Y104.505 F7200
G1 X136.228 Y104.505 E8.4716 F5400
G1 X136.228 Y106.305 E8.5015
G1 X138.028 Y106.305 E8.5315
G1 X138.028 Y104.505 E8.5614
G0 X138.077 Y106.732 F7200
G1 X136.277 Y106.732 E8.5913 F5400
G1 X136.277 Y108.084 E8.6138
;segType:SupportTouch
G1 X136.277 Y108.532 E8.6265 F5400
G1 X138.077 Y108.532 E8.6774
G1 X138.077 Y108.084 E8.6900
;segType:SoftSupport
G1 X138.077 Y106.732 E8.7125 F5400
;segType:Support
G0 F4800 E7.7125
G0 X126.961 Y108.084 F7200
G0 F4800 E8.7125
G1 X126.821 Y108.150 E8.7169 F5400
G1 X125.021 Y108.150 E8.7678
G1 X124.557 Y108.084 E8.7810
;segType:SoftSupport
G1 X124.491 Y108.074 E8.7821 F5400
G1 X122.691 Y108.074 E8.8121
G1 X122.303 Y107.963 E8.8188
G1 X120.503 Y107.963 E8.8487
G1 X120.301 Y108.084 E8.8526
;segType:Support
G1 X120.243 Y108.119 E8.8546 F5400
G1 X118.443 Y108.119 E8.9055
G1 X118.365 Y108.084 E8.9079
;segType:SoftSupport
G0 X118.088 Y108.013 F7200
G1 X118.212 Y108.013 E8.9099 F5400
G1 X118.365 Y108.084 E8.9127
;segType:Support
G0 X116.412 Y109.813 F7200
G1 X118.212 Y109.813 E8.9636 F5400
G1 X118.443 Y109.919 E8.9708
G1 X120.243 Y109.919 E9.0217
G1 X120.503 Y109.763 E9.0303
G1 X122.303 Y109.763 E9.0812
G1 X122.691 Y109.874 E9.0926
G1 X124.491 Y109.874 E9.1435
G1 X125.021 Y109.950 E9.1586
G1 X126.821 Y109.950 E9.2095
G1 X127.291 Y109.728 E9.2242
G1 X129.091 Y109.728 E9.2751
G1 X129.462 Y109.809 E9.2858
G1 X131.262 Y109.809 E9.3367
G1 X131.661 Y109.853 E9.3480
G1 X133.461 Y109.853 E9.3989
G1 X134.043 Y109.868 E9.4154
G1 X135.843 Y109.868 E9.4663
G1 X136.343 Y109.844 E9.4804
G1 X138.143 Y109.844 E9.5313
G1 X138.416 Y109.928 E9.5394
G1 X140.216 Y109.928 E9.5903
G1 X138.446 Y108.128 E9.6617
G1 X138.416 Y108.128 E9.6625
G1 X138.273 Y108.084 E9.6667
;segType:SoftSupport
G1 X138.143 Y108.044 E9.6690 F5400
G1 X136.343 Y108.044 E9.6989
G1 X135.689 Y108.068 E9.7098
G1 X134.043 Y108.068 E9.7372
G1 X133.306 Y108.053 E9.7494
G1 X131.661 Y108.053 E9.7768
G1 X131.108 Y108.009 E9.7860
G1 X129.462 Y108.009 E9.8134
G1 X129.091 Y107.928 E9.8197
G1 X127.291 Y107.928 E9.8497
G1 X126.961 Y108.084 E9.8557
G0 F4800 E8.8557
G0 X120.635 Y105.446 F7200
G0 F4800 E9.8557
G1 X120.635 Y107.246 E9.8857 F5400
G1 X118.835 Y107.246 E9.9156
G1 X118.835 Y105.446 E9.9455
G1 X120.635 Y105.446 E9.9755
G0 X120.527 Y103.533 F7200
G1 X118.727 Y103.533 E10.0054 F5400
G1 X118.727 Y105.333 E10.0353
G1 X120.527 Y105.333 E10.0653
G1 X120.527 Y103.533 E10.0952
; ------------------------------------
; Layer #7
; ------------------------------------
M106 S255 ;set fan speed
G21 ; mm
G90 ; abs
G92 E0 ;reset extr
;segType:Support
G0 F4800 E-1.0000
G0 F1200 Z1.600
G0 X118.088 Y108.013 F7200
G0 F4800 E0.0000
G1 X118.212 Y108.013 E0.0035 F5400
G1 X118.443 Y108.119 E0.0107
G1 X120.243 Y108.119 E0.0616
G1 X120.503 Y107.963 E0.0702
G1 X122.303 Y107.963 E0.1210
G1 X122.691 Y108.074 E0.1325
G1 X124.491 Y108.074 E0.1833
G1 X125.021 Y108.150 E0.1985
G1 X126.821 Y108.150 E0.2494
G1 X127.291 Y107.928 E0.2641
G1 X129.091 Y107.928 E0.3150
G1 X129.462 Y108.009 E0.3257
G1 X131.084 Y108.009 E0.3716
G1 X131.661 Y108.053 E0.3879
G1 X133.283 Y108.053 E0.4338
G1 X134.043 Y108.068 E0.4553
G1 X135.665 Y108.068 E0.5011
G1 X136.343 Y108.044 E0.5203
G1 X138.143 Y108.044 E0.5712
G1 X138.416 Y108.128 E0.5793
G1 X138.446 Y108.128 E0.5801
;segType:SupportTouch
G0 X138.077 Y106.732 F7200
G1 X136.277 Y106.732 E0.6310 F5400
G1 X136.277 Y108.532 E0.6819
G1 X138.077 Y108.532 E0.7328
G1 X138.077 Y106.732 E0.7837
G0 X138.028 Y104.505 F7200
G1 X138.028 Y106.305 E0.8345 F5400
G1 X136.228 Y106.305 E0.8854
G1 X136.228 Y104.505 E0.9363
G1 X138.028 Y104.505 E0.9872
G0 X137.991 Y101.767 F7200
G1 X136.191 Y101.767 E1.0381 F5400
G1 X136.191 Y103.567 E1.0890
G1 X137.991 Y103.567 E1.1399
G1 X137.991 Y101.767 E1.1908
;segType:Loop
G0 X139.446 Y101.480 F7200
G1 X139.446 Y98.380 E1.2939 F3600
G1 X139.447 Y98.515 E1.2983
G1 X145.596 Y98.515 E1.5028
G1 X145.596 Y101.485 E1.6016
G1 X139.453 Y101.485 E1.8060
;segType:Perimeter
G0 X139.379 Y107.110 F7200
G1 X139.586 Y107.883 E1.8326 F2159
G1 X139.046 Y107.883 E1.8505
G1 X139.046 Y92.117 E2.3749
G1 X139.646 Y92.117 E2.3948
G1 X139.646 Y98.115 E2.5943
G1 X145.996 Y98.115 E2.8055
G1 X145.996 Y101.885 E2.9309
G1 X139.646 Y101.885 E3.1421
G1 X139.646 Y107.823 E3.3396
G0 X139.239 Y107.714 F7200
G0 X139.646 Y102.815
G0 X139.646 Y101.885
G0 X139.723 Y101.885
G0 X139.723 Y101.885
G0 X139.848 Y100.367
;segType:Loop
G0 X139.847 Y100.380
G1 X139.847 Y98.915 E3.3884 F3600
G1 X145.196 Y98.915 E3.5662
G1 X145.196 Y101.085 E3.6384
G1 X139.847 Y101.085 E3.8163
G1 X139.847 Y100.580 E3.8331
;segType:HShell
G0 X144.506 Y100.725 F7200
G1 X144.835 Y100.396 E3.8486 F3600
G0 X144.835 Y99.830 F7200
G1 X143.941 Y100.725 E3.8907 F3600
G0 X143.375 Y100.725 F7200
G1 X144.825 Y99.275 E3.9589 F3600
G0 X144.260 Y99.275 F7200
G1 X142.809 Y100.725 E4.0272 F3600
G0 X142.244 Y100.725 F7200
G1 X143.694 Y99.275 E4.0954 F3600
G0 X143.128 Y99.275 F7200
G1 X141.678 Y100.725 E4.1636 F3600
G0 X141.112 Y100.725 F7200
G1 X142.563 Y99.275 E4.2319 F3600
G0 X141.997 Y99.275 F7200
G1 X140.546 Y100.725 E4.3001 F3600
G0 X140.207 Y100.499 F7200
G1 X141.431 Y99.275 E4.3576 F3600
G0 X140.866 Y99.275 F7200
G1 X140.207 Y99.933 E4.3886 F3600
;segType:SupportTouch
G0 X137.931 Y98.944 F7200
G1 X136.131 Y98.944 E4.4395 F5400
G1 X136.131 Y100.744 E4.4904
G1 X137.931 Y100.744 E4.5413
G1 X137.931 Y98.944 E4.5922
G0 X137.747 Y96.362 F7200
G1 X137.747 Y98.162 E4.6430 F5400
G1 X135.947 Y98.162 E4.6939
G1 X135.947 Y96.362 E4.7448
G1 X137.747 Y96.362 E4.7957
G0 F4800 E3.7957
G0 X119.969 Y91.139 F7200
G0 F4800 E4.7957
G1 X119.969 Y92.939 E4.8466 F5400
G1 X118.169 Y92.939 E4.8975
G1 X118.169 Y91.139 E4.9484
G1 X119.969 Y91.139 E4.9993
;segType:Support
G0 X116.351 Y90.047 F7200
G1 X118.151 Y90.047 E5.0501 F5400
G1 X120.359 Y90.073 E5.1126
G1 X124.309 Y90.078 E5.2242
G1 X124.617 Y90.040 E5.2330
G1 X126.417 Y90.040 E5.2839
G1 X126.912 Y90.023 E5.2979
G1 X128.712 Y90.023 E5.3488
G1 X129.297 Y90.040 E5.3653
G1 X131.097 Y90.040 E5.4162
G1 X131.402 Y90.078 E5.4249
G1 X135.340 Y90.079 E5.5362
G1 X135.766 Y90.049 E5.5483
G1 X137.566 Y90.049 E5.5992
G1 X137.857 Y90.095 E5.6075
G1 X139.657 Y90.095 E5.6584
;segType:SupportTouch
G0 X137.340 Y91.536 F7200
G1 X137.340 Y93.336 E5.7093 F5400
G1 X135.540 Y93.336 E5.7602
G1 X135.540 Y91.536 E5.8111
G1 X137.340 Y91.536 E5.8620
G0 X137.677 Y93.899 F7200
G1 X137.677 Y95.699 E5.9129 F5400
G1 X135.877 Y95.699 E5.9637
G1 X135.877 Y93.899 E6.0146
G1 X137.677 Y93.899 E6.0655
;segType:Support
G0 X138.446 Y91.895 F7200
G1 X138.040 Y91.895 E6.0770 F5400
G1 X137.566 Y91.849 E6.0905
G1 X135.949 Y91.849 E6.1362
G1 X135.340 Y91.879 E6.1534
G1 X131.585 Y91.878 E6.2596
G1 X131.097 Y91.840 E6.2734
G1 X129.480 Y91.840 E6.3191
G1 X128.712 Y91.823 E6.3409
G1 X127.095 Y91.823 E6.3866
G1 X126.417 Y91.840 E6.4057
G1 X124.795 Y91.840 E6.4516
G1 X124.309 Y91.878 E6.4654
G1 X120.542 Y91.873 E6.5719
G1 X118.151 Y91.847 E6.6395
G1 X118.088 Y91.847 E6.6413
;segType:SupportTouch
G0 X118.088 Y92.700 F7200
G1 X119.651 Y92.700 E6.6855 F5400
G1 X119.651 Y94.500 E6.7363 F5400
G1 X118.088 Y94.500 E6.7805
G0 X120.206 Y94.619 F7200
G1 X118.406 Y94.619 E6.8314 F5400
G1 X118.406 Y96.419 E6.8823
G1 X120.206 Y96.419 E6.9332
G1 X120.206 Y94.619 E6.9841
G0 X120.283 Y98.674 F7200
G1 X120.283 Y100.474 E7.0350 F5400
G1 X118.483 Y100.474 E7.0859
G1 X118.483 Y98.674 E7.1368
G1 X120.283 Y98.674 E7.1876
G0 X118.088 Y98.583 F7200
G1 X119.650 Y98.583 E7.2318 F5400
G1 X119.650 Y96.783 E7.2827
G1 X118.088 Y96.783 E7.3269 F5400
G0 F4800 E6.3269
G0 X115.900 Y98.029 F7200
G0 X113.711 Y99.276
G0 F4800 E7.3269
;segType:HShell
G1 X112.263 Y100.724 E7.3950 F3600
G0 X112.829 Y100.724 F7200
G1 X114.277 Y99.276 E7.4631 F3600
G0 X114.843 Y99.276 F7200
G1 X113.395 Y100.724 E7.5312 F3600
G0 X113.960 Y100.724 F7200
G1 X115.409 Y99.276 E7.5993 F3600
G0 X115.974 Y99.276 F7200
G1 X114.526 Y100.724 E7.6674 F3600
G0 X115.092 Y100.724 F7200
G1 X116.327 Y99.489 E7.7255 F3600
;segType:Perimeter
G0 X116.888 Y98.856 F7200
G1 X116.888 Y98.056 E7.7521 F2159
G1 X116.888 Y92.117 E7.9497
G1 X117.487 Y92.117 E7.9696
G1 X117.487 Y107.883 E8.4940
G1 X116.888 Y107.883 E8.5139
G1 X116.888 Y101.884 E8.7135
G1 X110.538 Y101.884 E8.9246
G1 X110.538 Y98.116 E9.0500
G1 X116.828 Y98.116 E9.2592
G0 X117.287 Y98.116 F7200
;segType:Loop
G0 X117.087 Y98.480
G1 X117.087 Y101.580 E9.3623 F3600
G1 X117.047 Y101.484 E9.3657
G1 X110.938 Y101.484 E9.5689
G1 X110.938 Y98.516 E9.6677
G1 X117.047 Y98.516 E9.8708
G1 X117.059 Y98.476 E9.8722
G0 X116.687 Y99.580 F7200
G1 X116.687 Y101.084 E9.9223 F3600
G1 X111.338 Y101.084 E10.1002
G1 X111.338 Y98.916 E10.1723
G1 X116.687 Y98.916 E10.3502
G1 X116.687 Y99.380 E10.3656
;segType:HShell
G0 X116.327 Y100.055 F7200
G1 X115.658 Y100.724 E10.3971 F3600
G0 X111.698 Y99.592 F7200
G1 X112.014 Y99.276 E10.4120 F3600
G0 X112.580 Y99.276 F7200
G1 X111.698 Y100.158 E10.4535 F3600
G0 X111.698 Y100.724 F7200
G1 X113.146 Y99.276 E10.5216 F3600
;segType:SupportTouch
G0 F4800 E9.5216
G0 X118.088 Y100.550 F7200
G0 F4800 E10.5216
G1 X119.610 Y100.550 E10.5646 F5400
G1 X119.610 Y102.350 E10.6155 F5400
G1 X118.088 Y102.350 E10.6585
G0 X120.527 Y103.533 F7200
G1 X118.727 Y103.533 E10.7094 F5400
G1 X118.727 Y105.333 E10.7603
G1 X120.527 Y105.333 E10.8112
G1 X120.527 Y103.533 E10.8621
G0 X120.635 Y105.446 F7200
G1 X120.635 Y107.246 E10.9130 F5400
G1 X118.835 Y107.246 E10.9639
G1 X118.835 Y105.446 E11.0148
G1 X120.635 Y105.446 E11.0656
;segType:Support
G0 F4800 E10.0656
G0 X140.216 Y109.928 F7200
G0 F4800 E11.0656
G1 X138.416 Y109.928 E11.1165 F5400
G1 X138.143 Y109.844 E11.1246
G1 X136.343 Y109.844 E11.1755
G1 X135.843 Y109.868 E11.1896
G1 X134.043 Y109.868 E11.2405
G1 X133.461 Y109.853 E11.2570
G1 X131.661 Y109.853 E11.3079
G1 X131.262 Y109.809 E11.3192
G1 X129.462 Y109.809 E11.3701
G1 X129.091 Y109.728 E11.3809
G1 X127.291 Y109.728 E11.4317
G1 X126.821 Y109.950 E11.4464
G1 X125.021 Y109.950 E11.4973
G1 X124.491 Y109.874 E11.5125
G1 X122.691 Y109.874 E11.5634
G1 X122.303 Y109.763 E11.5748
G1 X120.503 Y109.763 E11.6257
G1 X120.243 Y109.919 E11.6342
G1 X118.443 Y109.919 E11.6851
G1 X118.212 Y109.813 E11.6923
G1 X116.412 Y109.813 E11.7432
; ------------------------------------
; Layer #8
; ------------------------------------
M106 S255 ;set fan speed
G21 ; mm
G90 ; abs
G92 E0 ;reset extr
;segType:Support
G0 F4800 E-1.0000
G0 F1200 Z1.800
G0 X136.131 Y100.744 F7200
G0 F4800 E0.0000
G1 X137.931 Y100.744 E0.0509 F5400
G1 X137.991 Y101.767 E0.0798
G1 X136.191 Y101.767 E0.1307
G0 X136.228 Y104.505 F7200
G1 X138.028 Y104.505 E0.1816 F5400
G0 X136.277 Y106.732 F7200
G1 X138.049 Y106.732 E0.2317 F5400
G1 X138.028 Y106.305 E0.2438
G1 X136.228 Y106.305 E0.2947
G0 X136.191 Y103.567 F7200
G1 X137.991 Y103.567 E0.3456 F5400
;segType:Loop
G0 X139.446 Y101.708 F7200
G1 X139.446 Y98.151 E0.4639 F3600
G1 X139.447 Y98.306 E0.4690
G1 X145.596 Y98.306 E0.6735
G1 X145.596 Y101.694 E0.7862
G1 X139.447 Y101.694 E0.9907
G1 X139.447 Y101.708 E0.9912
;segType:Perimeter
G0 X139.379 Y107.110 F7200
G1 X139.586 Y107.883 E1.0178 F2159
G1 X139.046 Y107.883 E1.0357
G1 X139.046 Y92.117 E1.5601
G1 X139.646 Y92.117 E1.5801
G1 X139.646 Y97.906 E1.7726
G1 X145.996 Y97.906 E1.9838
G1 X145.996 Y102.094 E2.1231
G1 X139.646 Y102.094 E2.3343
G1 X139.646 Y107.823 E2.5249
G0 X139.239 Y107.714 F7200
G0 X139.646 Y102.967
G0 X139.646 Y102.094
G0 X139.720 Y102.094
G0 X139.720 Y102.094
G0 X139.848 Y100.596
;segType:Loop
G0 X139.847 Y100.608
G1 X139.847 Y98.706 E2.5881 F3600
G1 X145.196 Y98.706 E2.7660
G1 X145.196 Y101.294 E2.8521
G1 X139.847 Y101.294 E3.0300
G1 X139.847 Y100.808 E3.0461
;segType:HShell
G0 X140.207 Y100.605 F7200
G1 X140.536 Y100.934 E3.0616 F3600
G0 X141.102 Y100.934 F7200
G1 X140.207 Y100.039 E3.1037 F3600
G0 X140.207 Y99.474 F7200
G1 X141.668 Y100.934 E3.1724 F3600
G0 X142.233 Y100.934 F7200
G1 X140.366 Y99.066 E3.2602 F3600
G0 X140.931 Y99.066 F7200
G1 X142.799 Y100.934 E3.3481 F3600
G0 X143.365 Y100.934 F7200
G1 X141.497 Y99.066 E3.4360 F3600
G0 X142.063 Y99.066 F7200
G1 X143.930 Y100.934 E3.5238 F3600
G0 X144.496 Y100.934 F7200
G1 X142.628 Y99.066 E3.6117 F3600
G0 X143.194 Y99.066 F7200
G1 X144.835 Y100.708 E3.6889 F3600
G0 X144.835 Y100.142 F7200
G1 X143.760 Y99.066 E3.7395 F3600
G0 X144.325 Y99.066 F7200
G1 X144.835 Y99.576 E3.7635 F3600
;segType:Support
G0 F4800 E2.7635
G0 X139.657 Y90.095 F7200
G0 F4800 E3.7635
G1 X137.857 Y90.095 E3.8144 F5400
G1 X137.566 Y90.049 E3.8227
G1 X135.766 Y90.049 E3.8736
G1 X135.340 Y90.079 E3.8857
G1 X131.402 Y90.078 E3.9970
G1 X131.097 Y90.040 E4.0057
G1 X129.297 Y90.040 E4.0566
G1 X128.712 Y90.023 E4.0731
G1 X126.912 Y90.023 E4.1240
G1 X126.417 Y90.040 E4.1380
G1 X124.617 Y90.040 E4.1889
G1 X124.309 Y90.078 E4.1977
G1 X120.359 Y90.073 E4.3094
G1 X118.151 Y90.047 E4.3718
G1 X116.351 Y90.047 E4.4227
G0 F4800 E3.4227
G0 X117.509 Y94.438 F7200
G0 X118.088 Y96.634
G0 F4800 E4.4227
G1 X118.433 Y96.419 E4.4342 F5400
G1 X120.206 Y96.419 E4.4843
G0 X119.610 Y100.550 F7200
G1 X118.088 Y100.550 E4.5273 F5400
G1 X118.088 Y102.350 E4.5782
G1 X119.610 Y102.350 E4.6212
G1 X118.727 Y103.533 E4.6630
G1 X120.527 Y103.533 E4.7139
G1 X120.527 Y105.333 E4.7648
G1 X118.754 Y105.333 E4.8149
G1 X118.835 Y105.446 E4.8188
G1 X120.635 Y105.446 E4.8697
G1 X120.635 Y107.246 E4.9206
G1 X118.835 Y107.246 E4.9715
G1 X118.088 Y107.483 E4.9937
G1 X118.088 Y108.013 E5.0087
G1 X118.212 Y108.013 E5.0122
G1 X118.443 Y108.119 E5.0193
G1 X120.243 Y108.119 E5.0702
G1 X120.503 Y107.963 E5.0788
G1 X122.303 Y107.963 E5.1297
G1 X122.691 Y108.074 E5.1411
G1 X124.491 Y108.074 E5.1920
G1 X125.021 Y108.150 E5.2071
G1 X126.821 Y108.150 E5.2580
G1 X127.291 Y107.928 E5.2727
G1 X129.091 Y107.928 E5.3236
G1 X129.462 Y108.009 E5.3344
G1 X131.060 Y108.009 E5.3795
G1 X131.661 Y108.053 E5.3966
G1 X133.259 Y108.053 E5.4417
G1 X134.043 Y108.068 E5.4639
G1 X135.843 Y108.068 E5.5148
G1 X138.077 Y108.532 E5.5793
G1 X136.277 Y108.532 E5.6302
G1 X136.343 Y108.044 E5.6441
G1 X138.143 Y108.044 E5.6950
G1 X138.416 Y108.128 E5.7031
G1 X138.446 Y108.128 E5.7039
G1 X140.216 Y109.928 E5.7753
G1 X138.416 Y109.928 E5.8262
G1 X138.143 Y109.844 E5.8343
G1 X136.343 Y109.844 E5.8852
G1 X135.843 Y109.868 E5.8993
G1 X134.043 Y109.868 E5.9502
G1 X133.461 Y109.853 E5.9666
G1 X131.661 Y109.853 E6.0175
G1 X131.262 Y109.809 E6.0289
G1 X129.462 Y109.809 E6.0798
G1 X129.091 Y109.728 E6.0905
G1 X127.291 Y109.728 E6.1414
G1 X126.821 Y109.950 E6.1561
G1 X125.021 Y109.950 E6.2070
G1 X124.491 Y109.874 E6.2221
G1 X122.691 Y109.874 E6.2730
G1 X122.303 Y109.763 E6.2844
G1 X120.503 Y109.763 E6.3353
G1 X120.243 Y109.919 E6.3439
G1 X118.443 Y109.919 E6.3948
G1 X118.212 Y109.813 E6.4020
G1 X116.412 Y109.813 E6.4528
G0 F4800 E5.4528
G0 X115.412 Y103.153 F7200
G0 X115.079 Y100.933
G0 F4800 E6.4528
;segType:HShell
G1 X113.214 Y99.067 E6.5406 F3600
G0 X113.780 Y99.067 F7200
G1 X115.645 Y100.933 E6.6283 F3600
G0 X116.211 Y100.933 F7200
G1 X114.345 Y99.067 E6.7160 F3600
G0 X114.911 Y99.067 F7200
G1 X116.327 Y100.483 E6.7827 F3600
G0 X116.327 Y99.918 F7200
G1 X115.477 Y99.067 E6.8226 F3600
G0 X116.043 Y99.067 F7200
G1 X116.327 Y99.352 E6.8360 F3600
;segType:Perimeter
G0 X116.888 Y98.647 F7200
G1 X116.888 Y97.847 E6.8626 F2159
G1 X116.888 Y92.117 E7.0532
G1 X117.487 Y92.117 E7.0732
G1 X117.487 Y107.883 E7.5976
G1 X116.888 Y107.883 E7.6175
G1 X116.888 Y102.093 E7.8101
G1 X110.538 Y102.093 E8.0213
G1 X110.538 Y97.907 E8.1605
G1 X116.828 Y97.907 E8.3697
G0 X117.287 Y97.907 F7200
;segType:Loop
G0 X117.087 Y98.251
G1 X117.087 Y101.808 E8.4880 F3600
G1 X117.047 Y101.693 E8.4921
G1 X110.938 Y101.693 E8.6953
G1 X110.938 Y98.307 E8.8079
G1 X117.047 Y98.307 E9.0110
G1 X117.062 Y98.248 E9.0131
G0 X116.687 Y99.351 F7200
G1 X116.687 Y101.293 E9.0777 F3600
G1 X111.338 Y101.293 E9.2556
G1 X111.338 Y98.707 E9.3416
G1 X116.687 Y98.707 E9.5195
G1 X116.687 Y99.151 E9.5342
;segType:HShell
G0 X111.698 Y100.380 F7200
G1 X112.251 Y100.933 E9.5602 F3600
G0 X112.817 Y100.933 F7200
G1 X111.698 Y99.814 E9.6128 F3600
G0 X111.698 Y99.249 F7200
G1 X113.382 Y100.933 E9.6920 F3600
G0 X113.948 Y100.933 F7200
G1 X112.083 Y99.067 E9.7798 F3600
G0 X112.648 Y99.067 F7200
G1 X114.514 Y100.933 E9.8675 F3600
;segType:Support
G0 X118.088 Y100.520 F7200
G1 X118.510 Y100.474 E9.8795 F5400
G1 X120.283 Y100.474 E9.9297
G1 X120.283 Y98.674 E9.9805
G1 X118.483 Y98.674 E10.0314
G1 X118.088 Y98.615 E10.0427
G1 X118.088 Y98.583 E10.0436
G1 X119.650 Y98.583 E10.0878
G1 X119.650 Y96.783 E10.1387
G1 X118.088 Y96.783 E10.1829
G0 X119.651 Y94.500 F7200
G1 X118.088 Y94.500 E10.2270 F5400
G1 X118.088 Y94.547 E10.2284
G1 X118.406 Y94.619 E10.2376
G1 X120.206 Y94.619 E10.2885
G1 X118.169 Y92.939 E10.3631
G1 X119.969 Y92.939 E10.4140
G1 X119.651 Y92.700 E10.4253
G1 X118.088 Y92.700 E10.4695
G1 X118.088 Y91.847 E10.4936
G1 X118.151 Y91.847 E10.4954
G1 X118.169 Y91.139 E10.5154
G1 X119.969 Y91.139 E10.5663
G1 X120.359 Y91.873 E10.5898
G1 X124.309 Y91.878 E10.7014
G1 X124.617 Y91.840 E10.7102
G1 X126.417 Y91.840 E10.7611
G1 X126.912 Y91.823 E10.7751
G1 X128.712 Y91.823 E10.8260
G1 X129.297 Y91.840 E10.8425
G1 X131.097 Y91.840 E10.8934
G1 X131.402 Y91.878 E10.9021
G1 X135.340 Y91.879 E11.0134
G1 X135.540 Y91.536 E11.0247
G1 X137.340 Y91.536 E11.0756
G1 X137.566 Y91.849 E11.0865
G1 X135.766 Y91.849 E11.1374
G1 X138.065 Y91.895 E11.2024
G1 X138.446 Y91.895 E11.2131
G1 X137.340 Y93.336 E11.2645
G1 X135.567 Y93.336 E11.3146
G1 X135.877 Y93.899 E11.3328
G1 X137.677 Y93.899 E11.3837
G1 X137.677 Y95.699 E11.4346
G1 X135.904 Y95.699 E11.4847
G1 X135.947 Y96.362 E11.5035
G1 X137.747 Y96.362 E11.5544
G1 X135.947 Y98.162 E11.6263
G1 X137.747 Y98.162 E11.6772
G1 X137.905 Y98.944 E11.6998
G1 X136.131 Y98.944 E11.7499
; ------------------------------------
; Layer #9
; ------------------------------------
M106 S255 ;set fan speed
G21 ; mm
G90 ; abs
G92 E0 ;reset extr
;segType:Support
G0 F4800 E-1.0000
G0 F1200 Z2.000
G0 X119.650 Y96.783 F7200
G0 F4800 E0.0000
G1 X118.088 Y96.783 E0.0442 F5400
G0 X116.375 Y97.837 F7200
G0 X114.662 Y98.892
;segType:HShell
G1 X112.445 Y101.109 E0.1484 F3600
G0 X113.010 Y101.109 F7200
G1 X115.227 Y98.892 E0.2527 F3600
G0 X115.793 Y98.892 F7200
G1 X113.576 Y101.109 E0.3570 F3600
G0 X114.142 Y101.109 F7200
G1 X116.327 Y98.923 E0.4598 F3600
;segType:Perimeter
G0 X116.888 Y98.471 F7200
G1 X116.888 Y97.671 E0.4864 F2159
G1 X116.888 Y92.117 E0.6712
G1 X117.487 Y92.117 E0.6911
G1 X117.487 Y107.883 E1.2155
G1 X116.888 Y107.883 E1.2354
G1 X116.888 Y102.269 E1.4222
G1 X110.538 Y102.269 E1.6334
G1 X110.538 Y97.731 E1.7843
G1 X116.828 Y97.731 E1.9935
G0 X117.287 Y97.731 F7200
;segType:Loop
G0 X117.087 Y98.137
G1 X117.087 Y102.037 E2.1232 F3600
G1 X117.047 Y101.869 E2.1289
G1 X110.938 Y101.869 E2.3321
G1 X110.938 Y98.131 E2.4564
G1 X117.047 Y98.131 E2.6596
G1 X117.048 Y98.129 E2.6597
G0 X116.687 Y99.237 F7200
G1 X116.687 Y101.469 E2.7339 F3600
G1 X111.338 Y101.469 E2.9118
G1 X111.338 Y98.531 E3.0095
G1 X116.687 Y98.531 E3.1875
G1 X116.687 Y99.037 E3.2043
;segType:HShell
G0 X116.327 Y99.489 F7200
G1 X114.707 Y101.109 E3.2805 F3600
G0 X115.273 Y101.109 F7200
G1 X116.327 Y100.055 E3.3300 F3600
G0 X116.327 Y100.620 F7200
G1 X115.839 Y101.109 E3.3530 F3600
G0 X112.399 Y98.892 F7200
G1 X111.698 Y99.592 E3.3860 F3600
G0 X111.698 Y100.158 F7200
G1 X112.965 Y98.892 E3.4455 F3600
G0 X113.530 Y98.892 F7200
G1 X111.698 Y100.724 E3.5317 F3600
G0 X111.879 Y101.109 F7200
G1 X114.096 Y98.892 E3.6360 F3600
;segType:Support
G0 F4800 E2.6360
G0 X116.351 Y90.047 F7200
G0 F4800 E3.6360
G1 X118.151 Y90.047 E3.6869 F5400
G1 X120.359 Y90.073 E3.7493
G1 X124.309 Y90.078 E3.8610
G1 X124.617 Y90.040 E3.8697
G1 X126.417 Y90.040 E3.9206
G1 X126.912 Y90.023 E3.9346
G1 X128.712 Y90.023 E3.9855
G1 X129.297 Y90.040 E4.0021
G1 X131.097 Y90.040 E4.0529
G1 X131.402 Y90.078 E4.0616
G1 X135.340 Y90.079 E4.1730
G1 X135.766 Y90.049 E4.1850
G1 X137.566 Y90.049 E4.2359
G1 X137.857 Y90.095 E4.2443
G1 X139.657 Y90.095 E4.2952
G0 F4800 E3.2952
G0 X137.677 Y95.699 F7200
G0 F4800 E4.2952
G1 X135.930 Y95.699 E4.3446 F5400
G1 X135.947 Y96.362 E4.3633
G1 X137.747 Y96.362 E4.4142
;segType:Loop
G0 F4800 E3.4142
G0 X139.446 Y101.937 F7200
G0 F4800 E4.4142
G1 X139.446 Y98.037 E4.5439 F3600
G1 X139.447 Y98.132 E4.5471
G1 X145.596 Y98.132 E4.7516
G1 X145.596 Y101.868 E4.8758
G1 X139.447 Y101.868 E5.0803
G1 X139.447 Y101.937 E5.0826
;segType:Perimeter
G0 X139.379 Y107.110 F7200
G1 X139.586 Y107.883 E5.1092 F2159
G1 X139.046 Y107.883 E5.1271
G1 X139.046 Y92.117 E5.6515
G1 X139.646 Y92.117 E5.6715
G1 X139.646 Y97.732 E5.8582
G1 X145.996 Y97.732 E6.0694
G1 X145.996 Y102.268 E6.2203
G1 X139.646 Y102.268 E6.4315
G1 X139.646 Y107.823 E6.6163
G0 X139.239 Y107.714 F7200
G0 X139.646 Y103.120
G0 X139.646 Y102.268
G0 X139.721 Y102.268
G0 X139.721 Y102.268
G0 X139.848 Y100.825
;segType:Loop
G0 X139.847 Y100.837
G1 X139.847 Y98.532 E6.6929 F3600
G1 X145.196 Y98.532 E6.8708
G1 X145.196 Y101.468 E6.9684
G1 X139.847 Y101.468 E7.1463
G1 X139.847 Y101.037 E7.1607
;segType:HShell
G0 X140.683 Y98.892 F7200
G1 X140.207 Y99.367 E7.1830 F3600
G0 X140.207 Y99.933 F7200
G1 X141.248 Y98.892 E7.2320 F3600
G0 X141.814 Y98.892 F7200
G1 X140.207 Y100.499 E7.3075 F3600
G0 X140.207 Y101.064 F7200
G1 X142.380 Y98.892 E7.4097 F3600
G0 X142.945 Y98.892 F7200
G1 X140.730 Y101.108 E7.5139 F3600
G0 X141.296 Y101.108 F7200
G1 X143.511 Y98.892 E7.6181 F3600
G0 X144.077 Y98.892 F7200
G1 X141.861 Y101.108 E7.7223 F3600
G0 X142.427 Y101.108 F7200
G1 X144.642 Y98.892 E7.8265 F3600
G0 X144.835 Y99.265 F7200
G1 X142.993 Y101.108 E7.9132 F3600
G0 X143.558 Y101.108 F7200
G1 X144.835 Y99.830 E7.9733 F3600
G0 X144.835 Y100.396 F7200
G1 X144.124 Y101.108 E8.0067 F3600
;segType:Support
G0 F4800 E7.0067
G0 X138.028 Y104.505 F7200
G0 F4800 E8.0067
G1 X136.228 Y104.505 E8.0576 F5400
G1 X136.228 Y106.305 E8.1085
G1 X138.028 Y106.305 E8.1594
G1 X138.022 Y106.732 E8.1715
G1 X136.277 Y106.732 E8.2208
G1 X138.446 Y108.128 E8.2938
G1 X138.416 Y108.128 E8.2946
G1 X138.143 Y108.044 E8.3027
G1 X136.343 Y108.044 E8.3536
G1 X136.277 Y108.532 E8.3675
G1 X138.077 Y108.532 E8.4184
G1 X135.843 Y108.068 E8.4829
G1 X134.043 Y108.068 E8.5338
G1 X133.235 Y108.053 E8.5566
G1 X131.661 Y108.053 E8.6011
G1 X131.262 Y108.009 E8.6124
G1 X129.462 Y108.009 E8.6633
G1 X129.091 Y107.928 E8.6741
G1 X127.291 Y107.928 E8.7250
G1 X126.821 Y108.150 E8.7397
G1 X125.021 Y108.150 E8.7906
G1 X124.491 Y108.074 E8.8057
G1 X122.691 Y108.074 E8.8566
G1 X122.303 Y107.963 E8.8680
G1 X120.503 Y107.963 E8.9189
G1 X120.243 Y108.119 E8.9275
G1 X118.443 Y108.119 E8.9784
G1 X118.212 Y108.013 E8.9855
G1 X118.088 Y108.013 E8.9890
G0 X120.635 Y105.446 F7200
G1 X118.835 Y105.446 E9.0399 F5400
G1 X118.781 Y105.333 E9.0435
G1 X120.527 Y105.333 E9.0928
G0 X119.610 Y100.550 F7200
G1 X118.088 Y100.550 E9.1359 F5400
G1 X118.088 Y100.521 E9.1367
G1 X118.536 Y100.474 E9.1494
G1 X120.283 Y100.474 E9.1988
G1 X119.610 Y102.350 E9.2552
G1 X118.088 Y102.350 E9.2982
G1 X118.727 Y103.533 E9.3362
G1 X120.527 Y103.533 E9.3871
G0 X118.088 Y107.483 F7200
G1 X118.835 Y107.246 E9.4093 F5400
G1 X120.635 Y107.246 E9.4602
G0 X116.412 Y109.813 F7200
G1 X118.212 Y109.813 E9.5111 F5400
G1 X118.443 Y109.919 E9.5183
G1 X120.243 Y109.919 E9.5691
G1 X120.503 Y109.763 E9.5777
G1 X122.303 Y109.763 E9.6286
G1 X122.691 Y109.874 E9.6400
G1 X124.491 Y109.874 E9.6909
G1 X125.021 Y109.950 E9.7060
G1 X126.821 Y109.950 E9.7569
G1 X127.291 Y109.728 E9.7716
G1 X129.091 Y109.728 E9.8225
G1 X129.462 Y109.809 E9.8333
G1 X131.262 Y109.809 E9.8842
G1 X131.661 Y109.853 E9.8955
G1 X133.461 Y109.853 E9.9464
G1 X134.043 Y109.868 E9.9629
G1 X135.843 Y109.868 E10.0137
G1 X136.343 Y109.844 E10.0279
G1 X138.143 Y109.844 E10.0788
G1 X138.416 Y109.928 E10.0869
G1 X140.216 Y109.928 E10.1377
G0 F4800 E9.1377
G0 X139.474 Y107.807 F7200
G0 X137.991 Y103.567
G0 F4800 E10.1377
G1 X136.191 Y103.567 E10.1886 F5400
G1 X136.191 Y101.767 E10.2395
G1 X137.991 Y101.767 E10.2904
G1 X137.931 Y100.744 E10.3194
G1 X136.131 Y100.744 E10.3702
G1 X136.131 Y98.944 E10.4211
G1 X137.878 Y98.944 E10.4705
G1 X137.747 Y98.162 E10.4930
G1 X135.947 Y98.162 E10.5438
G0 X137.677 Y93.899 F7200
G1 X135.877 Y93.899 E10.5947 F5400
G1 X135.594 Y93.336 E10.6126
G1 X137.340 Y93.336 E10.6619
G1 X138.446 Y91.895 E10.7133
G1 X137.857 Y91.895 E10.7299
G1 X137.566 Y91.849 E10.7382
G1 X135.766 Y91.849 E10.7891
G1 X135.540 Y91.536 E10.8001
G1 X137.340 Y91.536 E10.8509
G1 X135.340 Y91.879 E10.9083
G1 X131.402 Y91.878 E11.0196
G1 X131.097 Y91.840 E11.0283
G1 X129.297 Y91.840 E11.0792
G1 X128.712 Y91.823 E11.0958
G1 X126.912 Y91.823 E11.1467
G1 X126.417 Y91.840 E11.1607
G1 X124.617 Y91.840 E11.2115
G1 X124.309 Y91.878 E11.2203
G1 X120.359 Y91.873 E11.3320
G1 X119.969 Y91.139 E11.3555
G1 X118.169 Y91.139 E11.4064
G1 X118.151 Y91.847 E11.4264
G1 X118.088 Y91.847 E11.4282
G1 X118.169 Y92.939 E11.4591
G1 X119.969 Y92.939 E11.5100
G1 X119.651 Y92.700 E11.5213
G1 X118.088 Y92.700 E11.5655
G1 X118.088 Y94.543 E11.6176
G1 X118.406 Y94.619 E11.6269
G1 X120.206 Y94.619 E11.6777
G1 X119.651 Y94.500 E11.6938
G1 X118.088 Y94.500 E11.7380
G1 X118.088 Y96.627 E11.7981
G1 X118.406 Y96.419 E11.8089
G1 X120.206 Y96.419 E11.8598
G1 X120.283 Y98.674 E11.9236
G1 X118.483 Y98.674 E11.9744
G1 X118.088 Y98.612 E11.9858
G1 X118.088 Y98.583 E11.9866
G1 X119.650 Y98.583 E12.0307
; ------------------------------------
; Layer #10
; ------------------------------------
M106 S255 ;set fan speed
G21 ; mm
G90 ; abs
G92 E0 ;reset extr
;segType:Support
G0 F4800 E-1.0000
G0 F1200 Z2.200
G0 X119.651 Y94.500 F7200
G0 F4800 E0.0000
G1 X118.088 Y94.500 E0.0442 F5400
G1 X118.088 Y94.539 E0.0453
G1 X118.406 Y94.619 E0.0546
G1 X120.206 Y94.619 E0.1055
G1 X120.206 Y96.419 E0.1564
G1 X118.406 Y96.419 E0.2072
G1 X118.088 Y96.627 E0.2180
G1 X118.088 Y96.783 E0.2224
G1 X119.650 Y96.783 E0.2666
G1 X119.650 Y98.583 E0.3174
G1 X118.088 Y98.583 E0.3616
G1 X118.088 Y98.609 E0.3623
G1 X118.483 Y98.674 E0.3737
G1 X120.283 Y98.674 E0.4246
G1 X120.283 Y100.474 E0.4755
G1 X118.563 Y100.474 E0.5241
G1 X118.088 Y100.522 E0.5376
G1 X118.088 Y100.550 E0.5384
G1 X119.610 Y100.550 E0.5814
G1 X119.610 Y102.350 E0.6323
G1 X118.088 Y102.350 E0.6754
G1 X118.727 Y103.533 E0.7134
G1 X120.527 Y103.533 E0.7643
G1 X120.527 Y105.333 E0.8151
G1 X118.808 Y105.333 E0.8637
G1 X118.835 Y105.446 E0.8670
G1 X120.635 Y105.446 E0.9179
G1 X120.635 Y107.246 E0.9688
G1 X118.835 Y107.246 E1.0197
G1 X118.088 Y107.483 E1.0419
G1 X118.088 Y108.013 E1.0569
G1 X118.212 Y108.013 E1.0604
G1 X118.443 Y108.119 E1.0676
G1 X120.243 Y108.119 E1.1184
G1 X120.503 Y107.963 E1.1270
G1 X122.303 Y107.963 E1.1779
G1 X122.691 Y108.074 E1.1893
G1 X124.491 Y108.074 E1.2402
G1 X125.021 Y108.150 E1.2553
G1 X126.821 Y108.150 E1.3062
G1 X127.291 Y107.928 E1.3209
G1 X129.091 Y107.928 E1.3718
G1 X129.462 Y108.009 E1.3826
G1 X131.262 Y108.009 E1.4335
G1 X131.661 Y108.053 E1.4448
G1 X133.211 Y108.053 E1.4886
G1 X134.043 Y108.068 E1.5122
G1 X135.843 Y108.068 E1.5630
G1 X138.077 Y108.532 E1.6275
G1 X136.277 Y108.532 E1.6784
G1 X136.343 Y108.044 E1.6923
G1 X138.143 Y108.044 E1.7432
G1 X138.416 Y108.128 E1.7513
G1 X138.446 Y108.128 E1.7522
G1 X140.216 Y109.928 E1.8235
G1 X138.416 Y109.928 E1.8744
G1 X138.143 Y109.844 E1.8825
G1 X136.343 Y109.844 E1.9334
G1 X135.843 Y109.868 E1.9475
G1 X134.043 Y109.868 E1.9984
G1 X133.461 Y109.853 E2.0149
G1 X131.661 Y109.853 E2.0658
G1 X131.262 Y109.809 E2.0771
G1 X129.462 Y109.809 E2.1280
G1 X129.091 Y109.728 E2.1387
G1 X127.291 Y109.728 E2.1896
G1 X126.821 Y109.950 E2.2043
G1 X125.021 Y109.950 E2.2552
G1 X124.491 Y109.874 E2.2704
G1 X122.691 Y109.874 E2.3212
G1 X122.303 Y109.763 E2.3327
G1 X120.503 Y109.763 E2.3835
G1 X120.243 Y109.919 E2.3921
G1 X118.443 Y109.919 E2.4430
G1 X118.212 Y109.813 E2.4502
G1 X116.412 Y109.813 E2.5011
G0 F4800 E1.5011
G0 X114.638 Y103.171 F7200
G0 X114.047 Y100.957
G0 X113.455 Y98.743
G0 F4800 E2.5011
;segType:HShell
G1 X115.969 Y101.257 E2.6193 F3600
G0 X116.327 Y101.049 F7200
G1 X114.021 Y98.743 E2.7278 F3600
G0 X114.587 Y98.743 F7200
G1 X116.327 Y100.483 E2.8096 F3600
G0 X116.327 Y99.918 F7200
G1 X115.152 Y98.743 E2.8649 F3600
G0 X115.718 Y98.743 F7200
G1 X116.327 Y99.352 E2.8935 F3600
;segType:Perimeter
G0 X116.888 Y98.323 F7200
G1 X116.888 Y97.523 E2.9201 F2159
G1 X116.888 Y92.117 E3.0999
G1 X117.487 Y92.117 E3.1199
G1 X117.487 Y107.883 E3.6443
G1 X116.888 Y107.883 E3.6642
G1 X116.888 Y102.417 E3.8460
G1 X110.538 Y102.417 E4.0572
G1 X110.538 Y97.583 E4.2180
G1 X116.828 Y97.583 E4.4272
G0 X117.287 Y97.583 F7200
;segType:Loop
G0 X117.087 Y97.908
G1 X117.087 Y102.151 E4.5683 F3600
G1 X117.047 Y102.017 E4.5730
G1 X110.938 Y102.017 E4.7762
G1 X110.938 Y97.983 E4.9103
G1 X117.047 Y97.983 E5.1135
G1 X117.065 Y97.906 E5.1161
G0 X116.687 Y99.008 F7200
G1 X116.687 Y101.617 E5.2029 F3600
G1 X111.338 Y101.617 E5.3808
G1 X111.338 Y98.383 E5.4884
G1 X116.687 Y98.383 E5.6663
G1 X116.687 Y98.808 E5.6804
;segType:HShell
G0 X112.890 Y98.743 F7200
G1 X115.403 Y101.257 E5.7987 F3600
G0 X114.838 Y101.257 F7200
G1 X112.324 Y98.743 E5.9169 F3600
G0 X111.758 Y98.743 F7200
G1 X114.272 Y101.257 E6.0351 F3600
G0 X113.706 Y101.257 F7200
G1 X111.698 Y99.249 E6.1296 F3600
G0 X111.698 Y99.814 F7200
G1 X113.141 Y101.257 E6.1974 F3600
G0 X112.575 Y101.257 F7200
G1 X111.698 Y100.380 E6.2387 F3600
G0 X111.698 Y100.946 F7200
G1 X112.009 Y101.257 E6.2533 F3600
;segType:Support
G0 F4800 E5.2533
G0 X116.351 Y90.047 F7200
G0 F4800 E6.2533
G1 X118.151 Y90.047 E6.3042 F5400
G1 X120.359 Y90.073 E6.3666
G1 X124.309 Y90.078 E6.4783
G1 X124.617 Y90.040 E6.4870
G1 X126.417 Y90.040 E6.5379
G1 X126.912 Y90.023 E6.5519
G1 X128.712 Y90.023 E6.6028
G1 X129.297 Y90.040 E6.6194
G1 X131.097 Y90.040 E6.6702
G1 X131.402 Y90.078 E6.6789
G1 X135.340 Y90.079 E6.7903
G1 X135.766 Y90.049 E6.8023
G1 X137.566 Y90.049 E6.8532
G1 X137.857 Y90.095 E6.8616
G1 X139.657 Y90.095 E6.9125
G0 F4800 E5.9125
G0 X137.677 Y95.699 F7200
G0 F4800 E6.9125
G1 X135.956 Y95.699 E6.9611 F5400
G1 X135.947 Y96.362 E6.9798
G1 X137.747 Y96.362 E7.0307
;segType:Loop
G0 F4800 E6.0307
G0 X139.446 Y102.051 F7200
G0 F4800 E7.0307
G1 X139.446 Y97.808 E7.1718 F3600
G1 X139.447 Y97.984 E7.1777
G1 X145.596 Y97.984 E7.3822
G1 X145.596 Y102.016 E7.5163
G1 X139.447 Y102.016 E7.7208
G1 X139.447 Y102.051 E7.7220
;segType:Perimeter
G0 X139.379 Y107.110 F7200
G1 X139.586 Y107.883 E7.7486 F2159
G1 X139.046 Y107.883 E7.7665
G1 X139.046 Y92.117 E8.2909
G1 X139.646 Y92.117 E8.3108
G1 X139.646 Y97.584 E8.4927
G1 X145.996 Y97.584 E8.7039
G1 X145.996 Y102.416 E8.8646
G1 X139.646 Y102.416 E9.0758
G1 X139.646 Y107.823 E9.2556
G0 X139.239 Y107.714 F7200
G0 X139.646 Y103.196
G0 X139.646 Y102.416
G0 X139.716 Y102.416
G0 X139.716 Y102.416
G0 X139.848 Y100.939
;segType:Loop
G0 X139.847 Y100.951
G1 X139.847 Y98.384 E9.3410 F3600
G1 X145.196 Y98.384 E9.5189
G1 X145.196 Y101.616 E9.6264
G1 X139.847 Y101.616 E9.8042
G1 X139.847 Y101.151 E9.8197
;segType:HShell
G0 X144.835 Y99.576 F7200
G1 X144.004 Y98.744 E9.8588 F3600
G0 X143.438 Y98.744 F7200
G1 X144.835 Y100.142 E9.9246 F3600
G0 X144.835 Y100.708 F7200
G1 X142.872 Y98.744 E10.0169 F3600
G0 X142.307 Y98.744 F7200
G1 X144.818 Y101.256 E10.1350 F3600
G0 X144.252 Y101.256 F7200
G1 X141.741 Y98.744 E10.2531 F3600
G0 X141.175 Y98.744 F7200
G1 X143.687 Y101.256 E10.3713 F3600
G0 X143.121 Y101.256 F7200
G1 X140.610 Y98.744 E10.4894 F3600
G0 X140.207 Y98.908 F7200
G1 X142.555 Y101.256 E10.5998 F3600
G0 X141.989 Y101.256 F7200
G1 X140.207 Y99.474 E10.6836 F3600
G0 X140.207 Y100.039 F7200
G1 X141.424 Y101.256 E10.7408 F3600
G0 X140.858 Y101.256 F7200
G1 X140.207 Y100.605 E10.7714 F3600
;segType:Support
G0 X138.028 Y104.505 F7200
G1 X136.228 Y104.505 E10.8223 F5400
G1 X136.277 Y106.732 E10.8853
G1 X137.995 Y106.732 E10.9339
G1 X138.028 Y106.305 E10.9460
G1 X136.228 Y106.305 E10.9968
G0 X136.191 Y103.567 F7200
G1 X137.991 Y103.567 E11.0477 F5400
G1 X136.191 Y101.767 E11.1197
G1 X137.991 Y101.767 E11.1706
G1 X137.931 Y100.744 E11.1995
G1 X136.131 Y100.744 E11.2504
G1 X136.131 Y98.944 E11.3013
G1 X137.852 Y98.944 E11.3500
G1 X137.747 Y98.162 E11.3723
G1 X135.947 Y98.162 E11.4232
G0 X137.677 Y93.899 F7200
G1 X135.877 Y93.899 E11.4741 F5400
G1 X135.622 Y93.336 E11.4916
G1 X137.340 Y93.336 E11.5401
G1 X138.446 Y91.895 E11.5915
G1 X137.857 Y91.895 E11.6081
G1 X135.766 Y91.849 E11.6673
G1 X137.566 Y91.849 E11.7182
G1 X137.340 Y91.536 E11.7291
G1 X135.540 Y91.536 E11.7800
G1 X135.340 Y91.879 E11.7912
G1 X131.402 Y91.878 E11.9025
G1 X131.097 Y91.840 E11.9112
G1 X129.297 Y91.840 E11.9621
G1 X128.712 Y91.823 E11.9787
G1 X126.912 Y91.823 E12.0296
G1 X126.417 Y91.840 E12.0436
G1 X124.617 Y91.840 E12.0944
G1 X124.309 Y91.878 E12.1032
G1 X120.359 Y91.873 E12.2149
G1 X119.969 Y91.139 E12.2384
G1 X118.169 Y91.139 E12.2893
G1 X118.151 Y91.847 E12.3093
G1 X118.088 Y91.847 E12.3111
G1 X118.088 Y92.700 E12.3352
G1 X119.651 Y92.700 E12.3794
G1 X119.969 Y92.939 E12.3906
G1 X118.169 Y92.939 E12.4415
; ------------------------------------
; Layer #11
; ------------------------------------
M106 S255 ;set fan speed
G21 ; mm
G90 ; abs
G92 E0 ;reset extr
;segType:Support
G0 F4800 E-1.0000
G0 F1200 Z2.400
G0 X119.650 Y96.783 F7200
G0 F4800 E0.0000
G1 X118.088 Y96.783 E0.0442 F5400
G1 X118.088 Y96.627 E0.0486
G1 X118.406 Y96.419 E0.0593
G1 X120.206 Y96.419 E0.1102
G1 X120.206 Y94.619 E0.1611
G1 X118.406 Y94.619 E0.2120
G1 X118.088 Y94.535 E0.2213
G1 X118.088 Y94.500 E0.2223
G1 X119.651 Y94.500 E0.2665
G1 X118.169 Y92.939 E0.3273
G1 X119.969 Y92.939 E0.3782
G1 X119.651 Y92.700 E0.3894
G1 X118.088 Y92.700 E0.4336
G1 X118.088 Y91.847 E0.4578
G1 X118.151 Y91.847 E0.4596
G1 X118.169 Y91.139 E0.4796
G1 X119.969 Y91.139 E0.5305
G1 X120.359 Y91.873 E0.5539
G1 X124.309 Y91.878 E0.6656
G1 X124.617 Y91.840 E0.6744
G1 X126.417 Y91.840 E0.7253
G1 X126.912 Y91.823 E0.7393
G1 X128.712 Y91.823 E0.7901
G1 X129.297 Y91.840 E0.8067
G1 X131.097 Y91.840 E0.8576
G1 X131.402 Y91.878 E0.8663
G1 X135.340 Y91.879 E0.9776
G1 X135.540 Y91.536 E0.9888
G1 X137.340 Y91.536 E1.0397
G1 X137.566 Y91.849 E1.0507
G1 X135.766 Y91.849 E1.1015
G1 X137.857 Y91.895 E1.1607
G1 X138.446 Y91.895 E1.1773
G1 X137.340 Y93.336 E1.2287
G1 X135.649 Y93.336 E1.2765
G1 X135.877 Y93.899 E1.2937
G1 X137.677 Y93.899 E1.3446
G0 X135.947 Y98.162 F7200
G1 X137.747 Y98.162 E1.3955 F5400
G1 X137.826 Y98.944 E1.4177
G1 X136.131 Y98.944 E1.4656
G1 X136.131 Y100.744 E1.5165
G1 X137.931 Y100.744 E1.5674
G1 X137.991 Y101.767 E1.5963
G1 X136.191 Y101.767 E1.6472
G1 X136.191 Y103.567 E1.6981
G1 X137.991 Y103.567 E1.7490
G1 X138.028 Y104.505 E1.7755
G1 X136.228 Y104.505 E1.8264
G1 X138.028 Y106.305 E1.8984
G1 X136.228 Y106.305 E1.9493
G1 X136.277 Y106.732 E1.9614
G1 X138.077 Y106.732 E2.0123
G1 X138.446 Y108.128 E2.0531
G1 X138.416 Y108.128 E2.0540
G1 X138.143 Y108.044 E2.0621
G1 X136.343 Y108.044 E2.1129
G1 X136.277 Y108.532 E2.1269
G1 X138.077 Y108.532 E2.1778
G1 X135.843 Y108.068 E2.2422
G1 X134.043 Y108.068 E2.2931
G1 X133.187 Y108.053 E2.3173
G1 X131.661 Y108.053 E2.3605
G1 X131.262 Y108.009 E2.3718
G1 X129.462 Y108.009 E2.4227
G1 X129.091 Y107.928 E2.4335
G1 X127.291 Y107.928 E2.4843
G1 X126.821 Y108.150 E2.4991
G1 X125.021 Y108.150 E2.5499
G1 X124.491 Y108.074 E2.5651
G1 X122.691 Y108.074 E2.6160
G1 X122.303 Y107.963 E2.6274
G1 X120.503 Y107.963 E2.6783
G1 X120.243 Y108.119 E2.6868
G1 X118.443 Y108.119 E2.7377
G1 X118.212 Y108.013 E2.7449
G1 X118.088 Y108.013 E2.7484
G1 X116.412 Y109.813 E2.8179
G1 X118.212 Y109.813 E2.8688
G1 X118.443 Y109.919 E2.8760
G1 X120.243 Y109.919 E2.9269
G1 X120.503 Y109.763 E2.9355
G1 X122.303 Y109.763 E2.9864
G1 X122.691 Y109.874 E2.9978
G1 X124.491 Y109.874 E3.0487
G1 X125.021 Y109.950 E3.0638
G1 X126.821 Y109.950 E3.1147
G1 X127.291 Y109.728 E3.1294
G1 X129.091 Y109.728 E3.1803
G1 X129.462 Y109.809 E3.1910
G1 X131.262 Y109.809 E3.2419
G1 X131.661 Y109.853 E3.2533
G1 X133.461 Y109.853 E3.3041
G1 X134.043 Y109.868 E3.3206
G1 X135.843 Y109.868 E3.3715
G1 X136.343 Y109.844 E3.3856
G1 X138.143 Y109.844 E3.4365
G1 X138.416 Y109.928 E3.4446
G1 X140.216 Y109.928 E3.4955
G0 F4800 E2.4955
G0 X139.959 Y107.340 F7200
G0 X139.703 Y104.753
G0 X139.446 Y102.166
G0 F4800 E3.4955
;segType:Loop
G1 X139.446 Y97.694 E3.6442 F3600
G1 X139.447 Y97.856 E3.6496
G1 X145.596 Y97.856 E3.8541
G1 X145.596 Y102.145 E3.9967
G1 X139.447 Y102.145 E4.2012
G1 X139.447 Y102.166 E4.2019
;segType:Perimeter
G0 X139.379 Y107.110 F7200
G1 X139.586 Y107.883 E4.2285 F2159
G1 X139.046 Y107.883 E4.2465
G1 X139.046 Y92.117 E4.7708
G1 X139.646 Y92.117 E4.7908
G1 X139.646 Y97.456 E4.9684
G1 X145.996 Y97.456 E5.1796
G1 X145.996 Y102.545 E5.3488
G1 X139.646 Y102.545 E5.5600
G1 X139.646 Y107.823 E5.7356
G0 X139.239 Y107.714 F7200
G0 X139.646 Y103.273
G0 X139.646 Y102.545
G0 X139.712 Y102.545
G0 X139.712 Y102.545
G0 X139.848 Y101.053
;segType:Loop
G0 X139.847 Y101.066
G1 X139.847 Y98.256 E5.8290 F3600
G1 X145.196 Y98.256 E6.0069
G1 X145.196 Y101.745 E6.1230
G1 X139.847 Y101.745 E6.3008
G1 X139.847 Y101.266 E6.3168
;segType:HShell
G0 X144.413 Y101.384 F7200
G1 X144.835 Y100.962 E6.3367 F3600
G0 X144.835 Y100.396 F7200
G1 X143.847 Y101.384 E6.3831 F3600
G0 X143.282 Y101.384 F7200
G1 X144.835 Y99.830 E6.4562 F3600
G0 X144.835 Y99.265 F7200
G1 X142.716 Y101.384 E6.5559 F3600
G0 X142.150 Y101.384 F7200
G1 X144.835 Y98.699 E6.6822 F3600
G0 X144.353 Y98.616 F7200
G1 X141.584 Y101.384 E6.8125 F3600
G0 X141.019 Y101.384 F7200
G1 X143.787 Y98.616 E6.9427 F3600
G0 X143.222 Y98.616 F7200
G1 X140.453 Y101.384 E7.0729 F3600
G0 X140.207 Y101.064 F7200
G1 X142.656 Y98.616 E7.1881 F3600
G0 X142.090 Y98.616 F7200
G1 X140.207 Y100.499 E7.2767 F3600
G0 X140.207 Y99.933 F7200
G1 X141.525 Y98.616 E7.3386 F3600
G0 X140.959 Y98.616 F7200
G1 X140.207 Y99.367 E7.3740 F3600
;segType:Support
G0 X137.747 Y96.362 F7200
G1 X135.947 Y96.362 E7.4249 F5400
G1 X135.983 Y95.699 E7.4436
G1 X137.677 Y95.699 E7.4915
G0 F4800 E6.4915
G0 X139.657 Y90.095 F7200
G0 F4800 E7.4915
G1 X137.857 Y90.095 E7.5424 F5400
G1 X137.566 Y90.049 E7.5508
G1 X135.766 Y90.049 E7.6016
G1 X135.340 Y90.079 E7.6137
G1 X131.402 Y90.078 E7.7250
G1 X131.097 Y90.040 E7.7337
G1 X129.297 Y90.040 E7.7846
G1 X128.712 Y90.023 E7.8012
G1 X126.912 Y90.023 E7.8521
G1 X126.417 Y90.040 E7.8661
G1 X124.617 Y90.040 E7.9169
G1 X124.309 Y90.078 E7.9257
G1 X120.359 Y90.073 E8.0374
G1 X118.151 Y90.047 E8.0998
G1 X116.351 Y90.047 E8.1507
;segType:HShell
G0 F4800 E7.1507
G0 X112.739 Y101.380 F7200
G0 F4800 E8.1507
G1 X115.499 Y98.620 E8.2805 F3600
G0 X116.064 Y98.620 F7200
G1 X113.305 Y101.380 E8.4103 F3600
G0 X113.870 Y101.380 F7200
G1 X116.327 Y98.923 E8.5259 F3600
;segType:Perimeter
G0 X116.888 Y98.200 F7200
G1 X116.888 Y97.400 E8.5525 F2159
G1 X116.888 Y92.117 E8.7282
G1 X117.487 Y92.117 E8.7481
G1 X117.487 Y107.883 E9.2725
G1 X116.888 Y107.883 E9.2925
G1 X116.888 Y102.540 E9.4702
G1 X110.538 Y102.540 E9.6814
G1 X110.538 Y97.460 E9.8503
G1 X116.828 Y97.460 E10.0595
G0 X117.287 Y97.460 F7200
;segType:Loop
G0 X117.087 Y97.794
G1 X117.087 Y102.266 E10.2083 F3600
G1 X117.047 Y102.140 E10.2126
G1 X110.938 Y102.140 E10.4158
G1 X110.938 Y97.860 E10.5582
G1 X117.047 Y97.860 E10.7614
G1 X117.064 Y97.791 E10.7637
G0 X116.687 Y98.894 F7200
G1 X116.687 Y101.740 E10.8584 F3600
G1 X111.338 Y101.740 E11.0363
G1 X111.338 Y98.260 E11.1520
G1 X116.687 Y98.260 E11.3300
G1 X116.687 Y98.694 E11.3444
;segType:HShell
G0 X116.327 Y99.489 F7200
G1 X114.436 Y101.380 E11.4334 F3600
G0 X115.002 Y101.380 F7200
G1 X116.327 Y100.055 E11.4957 F3600
G0 X116.327 Y100.620 F7200
G1 X115.567 Y101.380 E11.5314 F3600
G0 X112.173 Y101.380 F7200
G1 X114.933 Y98.620 E11.6613 F3600
G0 X114.367 Y98.620 F7200
G1 X111.698 Y101.289 E11.7868 F3600
G0 X111.698 Y100.724 F7200
G1 X113.802 Y98.620 E11.8857 F3600
G0 X113.236 Y98.620 F7200
G1 X111.698 Y100.158 E11.9581 F3600
G0 X111.698 Y99.592 F7200
G1 X112.670 Y98.620 E12.0038 F3600
G0 X112.105 Y98.620 F7200
G1 X111.698 Y99.026 E12.0229 F3600
;segType:Support
G0 F4800 E11.0229
G0 X118.088 Y107.483 F7200
G0 F4800 E12.0229
G1 X118.835 Y107.246 E12.0451 F5400
G1 X120.635 Y107.246 E12.0960
G1 X120.635 Y105.446 E12.1469
G1 X118.835 Y105.446 E12.1978
G1 X118.836 Y105.333 E12.2010
G1 X120.527 Y105.333 E12.2488
G1 X118.727 Y103.533 E12.3207
G1 X120.527 Y103.533 E12.3716
G0 X118.088 Y102.350 F7200
G1 X119.610 Y102.350 E12.4147 F5400
G1 X119.610 Y100.550 E12.4656
G1 X118.088 Y100.550 E12.5086
G1 X118.088 Y100.523 E12.5094
G1 X118.589 Y100.474 E12.5236
G1 X120.283 Y100.474 E12.5715
G1 X120.283 Y98.674 E12.6224
G1 X118.483 Y98.674 E12.6733
G1 X118.088 Y98.606 E12.6846
G1 X118.088 Y98.583 E12.6853
G1 X119.650 Y98.583 E12.7294
; ------------------------------------
; Layer #12
; ------------------------------------
M106 S255 ;set fan speed
G21 ; mm
G90 ; abs
G92 E0 ;reset extr
;segType:Support
G0 F4800 E-1.0000
G0 F1200 Z2.600
G0 X136.131 Y98.944 F7200
G0 F4800 E0.0000
G1 X137.799 Y98.944 E0.0472 F5400
G1 X137.747 Y98.162 E0.0693
G1 X135.947 Y98.162 E0.1202
G1 X137.747 Y96.362 E0.1922
G1 X135.947 Y96.362 E0.2431
G1 X136.009 Y95.699 E0.2619
G1 X137.677 Y95.699 E0.3090
G1 X137.340 Y93.336 E0.3765
G1 X135.676 Y93.336 E0.4236
G1 X135.877 Y93.899 E0.4405
G1 X137.677 Y93.899 E0.4914
;segType:Loop
G0 F4800 E-0.5086
G0 X139.446 Y102.280 F7200
G0 F4800 E0.4914
G1 X139.446 Y97.580 E0.6477 F3600
G1 X139.447 Y97.755 E0.6535
G1 X145.596 Y97.755 E0.8580
G1 X145.596 Y102.245 E1.0074
G1 X139.447 Y102.245 E1.2119
G1 X139.447 Y102.280 E1.2130
;segType:Perimeter
G0 X139.379 Y107.110 F7200
G1 X139.586 Y107.883 E1.2396 F2159
G1 X139.046 Y107.883 E1.2576
G1 X139.046 Y92.117 E1.7820
G1 X139.646 Y92.117 E1.8019
G1 X139.646 Y97.355 E1.9761
G1 X145.996 Y97.355 E2.1873
G1 X145.996 Y102.645 E2.3633
G1 X139.646 Y102.645 E2.5745
G1 X139.646 Y107.823 E2.7467
G0 X139.239 Y107.714 F7200
G0 X139.646 Y103.349
G0 X139.646 Y102.645
G0 X139.711 Y102.645
G0 X139.711 Y102.645
G0 X139.848 Y101.167
;segType:Loop
G0 X139.847 Y101.180
G1 X139.847 Y98.155 E2.8473 F3600
G1 X145.196 Y98.155 E3.0252
G1 X145.196 Y101.845 E3.1479
G1 X139.847 Y101.845 E3.3258
G1 X139.847 Y101.380 E3.3413
;segType:HShell
G0 X140.207 Y101.171 F7200
G1 X140.522 Y101.485 E3.3561 F3600
G0 X141.088 Y101.485 F7200
G1 X140.207 Y100.605 E3.3975 F3600
G0 X140.207 Y100.039 F7200
G1 X141.653 Y101.485 E3.4655 F3600
G0 X142.219 Y101.485 F7200
G1 X140.207 Y99.474 E3.5601 F3600
G0 X140.207 Y98.908 F7200
G1 X142.785 Y101.485 E3.6814 F3600
G0 X143.350 Y101.485 F7200
G1 X140.380 Y98.515 E3.8211 F3600
G0 X140.946 Y98.515 F7200
G1 X143.916 Y101.485 E3.9608 F3600
G0 X144.482 Y101.485 F7200
G1 X141.511 Y98.515 E4.1005 F3600
G0 X142.077 Y98.515 F7200
G1 X144.835 Y101.273 E4.2303 F3600
G0 X144.835 Y100.708 F7200
G1 X142.643 Y98.515 E4.3334 F3600
G0 X143.208 Y98.515 F7200
G1 X144.835 Y100.142 E4.4099 F3600
G0 X144.835 Y99.576 F7200
G1 X143.774 Y98.515 E4.4599 F3600
G0 X144.340 Y98.515 F7200
G1 X144.835 Y99.010 E4.4832 F3600
;segType:Support
G0 F4800 E3.4832
G0 X137.991 Y101.767 F7200
G0 F4800 E4.4832
G1 X136.191 Y101.767 E4.5341 F5400
G1 X137.931 Y100.744 E4.5911
G1 X136.131 Y100.744 E4.6420
G0 X136.191 Y103.567 F7200
G1 X137.991 Y103.567 E4.6929 F5400
G1 X136.228 Y104.505 E4.7494
G1 X138.028 Y104.505 E4.8002
G1 X138.028 Y106.305 E4.8511
G1 X136.228 Y106.305 E4.9020
G1 X136.277 Y106.732 E4.9142
G1 X138.077 Y106.732 E4.9650
G1 X138.446 Y108.128 E5.0059
G1 X138.416 Y108.128 E5.0067
G1 X138.143 Y108.044 E5.0148
G1 X136.343 Y108.044 E5.0657
G1 X136.277 Y108.532 E5.0796
G1 X138.077 Y108.532 E5.1305
G1 X135.843 Y108.068 E5.1950
G1 X134.043 Y108.068 E5.2459
G1 X133.164 Y108.053 E5.2707
G1 X131.661 Y108.053 E5.3132
G1 X131.262 Y108.009 E5.3246
G1 X129.462 Y108.009 E5.3755
G1 X129.091 Y107.928 E5.3862
G1 X127.291 Y107.928 E5.4371
G1 X126.821 Y108.150 E5.4518
G1 X125.021 Y108.150 E5.5027
G1 X124.491 Y108.074 E5.5178
G1 X122.691 Y108.074 E5.5687
G1 X122.303 Y107.963 E5.5801
G1 X120.503 Y107.963 E5.6310
G1 X120.243 Y108.119 E5.6396
G1 X118.443 Y108.119 E5.6905
G1 X118.212 Y108.013 E5.6976
G1 X118.088 Y108.013 E5.7012
G1 X116.412 Y109.813 E5.7707
G1 X118.212 Y109.813 E5.8216
G1 X118.443 Y109.919 E5.8288
G1 X120.243 Y109.919 E5.8796
G1 X120.503 Y109.763 E5.8882
G1 X122.303 Y109.763 E5.9391
G1 X122.691 Y109.874 E5.9505
G1 X124.491 Y109.874 E6.0014
G1 X125.021 Y109.950 E6.0165
G1 X126.821 Y109.950 E6.0674
G1 X127.291 Y109.728 E6.0821
G1 X129.091 Y109.728 E6.1330
G1 X129.462 Y109.809 E6.1438
G1 X131.262 Y109.809 E6.1947
G1 X131.661 Y109.853 E6.2060
G1 X133.461 Y109.853 E6.2569
G1 X134.043 Y109.868 E6.2734
G1 X135.843 Y109.868 E6.3242
G1 X136.343 Y109.844 E6.3384
G1 X138.143 Y109.844 E6.3893
G1 X138.416 Y109.928 E6.3973
G1 X140.216 Y109.928 E6.4482
G0 F4800 E5.4482
G0 X120.635 Y105.446 F7200
G0 F4800 E6.4482
G1 X118.835 Y105.446 E6.4991 F5400
G1 X118.863 Y105.333 E6.5024
G1 X120.527 Y105.333 E6.5495
G1 X120.635 Y107.246 E6.6037
G1 X118.835 Y107.246 E6.6545
G1 X118.088 Y107.483 E6.6767
G0 X118.727 Y103.533 F7200
G1 X120.527 Y103.533 E6.7276 F5400
G1 X119.610 Y102.350 E6.7699
G1 X118.088 Y102.350 E6.8130
G0 F4800 E5.8130
G0 X116.465 Y101.069 F7200
G0 X113.219 Y98.507
G0 F4800 E6.8130
;segType:HShell
G1 X116.205 Y101.493 E6.9534 F3600
G0 X116.327 Y101.049 F7200
G1 X113.785 Y98.507 E7.0730 F3600
G0 X114.350 Y98.507 F7200
G1 X116.327 Y100.483 E7.1660 F3600
G0 X116.327 Y99.918 F7200
G1 X114.916 Y98.507 E7.2324 F3600
G0 X115.482 Y98.507 F7200
G1 X116.327 Y99.352 E7.2721 F3600
;segType:Perimeter
G0 X116.888 Y98.087 F7200
G1 X116.888 Y97.287 E7.2987 F2159
G1 X116.888 Y92.117 E7.4707
G1 X117.487 Y92.117 E7.4906
G1 X117.487 Y107.883 E8.0150
G1 X116.888 Y107.883 E8.0349
G1 X116.888 Y102.653 E8.2089
G1 X110.538 Y102.653 E8.4201
G1 X110.538 Y97.347 E8.5966
G1 X116.828 Y97.347 E8.8058
G0 X117.287 Y97.347 F7200
;segType:Loop
G0 X117.087 Y97.680
G1 X117.087 Y102.380 E8.9621 F3600
G1 X117.047 Y102.253 E8.9665
G1 X110.938 Y102.253 E9.1697
G1 X110.938 Y97.747 E9.3196
G1 X117.047 Y97.747 E9.5228
G1 X117.064 Y97.677 E9.5252
G0 X116.687 Y98.780 F7200
G1 X116.687 Y101.853 E9.6274 F3600
G1 X111.338 Y101.853 E9.8053
G1 X111.338 Y98.147 E9.9286
G1 X116.687 Y98.147 E10.1065
G1 X116.687 Y98.580 E10.1209
;segType:HShell
G0 X111.698 Y100.946 F7200
G1 X112.246 Y101.493 E10.1466 F3600
G0 X112.811 Y101.493 F7200
G1 X111.698 Y100.380 E10.1990 F3600
G0 X111.698 Y99.814 F7200
G1 X113.377 Y101.493 E10.2780 F3600
G0 X113.943 Y101.493 F7200
G1 X111.698 Y99.249 E10.3835 F3600
G0 X111.698 Y98.683 F7200
G1 X114.508 Y101.493 E10.5157 F3600
G0 X115.074 Y101.493 F7200
G1 X112.088 Y98.507 E10.6562 F3600
G0 X112.653 Y98.507 F7200
G1 X115.640 Y101.493 E10.7966 F3600
;segType:Support
G0 X118.088 Y100.550 F7200
G1 X119.610 Y100.550 E10.8397 F5400
G1 X120.283 Y100.474 E10.8588
G1 X118.483 Y100.474 E10.9097
G1 X119.650 Y98.583 E10.9725
G1 X118.088 Y98.583 E11.0167
G1 X118.088 Y98.602 E11.0172
G1 X118.483 Y98.674 E11.0286
G1 X120.283 Y98.674 E11.0795
G1 X119.650 Y96.783 E11.1359
G1 X118.088 Y96.783 E11.1800
G1 X118.088 Y96.627 E11.1845
G1 X118.406 Y96.419 E11.1952
G1 X120.206 Y96.419 E11.2461
G1 X119.651 Y94.500 E11.3026
G1 X118.088 Y94.500 E11.3468
G1 X118.169 Y92.939 E11.3909
G1 X119.969 Y92.939 E11.4418
G1 X119.651 Y92.700 E11.4531
G1 X118.088 Y92.700 E11.4973
G1 X118.088 Y91.847 E11.5214
G1 X118.151 Y91.847 E11.5232
G1 X118.169 Y91.139 E11.5432
G1 X119.969 Y91.139 E11.5941
G1 X120.359 Y91.873 E11.6176
G1 X124.309 Y91.878 E11.7293
G1 X124.617 Y91.840 E11.7380
G1 X126.417 Y91.840 E11.7889
G1 X126.912 Y91.823 E11.8029
G1 X128.712 Y91.823 E11.8538
G1 X129.297 Y91.840 E11.8703
G1 X131.097 Y91.840 E11.9212
G1 X131.402 Y91.878 E11.9299
G1 X135.340 Y91.879 E12.0413
G1 X137.340 Y91.536 E12.0986
G1 X135.540 Y91.536 E12.1495
G1 X135.766 Y91.849 E12.1604
G1 X137.566 Y91.849 E12.2113
G1 X137.857 Y91.895 E12.2197
G1 X138.446 Y91.895 E12.2363
G1 X139.657 Y90.095 E12.2976
G1 X137.857 Y90.095 E12.3485
G1 X137.566 Y90.049 E12.3569
G1 X135.766 Y90.049 E12.4077
G1 X135.340 Y90.079 E12.4198
G1 X131.402 Y90.078 E12.5311
G1 X131.097 Y90.040 E12.5398
G1 X129.297 Y90.040 E12.5907
G1 X128.712 Y90.023 E12.6073
G1 X126.912 Y90.023 E12.6582
G1 X126.417 Y90.040 E12.6722
